( Made using CamBam - http://www.cambam.co.uk )
( mfos_vco_VI_pcb 9/21/2015 10:18:00 PM )
( T1 : 0.04 )
( T2 : 0.031 )
( T3 : 0.0 )
( T6 : 0.0465 )
( T7 : 0.042 )
G20 G90 G64 G40
G0 Z0.125
( T7 : 0.042 )
T7 M6
( Pocket1 )
G17
M3 S1000
G0 X0.3208 Y3.7144
G0 Z0.0313
G1 F10.0 Z-0.005
G1 Y3.7163
G1 X0.3954
G1 Y3.7144
G1 Y3.7125
G1 X0.3208
G1 Y3.7144
G1 Z-0.01
G1 Y3.7163
G1 X0.3954
G1 Y3.7144
G1 Y3.7125
G1 X0.3208
G1 Y3.7144
G1 Z-0.015
G1 Y3.7163
G1 X0.3954
G1 Y3.7144
G1 Y3.7125
G1 X0.3208
G1 Y3.7144
G1 Z-0.02
G1 Y3.7163
G1 X0.3954
G1 Y3.7144
G1 Y3.7125
G1 X0.3208
G1 Y3.7144
G1 Z-0.025
G1 Y3.7163
G1 X0.3954
G1 Y3.7144
G1 Y3.7125
G1 X0.3208
G1 Y3.7144
G1 Z-0.03
G1 Y3.7163
G1 X0.3954
G1 Y3.7144
G1 Y3.7125
G1 X0.3208
G1 Y3.7144
G1 Z-0.035
G1 Y3.7163
G1 X0.3954
G1 Y3.7144
G1 Y3.7125
G1 X0.3208
G1 Y3.7144
G1 Z-0.04
G1 Y3.7163
G1 X0.3954
G1 Y3.7144
G1 Y3.7125
G1 X0.3208
G1 Y3.7144
G1 Z-0.045
G1 Y3.7163
G1 X0.3954
G1 Y3.7144
G1 Y3.7125
G1 X0.3208
G1 Y3.7144
G1 Z-0.05
G1 Y3.7163
G1 X0.3954
G1 Y3.7144
G1 Y3.7125
G1 X0.3208
G1 Y3.7144
G1 Z-0.055
G1 Y3.7163
G1 X0.3954
G1 Y3.7144
G1 Y3.7125
G1 X0.3208
G1 Y3.7144
G1 Z-0.06
G1 Y3.7163
G1 X0.3954
G1 Y3.7144
G1 Y3.7125
G1 X0.3208
G1 Y3.7144
G1 Z-0.065
G1 Y3.7163
G1 X0.3954
G1 Y3.7144
G1 Y3.7125
G1 X0.3208
G1 Y3.7144
G1 Z-0.066
G1 Y3.7163
G1 X0.3954
G1 Y3.7144
G1 Y3.7125
G1 X0.3208
G1 Y3.7144
G0 Z0.125
G0 X0.5609 Y3.3187
G0 Z0.0313
G1 Z-0.005
G1 X0.5628
G1 X0.5647
G1 Y3.244
G1 X0.5628
G1 X0.5609
G1 Y3.3187
G1 Z-0.01
G1 X0.5628
G1 X0.5647
G1 Y3.244
G1 X0.5628
G1 X0.5609
G1 Y3.3187
G1 Z-0.015
G1 X0.5628
G1 X0.5647
G1 Y3.244
G1 X0.5628
G1 X0.5609
G1 Y3.3187
G1 Z-0.02
G1 X0.5628
G1 X0.5647
G1 Y3.244
G1 X0.5628
G1 X0.5609
G1 Y3.3187
G1 Z-0.025
G1 X0.5628
G1 X0.5647
G1 Y3.244
G1 X0.5628
G1 X0.5609
G1 Y3.3187
G1 Z-0.03
G1 X0.5628
G1 X0.5647
G1 Y3.244
G1 X0.5628
G1 X0.5609
G1 Y3.3187
G1 Z-0.035
G1 X0.5628
G1 X0.5647
G1 Y3.244
G1 X0.5628
G1 X0.5609
G1 Y3.3187
G1 Z-0.04
G1 X0.5628
G1 X0.5647
G1 Y3.244
G1 X0.5628
G1 X0.5609
G1 Y3.3187
G1 Z-0.045
G1 X0.5628
G1 X0.5647
G1 Y3.244
G1 X0.5628
G1 X0.5609
G1 Y3.3187
G1 Z-0.05
G1 X0.5628
G1 X0.5647
G1 Y3.244
G1 X0.5628
G1 X0.5609
G1 Y3.3187
G1 Z-0.055
G1 X0.5628
G1 X0.5647
G1 Y3.244
G1 X0.5628
G1 X0.5609
G1 Y3.3187
G1 Z-0.06
G1 X0.5628
G1 X0.5647
G1 Y3.244
G1 X0.5628
G1 X0.5609
G1 Y3.3187
G1 Z-0.065
G1 X0.5628
G1 X0.5647
G1 Y3.244
G1 X0.5628
G1 X0.5609
G1 Y3.3187
G1 Z-0.066
G1 X0.5628
G1 X0.5647
G1 Y3.244
G1 X0.5628
G1 X0.5609
G1 Y3.3187
G0 Z0.125
G0 X0.3954 Y3.1884
G0 Z0.0313
G1 Z-0.005
G1 Y3.1865
G1 Y3.1846
G1 X0.3208
G1 Y3.1865
G1 Y3.1884
G1 X0.3954
G1 Z-0.01
G1 Y3.1865
G1 Y3.1846
G1 X0.3208
G1 Y3.1865
G1 Y3.1884
G1 X0.3954
G1 Z-0.015
G1 Y3.1865
G1 Y3.1846
G1 X0.3208
G1 Y3.1865
G1 Y3.1884
G1 X0.3954
G1 Z-0.02
G1 Y3.1865
G1 Y3.1846
G1 X0.3208
G1 Y3.1865
G1 Y3.1884
G1 X0.3954
G1 Z-0.025
G1 Y3.1865
G1 Y3.1846
G1 X0.3208
G1 Y3.1865
G1 Y3.1884
G1 X0.3954
G1 Z-0.03
G1 Y3.1865
G1 Y3.1846
G1 X0.3208
G1 Y3.1865
G1 Y3.1884
G1 X0.3954
G1 Z-0.035
G1 Y3.1865
G1 Y3.1846
G1 X0.3208
G1 Y3.1865
G1 Y3.1884
G1 X0.3954
G1 Z-0.04
G1 Y3.1865
G1 Y3.1846
G1 X0.3208
G1 Y3.1865
G1 Y3.1884
G1 X0.3954
G1 Z-0.045
G1 Y3.1865
G1 Y3.1846
G1 X0.3208
G1 Y3.1865
G1 Y3.1884
G1 X0.3954
G1 Z-0.05
G1 Y3.1865
G1 Y3.1846
G1 X0.3208
G1 Y3.1865
G1 Y3.1884
G1 X0.3954
G1 Z-0.055
G1 Y3.1865
G1 Y3.1846
G1 X0.3208
G1 Y3.1865
G1 Y3.1884
G1 X0.3954
G1 Z-0.06
G1 Y3.1865
G1 Y3.1846
G1 X0.3208
G1 Y3.1865
G1 Y3.1884
G1 X0.3954
G1 Z-0.065
G1 Y3.1865
G1 Y3.1846
G1 X0.3208
G1 Y3.1865
G1 Y3.1884
G1 X0.3954
G1 Z-0.066
G1 Y3.1865
G1 Y3.1846
G1 X0.3208
G1 Y3.1865
G1 Y3.1884
G1 X0.3954
G0 Z0.125
G0 X1.0083
G0 Z0.0313
G1 Z-0.005
G1 X1.0829
G1 Y3.1865
G1 Y3.1846
G1 X1.0083
G1 Y3.1865
G1 Y3.1884
G1 Z-0.01
G1 X1.0829
G1 Y3.1865
G1 Y3.1846
G1 X1.0083
G1 Y3.1865
G1 Y3.1884
G1 Z-0.015
G1 X1.0829
G1 Y3.1865
G1 Y3.1846
G1 X1.0083
G1 Y3.1865
G1 Y3.1884
G1 Z-0.02
G1 X1.0829
G1 Y3.1865
G1 Y3.1846
G1 X1.0083
G1 Y3.1865
G1 Y3.1884
G1 Z-0.025
G1 X1.0829
G1 Y3.1865
G1 Y3.1846
G1 X1.0083
G1 Y3.1865
G1 Y3.1884
G1 Z-0.03
G1 X1.0829
G1 Y3.1865
G1 Y3.1846
G1 X1.0083
G1 Y3.1865
G1 Y3.1884
G1 Z-0.035
G1 X1.0829
G1 Y3.1865
G1 Y3.1846
G1 X1.0083
G1 Y3.1865
G1 Y3.1884
G1 Z-0.04
G1 X1.0829
G1 Y3.1865
G1 Y3.1846
G1 X1.0083
G1 Y3.1865
G1 Y3.1884
G1 Z-0.045
G1 X1.0829
G1 Y3.1865
G1 Y3.1846
G1 X1.0083
G1 Y3.1865
G1 Y3.1884
G1 Z-0.05
G1 X1.0829
G1 Y3.1865
G1 Y3.1846
G1 X1.0083
G1 Y3.1865
G1 Y3.1884
G1 Z-0.055
G1 X1.0829
G1 Y3.1865
G1 Y3.1846
G1 X1.0083
G1 Y3.1865
G1 Y3.1884
G1 Z-0.06
G1 X1.0829
G1 Y3.1865
G1 Y3.1846
G1 X1.0083
G1 Y3.1865
G1 Y3.1884
G1 Z-0.065
G1 X1.0829
G1 Y3.1865
G1 Y3.1846
G1 X1.0083
G1 Y3.1865
G1 Y3.1884
G1 Z-0.066
G1 X1.0829
G1 Y3.1865
G1 Y3.1846
G1 X1.0083
G1 Y3.1865
G1 Y3.1884
G0 Z0.125
G0 X1.2484 Y3.244
G0 Z0.0313
G1 Z-0.005
G1 Y3.3187
G1 X1.2503
G1 X1.2522
G1 Y3.244
G1 X1.2503
G1 X1.2484
G1 Z-0.01
G1 Y3.3187
G1 X1.2503
G1 X1.2522
G1 Y3.244
G1 X1.2503
G1 X1.2484
G1 Z-0.015
G1 Y3.3187
G1 X1.2503
G1 X1.2522
G1 Y3.244
G1 X1.2503
G1 X1.2484
G1 Z-0.02
G1 Y3.3187
G1 X1.2503
G1 X1.2522
G1 Y3.244
G1 X1.2503
G1 X1.2484
G1 Z-0.025
G1 Y3.3187
G1 X1.2503
G1 X1.2522
G1 Y3.244
G1 X1.2503
G1 X1.2484
G1 Z-0.03
G1 Y3.3187
G1 X1.2503
G1 X1.2522
G1 Y3.244
G1 X1.2503
G1 X1.2484
G1 Z-0.035
G1 Y3.3187
G1 X1.2503
G1 X1.2522
G1 Y3.244
G1 X1.2503
G1 X1.2484
G1 Z-0.04
G1 Y3.3187
G1 X1.2503
G1 X1.2522
G1 Y3.244
G1 X1.2503
G1 X1.2484
G1 Z-0.045
G1 Y3.3187
G1 X1.2503
G1 X1.2522
G1 Y3.244
G1 X1.2503
G1 X1.2484
G1 Z-0.05
G1 Y3.3187
G1 X1.2503
G1 X1.2522
G1 Y3.244
G1 X1.2503
G1 X1.2484
G1 Z-0.055
G1 Y3.3187
G1 X1.2503
G1 X1.2522
G1 Y3.244
G1 X1.2503
G1 X1.2484
G1 Z-0.06
G1 Y3.3187
G1 X1.2503
G1 X1.2522
G1 Y3.244
G1 X1.2503
G1 X1.2484
G1 Z-0.065
G1 Y3.3187
G1 X1.2503
G1 X1.2522
G1 Y3.244
G1 X1.2503
G1 X1.2484
G1 Z-0.066
G1 Y3.3187
G1 X1.2503
G1 X1.2522
G1 Y3.244
G1 X1.2503
G1 X1.2484
G0 Z0.125
G0 X1.5396 Y3.1884
G0 Z0.0313
G1 Z-0.005
G1 X1.6142
G1 Y3.1865
G1 Y3.1846
G1 X1.5396
G1 Y3.1865
G1 Y3.1884
G1 Z-0.01
G1 X1.6142
G1 Y3.1865
G1 Y3.1846
G1 X1.5396
G1 Y3.1865
G1 Y3.1884
G1 Z-0.015
G1 X1.6142
G1 Y3.1865
G1 Y3.1846
G1 X1.5396
G1 Y3.1865
G1 Y3.1884
G1 Z-0.02
G1 X1.6142
G1 Y3.1865
G1 Y3.1846
G1 X1.5396
G1 Y3.1865
G1 Y3.1884
G1 Z-0.025
G1 X1.6142
G1 Y3.1865
G1 Y3.1846
G1 X1.5396
G1 Y3.1865
G1 Y3.1884
G1 Z-0.03
G1 X1.6142
G1 Y3.1865
G1 Y3.1846
G1 X1.5396
G1 Y3.1865
G1 Y3.1884
G1 Z-0.035
G1 X1.6142
G1 Y3.1865
G1 Y3.1846
G1 X1.5396
G1 Y3.1865
G1 Y3.1884
G1 Z-0.04
G1 X1.6142
G1 Y3.1865
G1 Y3.1846
G1 X1.5396
G1 Y3.1865
G1 Y3.1884
G1 Z-0.045
G1 X1.6142
G1 Y3.1865
G1 Y3.1846
G1 X1.5396
G1 Y3.1865
G1 Y3.1884
G1 Z-0.05
G1 X1.6142
G1 Y3.1865
G1 Y3.1846
G1 X1.5396
G1 Y3.1865
G1 Y3.1884
G1 Z-0.055
G1 X1.6142
G1 Y3.1865
G1 Y3.1846
G1 X1.5396
G1 Y3.1865
G1 Y3.1884
G1 Z-0.06
G1 X1.6142
G1 Y3.1865
G1 Y3.1846
G1 X1.5396
G1 Y3.1865
G1 Y3.1884
G1 Z-0.065
G1 X1.6142
G1 Y3.1865
G1 Y3.1846
G1 X1.5396
G1 Y3.1865
G1 Y3.1884
G1 Z-0.066
G1 X1.6142
G1 Y3.1865
G1 Y3.1846
G1 X1.5396
G1 Y3.1865
G1 Y3.1884
G0 Z0.125
G0 X1.7797 Y3.244
G0 Z0.0313
G1 Z-0.005
G1 Y3.3187
G1 X1.7816
G1 X1.7835
G1 Y3.244
G1 X1.7816
G1 X1.7797
G1 Z-0.01
G1 Y3.3187
G1 X1.7816
G1 X1.7835
G1 Y3.244
G1 X1.7816
G1 X1.7797
G1 Z-0.015
G1 Y3.3187
G1 X1.7816
G1 X1.7835
G1 Y3.244
G1 X1.7816
G1 X1.7797
G1 Z-0.02
G1 Y3.3187
G1 X1.7816
G1 X1.7835
G1 Y3.244
G1 X1.7816
G1 X1.7797
G1 Z-0.025
G1 Y3.3187
G1 X1.7816
G1 X1.7835
G1 Y3.244
G1 X1.7816
G1 X1.7797
G1 Z-0.03
G1 Y3.3187
G1 X1.7816
G1 X1.7835
G1 Y3.244
G1 X1.7816
G1 X1.7797
G1 Z-0.035
G1 Y3.3187
G1 X1.7816
G1 X1.7835
G1 Y3.244
G1 X1.7816
G1 X1.7797
G1 Z-0.04
G1 Y3.3187
G1 X1.7816
G1 X1.7835
G1 Y3.244
G1 X1.7816
G1 X1.7797
G1 Z-0.045
G1 Y3.3187
G1 X1.7816
G1 X1.7835
G1 Y3.244
G1 X1.7816
G1 X1.7797
G1 Z-0.05
G1 Y3.3187
G1 X1.7816
G1 X1.7835
G1 Y3.244
G1 X1.7816
G1 X1.7797
G1 Z-0.055
G1 Y3.3187
G1 X1.7816
G1 X1.7835
G1 Y3.244
G1 X1.7816
G1 X1.7797
G1 Z-0.06
G1 Y3.3187
G1 X1.7816
G1 X1.7835
G1 Y3.244
G1 X1.7816
G1 X1.7797
G1 Z-0.065
G1 Y3.3187
G1 X1.7816
G1 X1.7835
G1 Y3.244
G1 X1.7816
G1 X1.7797
G1 Z-0.066
G1 Y3.3187
G1 X1.7816
G1 X1.7835
G1 Y3.244
G1 X1.7816
G1 X1.7797
G0 Z0.125
G0 X2.0708 Y3.1884
G0 Z0.0313
G1 Z-0.005
G1 X2.1454
G1 Y3.1865
G1 Y3.1846
G1 X2.0708
G1 Y3.1865
G1 Y3.1884
G1 Z-0.01
G1 X2.1454
G1 Y3.1865
G1 Y3.1846
G1 X2.0708
G1 Y3.1865
G1 Y3.1884
G1 Z-0.015
G1 X2.1454
G1 Y3.1865
G1 Y3.1846
G1 X2.0708
G1 Y3.1865
G1 Y3.1884
G1 Z-0.02
G1 X2.1454
G1 Y3.1865
G1 Y3.1846
G1 X2.0708
G1 Y3.1865
G1 Y3.1884
G1 Z-0.025
G1 X2.1454
G1 Y3.1865
G1 Y3.1846
G1 X2.0708
G1 Y3.1865
G1 Y3.1884
G1 Z-0.03
G1 X2.1454
G1 Y3.1865
G1 Y3.1846
G1 X2.0708
G1 Y3.1865
G1 Y3.1884
G1 Z-0.035
G1 X2.1454
G1 Y3.1865
G1 Y3.1846
G1 X2.0708
G1 Y3.1865
G1 Y3.1884
G1 Z-0.04
G1 X2.1454
G1 Y3.1865
G1 Y3.1846
G1 X2.0708
G1 Y3.1865
G1 Y3.1884
G1 Z-0.045
G1 X2.1454
G1 Y3.1865
G1 Y3.1846
G1 X2.0708
G1 Y3.1865
G1 Y3.1884
G1 Z-0.05
G1 X2.1454
G1 Y3.1865
G1 Y3.1846
G1 X2.0708
G1 Y3.1865
G1 Y3.1884
G1 Z-0.055
G1 X2.1454
G1 Y3.1865
G1 Y3.1846
G1 X2.0708
G1 Y3.1865
G1 Y3.1884
G1 Z-0.06
G1 X2.1454
G1 Y3.1865
G1 Y3.1846
G1 X2.0708
G1 Y3.1865
G1 Y3.1884
G1 Z-0.065
G1 X2.1454
G1 Y3.1865
G1 Y3.1846
G1 X2.0708
G1 Y3.1865
G1 Y3.1884
G1 Z-0.066
G1 X2.1454
G1 Y3.1865
G1 Y3.1846
G1 X2.0708
G1 Y3.1865
G1 Y3.1884
G0 Z0.125
G0 X2.3109 Y3.244
G0 Z0.0313
G1 Z-0.005
G1 Y3.3187
G1 X2.3128
G1 X2.3147
G1 Y3.244
G1 X2.3128
G1 X2.3109
G1 Z-0.01
G1 Y3.3187
G1 X2.3128
G1 X2.3147
G1 Y3.244
G1 X2.3128
G1 X2.3109
G1 Z-0.015
G1 Y3.3187
G1 X2.3128
G1 X2.3147
G1 Y3.244
G1 X2.3128
G1 X2.3109
G1 Z-0.02
G1 Y3.3187
G1 X2.3128
G1 X2.3147
G1 Y3.244
G1 X2.3128
G1 X2.3109
G1 Z-0.025
G1 Y3.3187
G1 X2.3128
G1 X2.3147
G1 Y3.244
G1 X2.3128
G1 X2.3109
G1 Z-0.03
G1 Y3.3187
G1 X2.3128
G1 X2.3147
G1 Y3.244
G1 X2.3128
G1 X2.3109
G1 Z-0.035
G1 Y3.3187
G1 X2.3128
G1 X2.3147
G1 Y3.244
G1 X2.3128
G1 X2.3109
G1 Z-0.04
G1 Y3.3187
G1 X2.3128
G1 X2.3147
G1 Y3.244
G1 X2.3128
G1 X2.3109
G1 Z-0.045
G1 Y3.3187
G1 X2.3128
G1 X2.3147
G1 Y3.244
G1 X2.3128
G1 X2.3109
G1 Z-0.05
G1 Y3.3187
G1 X2.3128
G1 X2.3147
G1 Y3.244
G1 X2.3128
G1 X2.3109
G1 Z-0.055
G1 Y3.3187
G1 X2.3128
G1 X2.3147
G1 Y3.244
G1 X2.3128
G1 X2.3109
G1 Z-0.06
G1 Y3.3187
G1 X2.3128
G1 X2.3147
G1 Y3.244
G1 X2.3128
G1 X2.3109
G1 Z-0.065
G1 Y3.3187
G1 X2.3128
G1 X2.3147
G1 Y3.244
G1 X2.3128
G1 X2.3109
G1 Z-0.066
G1 Y3.3187
G1 X2.3128
G1 X2.3147
G1 Y3.244
G1 X2.3128
G1 X2.3109
G0 Z0.125
G0 X2.1454 Y3.7125
G0 Z0.0313
G1 Z-0.005
G1 X2.0708
G1 Y3.7144
G1 Y3.7163
G1 X2.1454
G1 Y3.7144
G1 Y3.7125
G1 Z-0.01
G1 X2.0708
G1 Y3.7144
G1 Y3.7163
G1 X2.1454
G1 Y3.7144
G1 Y3.7125
G1 Z-0.015
G1 X2.0708
G1 Y3.7144
G1 Y3.7163
G1 X2.1454
G1 Y3.7144
G1 Y3.7125
G1 Z-0.02
G1 X2.0708
G1 Y3.7144
G1 Y3.7163
G1 X2.1454
G1 Y3.7144
G1 Y3.7125
G1 Z-0.025
G1 X2.0708
G1 Y3.7144
G1 Y3.7163
G1 X2.1454
G1 Y3.7144
G1 Y3.7125
G1 Z-0.03
G1 X2.0708
G1 Y3.7144
G1 Y3.7163
G1 X2.1454
G1 Y3.7144
G1 Y3.7125
G1 Z-0.035
G1 X2.0708
G1 Y3.7144
G1 Y3.7163
G1 X2.1454
G1 Y3.7144
G1 Y3.7125
G1 Z-0.04
G1 X2.0708
G1 Y3.7144
G1 Y3.7163
G1 X2.1454
G1 Y3.7144
G1 Y3.7125
G1 Z-0.045
G1 X2.0708
G1 Y3.7144
G1 Y3.7163
G1 X2.1454
G1 Y3.7144
G1 Y3.7125
G1 Z-0.05
G1 X2.0708
G1 Y3.7144
G1 Y3.7163
G1 X2.1454
G1 Y3.7144
G1 Y3.7125
G1 Z-0.055
G1 X2.0708
G1 Y3.7144
G1 Y3.7163
G1 X2.1454
G1 Y3.7144
G1 Y3.7125
G1 Z-0.06
G1 X2.0708
G1 Y3.7144
G1 Y3.7163
G1 X2.1454
G1 Y3.7144
G1 Y3.7125
G1 Z-0.065
G1 X2.0708
G1 Y3.7144
G1 Y3.7163
G1 X2.1454
G1 Y3.7144
G1 Y3.7125
G1 Z-0.066
G1 X2.0708
G1 Y3.7144
G1 Y3.7163
G1 X2.1454
G1 Y3.7144
G1 Y3.7125
G0 Z0.125
G0 X1.6142
G0 Z0.0313
G1 Z-0.005
G1 X1.5396
G1 Y3.7144
G1 Y3.7163
G1 X1.6142
G1 Y3.7144
G1 Y3.7125
G1 Z-0.01
G1 X1.5396
G1 Y3.7144
G1 Y3.7163
G1 X1.6142
G1 Y3.7144
G1 Y3.7125
G1 Z-0.015
G1 X1.5396
G1 Y3.7144
G1 Y3.7163
G1 X1.6142
G1 Y3.7144
G1 Y3.7125
G1 Z-0.02
G1 X1.5396
G1 Y3.7144
G1 Y3.7163
G1 X1.6142
G1 Y3.7144
G1 Y3.7125
G1 Z-0.025
G1 X1.5396
G1 Y3.7144
G1 Y3.7163
G1 X1.6142
G1 Y3.7144
G1 Y3.7125
G1 Z-0.03
G1 X1.5396
G1 Y3.7144
G1 Y3.7163
G1 X1.6142
G1 Y3.7144
G1 Y3.7125
G1 Z-0.035
G1 X1.5396
G1 Y3.7144
G1 Y3.7163
G1 X1.6142
G1 Y3.7144
G1 Y3.7125
G1 Z-0.04
G1 X1.5396
G1 Y3.7144
G1 Y3.7163
G1 X1.6142
G1 Y3.7144
G1 Y3.7125
G1 Z-0.045
G1 X1.5396
G1 Y3.7144
G1 Y3.7163
G1 X1.6142
G1 Y3.7144
G1 Y3.7125
G1 Z-0.05
G1 X1.5396
G1 Y3.7144
G1 Y3.7163
G1 X1.6142
G1 Y3.7144
G1 Y3.7125
G1 Z-0.055
G1 X1.5396
G1 Y3.7144
G1 Y3.7163
G1 X1.6142
G1 Y3.7144
G1 Y3.7125
G1 Z-0.06
G1 X1.5396
G1 Y3.7144
G1 Y3.7163
G1 X1.6142
G1 Y3.7144
G1 Y3.7125
G1 Z-0.065
G1 X1.5396
G1 Y3.7144
G1 Y3.7163
G1 X1.6142
G1 Y3.7144
G1 Y3.7125
G1 Z-0.066
G1 X1.5396
G1 Y3.7144
G1 Y3.7163
G1 X1.6142
G1 Y3.7144
G1 Y3.7125
G0 Z0.125
G0 X1.0829
G0 Z0.0313
G1 Z-0.005
G1 X1.0083
G1 Y3.7144
G1 Y3.7163
G1 X1.0829
G1 Y3.7144
G1 Y3.7125
G1 Z-0.01
G1 X1.0083
G1 Y3.7144
G1 Y3.7163
G1 X1.0829
G1 Y3.7144
G1 Y3.7125
G1 Z-0.015
G1 X1.0083
G1 Y3.7144
G1 Y3.7163
G1 X1.0829
G1 Y3.7144
G1 Y3.7125
G1 Z-0.02
G1 X1.0083
G1 Y3.7144
G1 Y3.7163
G1 X1.0829
G1 Y3.7144
G1 Y3.7125
G1 Z-0.025
G1 X1.0083
G1 Y3.7144
G1 Y3.7163
G1 X1.0829
G1 Y3.7144
G1 Y3.7125
G1 Z-0.03
G1 X1.0083
G1 Y3.7144
G1 Y3.7163
G1 X1.0829
G1 Y3.7144
G1 Y3.7125
G1 Z-0.035
G1 X1.0083
G1 Y3.7144
G1 Y3.7163
G1 X1.0829
G1 Y3.7144
G1 Y3.7125
G1 Z-0.04
G1 X1.0083
G1 Y3.7144
G1 Y3.7163
G1 X1.0829
G1 Y3.7144
G1 Y3.7125
G1 Z-0.045
G1 X1.0083
G1 Y3.7144
G1 Y3.7163
G1 X1.0829
G1 Y3.7144
G1 Y3.7125
G1 Z-0.05
G1 X1.0083
G1 Y3.7144
G1 Y3.7163
G1 X1.0829
G1 Y3.7144
G1 Y3.7125
G1 Z-0.055
G1 X1.0083
G1 Y3.7144
G1 Y3.7163
G1 X1.0829
G1 Y3.7144
G1 Y3.7125
G1 Z-0.06
G1 X1.0083
G1 Y3.7144
G1 Y3.7163
G1 X1.0829
G1 Y3.7144
G1 Y3.7125
G1 Z-0.065
G1 X1.0083
G1 Y3.7144
G1 Y3.7163
G1 X1.0829
G1 Y3.7144
G1 Y3.7125
G1 Z-0.066
G1 X1.0083
G1 Y3.7144
G1 Y3.7163
G1 X1.0829
G1 Y3.7144
G1 Y3.7125
( .031 drills )
G0 Z0.125
( T2 : 0.031 )
T2 M6
M3 S1000
G0 X1.8252 Y0.3036
G98
G81 X1.8252 Y0.3036 Z-0.065 R0.125 F20.0
G81 X1.7506 Y0.4265 Z-0.065
G81 X1.6148 Y0.5526 Z-0.065
G81 X1.4813 Y0.5485 Z-0.065
G81 X1.3982 Y0.4245 Z-0.065
G81 X1.3069 Y0.4177 Z-0.065
G81 X1.3041 Y0.5594 Z-0.065
G81 X1.2006 Y0.5607 Z-0.065
G81 X1.1011 Y0.5594 Z-0.065
G81 X1.0029 Z-0.065
G81 X1.097 Y0.4149 Z-0.065
G81 X1.1992 Y0.3005 Z-0.065
G81 X1.4827 Z-0.065
G81 X1.484 Y0.8606 Z-0.065
G81 X1.6148 Y0.8592 Z-0.065
G81 X1.7506 Y0.8655 Z-0.065
G81 X1.7507 Y1.0096 Z-0.065
G81 X2.0645 Y0.8633 Z-0.065
G81 X2.1983 Y0.8611 Z-0.065
G81 X2.2971 Y0.8589 Z-0.065
G81 X2.3937 Y0.8611 Z-0.065
G81 X2.499 Y0.8589 Z-0.065
G81 X2.6132 Y1.0279 Z-0.065
G81 X2.7712 Y0.9248 Z-0.065
G81 X3.0082 Y0.8216 Z-0.065
G81 X3.2387 Y0.8611 Z-0.065
G81 X3.3352 Y0.8633 Z-0.065
G81 X3.4318 Y0.8611 Z-0.065
G81 X3.5372 Y0.8633 Z-0.065
G81 X3.5284 Y1.0279 Z-0.065
G81 X3.434 Z-0.065
G81 X3.1224 Z-0.065
G81 X3.2365 Y0.5604 Z-0.065
G81 X3.3462 Y0.561 Z-0.065
G81 X3.4318 Y0.5604 Z-0.065
G81 X3.5394 Y0.5626 Z-0.065
G81 X3.693 Y0.4814 Z-0.065
G81 X3.6206 Y0.3761 Z-0.065
G81 X3.5268 Y0.3762 Z-0.065
G81 X3.7786 Y0.3761 Z-0.065
G81 X3.9125 Y0.3739 Z-0.065
G81 X4.0047 Y0.4792 Z-0.065
G81 X3.851 Y0.5626 Z-0.065
G81 Y0.8721 Z-0.065
G81 X3.8379 Y1.0279 Z-0.065
G81 X4.1737 Y0.8721 Z-0.065
G81 X4.1715 Y0.5604 Z-0.065
G81 X3.6228 Y0.0644 Z-0.065
G81 X3.2167 Y0.3739 Z-0.065
G81 X3.0082 Y0.5077 Z-0.065
G81 X2.8326 Y0.2926 Z-0.065
G81 X2.7273 Y0.3914 Z-0.065
G81 Y0.1895 Z-0.065
G81 X2.4266 Y0.071 Z-0.065
G81 X2.2905 Y0.0732 Z-0.065
G81 X2.2927 Y0.3848 Z-0.065
G81 X2.4288 Z-0.065
G81 X2.3959 Y0.5626 Z-0.065
G81 X2.2971 Y0.5648 Z-0.065
G81 X2.1983 Z-0.065
G81 X2.499 Y0.5626 Z-0.065
G81 X2.3015 Y1.0277 Z-0.065
G81 X2.1663 Y1.6741 Z-0.065
G81 X2.1679 Y1.7978 Z-0.065
G81 X2.2817 Z-0.065
G81 X2.3859 Y1.7971 Z-0.065
G81 X2.4893 Z-0.065
G81 Y1.9205 Z-0.065
G81 X2.6127 Z-0.065
G81 X2.7469 Y1.9223 Z-0.065
G81 X2.9156 Y1.9096 Z-0.065
G81 Y1.8189 Z-0.065
G81 X3.0172 Y1.6302 Z-0.065
G81 X2.9138 Y1.5087 Z-0.065
G81 X2.7705 Y1.5069 Z-0.065
G81 X3.1224 Y1.7572 Z-0.065
G81 X3.2348 Y1.6321 Z-0.065
G81 X3.2366 Y1.9023 Z-0.065
G81 X3.3364 Y1.906 Z-0.065
G81 X3.4343 Y1.9005 Z-0.065
G81 X3.5377 Y1.9023 Z-0.065
G81 X3.7989 Y1.8588 Z-0.065
G81 X4.0059 Y1.9767 Z-0.065
G81 X4.1111 Y1.9748 Z-0.065
G81 X4.2145 Z-0.065
G81 X4.1109 Y1.8588 Z-0.065
G81 X4.2731 Y2.1998 Z-0.065
G81 X4.3705 Y2.3267 Z-0.065
G81 X4.5488 Y2.2016 Z-0.065
G81 X4.015 Y2.2451 Z-0.065
G81 X4.0168 Y2.4084 Z-0.065
G81 X4.0811 Y2.5553 Z-0.065
G81 X4.0368 Y2.909 Z-0.065
G81 X4.1311 Y2.9108 Z-0.065
G81 X4.2074 Y3.1549 Z-0.065
G81 Y3.4651 Z-0.065
G81 X3.9551 Z-0.065
G81 X3.6449 Z-0.065
G81 X3.848 Y3.034 Z-0.065
G81 X3.723 Y2.909 Z-0.065
G81 X3.5688 Z-0.065
G81 X3.4636 Y2.9072 Z-0.065
G81 X3.362 Y2.909 Z-0.065
G81 X3.1951 Z-0.065
G81 X3.0192 Y2.889 Z-0.065
G81 X2.9137 Y2.8863 Z-0.065
G81 X2.8157 Z-0.065
G81 X2.7186 Z-0.065
G81 X2.6147 Y2.8888 Z-0.065
G81 X2.5158 Z-0.065
G81 X2.4168 Y2.8863 Z-0.065
G81 X2.2623 Y2.8984 Z-0.065
G81 X2.0426 Y2.9008 Z-0.065
G81 X2.2598 Y2.6715 Z-0.065
G81 X2.4168 Y2.587 Z-0.065
G81 X2.5158 Z-0.065
G81 X2.6147 Z-0.065
G81 X2.7186 Y2.5846 Z-0.065
G81 X2.8175 Y2.5852 Z-0.065
G81 X2.8085 Y2.6796 Z-0.065
G81 X2.9155 Y2.5834 Z-0.065
G81 X3.0174 Y2.5879 Z-0.065
G81 X3.0083 Y2.441 Z-0.065
G81 X2.9155 Y2.3367 Z-0.065
G81 X3.1226 Y2.3267 Z-0.065
G81 X3.1244 Y2.2034 Z-0.065
G81 X3.235 Z-0.065
G81 X3.3366 Y2.1998 Z-0.065
G81 X3.4327 Y2.2016 Z-0.065
G81 X3.5379 Y2.2034 Z-0.065
G81 X3.4345 Y2.3267 Z-0.065
G81 X3.4309 Y2.4374 Z-0.065
G81 X3.4563 Y2.5553 Z-0.065
G81 X3.6232 Z-0.065
G81 X3.7957 Y2.3262 Z-0.065
G81 X3.2568 Y2.4392 Z-0.065
G81 X3.1933 Y2.6278 Z-0.065
G81 X2.916 Y3.053 Z-0.065
G81 X3.1449 Y3.1549 Z-0.065
G81 Y3.4651 Z-0.065
G81 X2.8926 Z-0.065
G81 X2.5824 Z-0.065
G81 X1.9484 Y2.5556 Z-0.065
G81 X2.0426 Y2.4614 Z-0.065
G81 X1.9484 Y2.3914 Z-0.065
G81 X1.8446 Y2.4518 Z-0.065
G81 Y2.3262 Z-0.065
G81 X1.8513 Y2.2034 Z-0.065
G81 X1.9486 Z-0.065
G81 X2.0525 Y2.2018 Z-0.065
G81 X2.2816 Y2.2538 Z-0.065
G81 X2.4892 Z-0.065
G81 X2.6123 Z-0.065
G81 X2.7475 Y2.1934 Z-0.065
G81 X3.0083 Y2.1073 Z-0.065
G81 X2.2817 Y1.9231 Z-0.065
G81 X2.0525 Y1.9017 Z-0.065
G81 X1.9486 Z-0.065
G81 X1.8513 Z-0.065
G81 X1.7507 Y1.9 Z-0.065
G81 X1.721 Y1.7153 Z-0.065
G81 X2.0426 Y1.7137 Z-0.065
G81 X1.7507 Y2.2034 Z-0.065
G81 X1.5331 Y2.3286 Z-0.065
G81 Y2.4566 Z-0.065
G81 X1.4293 Y2.5773 Z-0.065
G81 X1.212 Y2.5749 Z-0.065
G81 X1.0841 Y2.5773 Z-0.065
G81 X0.961 Y2.7246 Z-0.065
G81 X0.8571 Y2.826 Z-0.065
G81 X0.6592 Z-0.065
G81 X0.4008 Z-0.065
G81 X0.3815 Y2.5145 Z-0.065
G81 X0.4008 Y2.2973 Z-0.065
G81 X0.5354 Y2.1622 Z-0.065
G81 X0.6495 Y2.36 Z-0.065
G81 X0.7026 Y2.5145 Z-0.065
G81 X0.961 Y2.36 Z-0.065
G81 X1.0865 Y2.3576 Z-0.065
G81 X1.0647 Y2.2034 Z-0.065
G81 X0.9625 Z-0.065
G81 X0.8619 Z-0.065
G81 X0.7663 Y2.2018 Z-0.065
G81 X0.7646 Y1.9017 Z-0.065
G81 X0.8636 Z-0.065
G81 X0.9625 Z-0.065
G81 X1.0647 Z-0.065
G81 X1.2115 Y1.8901 Z-0.065
G81 X1.2745 Y1.7171 Z-0.065
G81 X1.4292 Y1.8901 Z-0.065
G81 Y2.2001 Z-0.065
G81 X1.2115 Y2.2018 Z-0.065
G81 X0.9619 Y1.7171 Z-0.065
G81 X0.7234 Y1.3921 Z-0.065
G81 X0.6096 Z-0.065
G81 X0.4315 Y1.2882 Z-0.065
G81 X0.3078 Z-0.065
G81 X0.2551 Y1.5059 Z-0.065
G81 X0.359 Y1.6098 Z-0.065
G81 X0.2551 Y1.7137 Z-0.065
G81 X0.4002 Y1.9528 Z-0.065
G81 X0.5354 Y1.8489 Z-0.065
G81 X0.6096 Y1.0508 Z-0.065
G81 X0.7234 Y1.0491 Z-0.065
G81 X0.9097 Y1.0063 Z-0.065
G81 X1.0043 Y0.8619 Z-0.065
G81 X1.1011 Y0.8606 Z-0.065
G81 X1.1992 Y0.8619 Z-0.065
G81 X1.3055 Z-0.065
G81 X1.2626 Y1.0079 Z-0.065
G81 X1.3566 Z-0.065
G81 X0.8462 Y0.2991 Z-0.065
G81 X0.4348 Y0.9453 Z-0.065
G81 X0.3095 Z-0.065
G81 X1.0648 Y2.8284 Z-0.065
G81 X1.2627 Y2.826 Z-0.065
G81 X1.4269 Z-0.065
G80
( .04 drills )
G0 Z0.125
( T1 : 0.04 )
T1 M6
M3 S1000
G0 X4.203 Y2.6985
G98
G81 X4.203 Y2.6985 Z-0.065 R0.125 F20.0
G81 Y2.5985 Z-0.065
G81 Y2.4985 Z-0.065
G81 Y2.3985 Z-0.065
G81 Y2.2985 Z-0.065
G81 X4.303 Z-0.065
G81 Y2.3985 Z-0.065
G81 Y2.4985 Z-0.065
G81 Y2.5985 Z-0.065
G81 Y2.6985 Z-0.065
G81 X4.4213 Y2.597 Z-0.065
G81 Y2.9072 Z-0.065
G81 X4.3669 Y2.0891 Z-0.065
G81 X4.6407 Y2.0873 Z-0.065
G81 X4.3721 Y1.496 Z-0.065
G81 X3.9432 Y0.9972 Z-0.065
G81 X3.4977 Y0.0622 Z-0.065
G81 X1.8867 Y0.229 Z-0.065
G81 X1.8859 Y1.0063 Z-0.065
G81 X1.9484 Y2.9008 Z-0.065
G81 X2.1681 Y2.8984 Z-0.065
G81 X0.2343 Y2.5145 Z-0.065
G80
( .0465 drills )
G0 Z0.125
( T6 : 0.0465 )
T6 M6
M3 S1000
G0 X4.2673 Y3.6649
G98
G81 X4.2673 Y3.6649 Z-0.065 R0.125 F20.0
G81 X4.0723 Z-0.065
G81 X3.8773 Z-0.065
G81 X3.2048 Z-0.065
G81 X3.0098 Z-0.065
G81 X2.8148 Z-0.065
G80
( Profile1 )
G0 Z0.125
( T3 : 0.0 )
T3 M6
M3 S1000
G0 X1.7963 Y2.8142
G0 Z0.0423
G1 F10.0 Z-0.004
G1 F25.0 X1.6903
G1 X1.6141 Y2.891
G1 X1.5367 Y2.9689
G3 X1.5339 Y2.9701 I-0.0028 J-0.0028
G1 X1.0271
G1 X0.5204
G3 X0.5164 Y2.9661 I0.0 J-0.004
G1 Y2.6076
G1 Y2.2492
G3 X0.5204 Y2.2452 I0.004 J0.0
G1 X0.5724
G1 X0.6203
G1 Y2.2181
G1 Y2.1869
G3 X0.6243 Y2.1829 I0.004 J0.0
G1 X0.675
G1 X0.7227
G1 X0.7275 Y2.1643
G1 X0.7332 Y2.1428
G3 X0.7375 Y2.1398 I0.0039 J0.001
G1 X0.7668 Y2.1432
G1 X0.7962 Y2.1465
G3 X0.7997 Y2.1505 I-0.0005 J0.004
G1 Y2.2025
G1 Y2.2544
G3 X0.7962 Y2.2584 I-0.004 J0.0
G1 X0.7668 Y2.2617
G1 X0.7375 Y2.2651
G3 X0.7332 Y2.2621 I-0.0005 J-0.004
G1 X0.7275 Y2.2406
G1 X0.7227 Y2.2221
G1 X0.6906
G1 X0.6595
G1 Y2.2492
G1 Y2.2804
G3 X0.6555 Y2.2844 I-0.004 J0.0
G1 X0.6035
G1 X0.5556
G1 Y2.5972
G1 Y2.9101
G1 X1.0168
G1 X1.4803
G1 X1.5439 Y2.846
G1 X1.6057 Y2.7836
G1 X1.5618 Y2.7404
G1 X1.515 Y2.6945
G3 X1.5138 Y2.6916 I0.0028 J-0.0029
G1 Y2.5964
G1 Y2.503
G1 X1.4996 Y2.4912
G1 X1.484 Y2.4783
G3 X1.4826 Y2.4752 I0.0026 J-0.0031
G1 Y2.4526
G1 Y2.43
G3 X1.4838 Y2.4272 I0.004 J0.0
G1 X1.4962 Y2.4147
G1 X1.5087 Y2.4022
G3 X1.5115 Y2.4011 I0.0028 J0.0028
G1 X1.5333
G1 X1.5552
G3 X1.558 Y2.4022 I0.0 J0.004
G1 X1.5704 Y2.4147
G1 X1.5829 Y2.4272
G3 X1.5841 Y2.43 I-0.0028 J0.0028
G1 Y2.4526
G1 Y2.4752
G3 X1.5826 Y2.4783 I-0.004 J0.0
G1 X1.5671 Y2.4912
G1 X1.5529 Y2.503
G1 Y2.5807
G1 Y2.6587
G1 X1.6014 Y2.7065
G1 X1.65 Y2.7543
G1 X2.1752
G1 X2.6981
G1 Y2.7032
G1 Y2.6498
G1 X2.6882 Y2.6399
G1 X2.6771 Y2.6289
G3 X2.676 Y2.6258 I0.0028 J-0.0028
G1 X2.6792 Y2.5802
G1 X2.6825 Y2.5346
G3 X2.6865 Y2.5309 I0.004 J0.0003
G1 X2.7177
G1 X2.7488
G3 X2.7528 Y2.5346 I0.0 J0.004
G1 X2.7561 Y2.5802
G1 X2.7594 Y2.6258
G3 X2.7582 Y2.6289 I-0.004 J0.0003
G1 X2.7471 Y2.6399
G1 X2.7373 Y2.6498
G1 Y2.7032
G1 Y2.7543
G1 X3.6163
G1 X4.4954
G1 Y2.6336
G1 Y2.5129
G1 X4.4227
G1 X4.348
G1 X4.3362 Y2.5271
G1 X4.3245 Y2.5412
G1 X4.3342 Y2.5923
G3 X4.3343 Y2.5927 I-0.0039 J0.0007
G3 X4.3 Y2.6227 I-0.028 J0.0026
G1 X4.2041 Y2.6241
G3 X4.1659 Y2.5969 I-0.0033 J-0.0358
G3 X4.1658 Y2.5965 I0.0039 J-0.001
G1 X4.1523 Y2.5048
G3 Y2.5042 I0.004 J-0.0006
G1 Y2.4833
G1 Y2.4624
G3 Y2.4622 I0.004 J0.0
G1 X4.1544 Y2.4083
G3 X4.1545 Y2.4078 I0.004 J0.0002
G3 X4.2025 Y2.3675 I0.0476 J0.0081
G1 X4.3019
G3 X4.3028 Y2.3676 I0.0 J0.004
G3 X4.3371 Y2.4034 I-0.0102 J0.0441
G3 Y2.4042 I-0.0039 J0.0007
G1 Y2.44
G1 X4.348 Y2.453
G1 X4.4227
G1 X4.4954
G1 Y2.057
G1 Y1.6611
G1 X3.9507
G1 X3.4037
G1 X3.377 Y1.689
G1 X3.3502 Y1.7169
G1 Y1.7776
G1 Y1.8382
G1 X3.3601 Y1.8481
G1 X3.3711 Y1.8592
G3 X3.3723 Y1.8623 I-0.0028 J0.0028
G1 X3.369 Y1.9079
G1 X3.3658 Y1.9534
G3 X3.3618 Y1.9571 I-0.004 J-0.0003
G1 X3.3358
G1 X3.3098
G3 X3.3058 Y1.953 I0.0 J-0.004
G1 X3.3086 Y1.8673
G1 X3.3113 Y1.7857
G1 X3.2379
G1 X3.1627
G1 X3.1574 Y1.7942
G1 X3.151 Y1.8046
G3 X3.1476 Y1.8065 I-0.0034 J-0.0021
G1 X3.1243
G1 X3.101
G3 X3.0982 Y1.8053 I0.0 J-0.004
G1 X3.0857 Y1.7929
G1 X3.0733 Y1.7804
G3 X3.0721 Y1.7776 I0.0028 J-0.0028
G1 Y1.7543
G1 Y1.731
G3 X3.074 Y1.7276 I0.004 J0.0
G1 X3.0844 Y1.7212
G1 X3.0929 Y1.7159
G1 Y1.6253
G1 Y1.5364
G1 X3.0248
G1 X2.9549
G1 X2.9496 Y1.5449
G1 X2.9432 Y1.5553
G3 X2.9398 Y1.5572 I-0.0034 J-0.0021
G1 X2.9151
G1 X2.8903
G3 X2.8869 Y1.5553 I0.0 J-0.004
G1 X2.8805 Y1.5449
G1 X2.8752 Y1.5364
G1 X2.8423
G1 X2.8094
G1 X2.8042 Y1.5449
G1 X2.7978 Y1.5553
G3 X2.7944 Y1.5572 I-0.0034 J-0.0021
G1 X2.7696
G1 X2.7449
G3 X2.7415 Y1.5553 I0.0 J-0.004
G1 X2.735 Y1.5449
G1 X2.7298 Y1.5364
G1 X2.3002
G1 X1.8724
G1 X1.8762 Y1.7427
G1 X1.8802 Y1.9531
G3 X1.8762 Y1.9571 I-0.004 J0.0001
G1 X1.8502
G1 X1.8242
G3 X1.8202 Y1.9534 I0.0 J-0.004
G1 X1.817 Y1.9079
G1 X1.8137 Y1.8623
G3 X1.8149 Y1.8592 I0.004 J-0.0003
G1 X1.8259 Y1.8481
G1 X1.8358 Y1.8382
G1 Y1.6861
G1 Y1.5364
G1 X1.0664
G1 X0.2953
G1 X0.2901 Y1.5449
G1 X0.2837 Y1.5553
G3 X0.2802 Y1.5572 I-0.0034 J-0.0021
G1 X0.257
G1 X0.2337
G3 X0.2309 Y1.556 I0.0 J-0.004
G1 X0.2184 Y1.5435
G1 X0.2059 Y1.5311
G3 X0.2048 Y1.5282 I0.0028 J-0.0028
G1 Y1.5064
G1 Y1.4846
G3 X0.2059 Y1.4818 I0.004 J0.0
G1 X0.2184 Y1.4693
G1 X0.2309 Y1.4568
G3 X0.2337 Y1.4557 I0.0028 J0.0028
G1 X0.257
G1 X0.2802
G3 X0.2837 Y1.4576 I0.0 J0.004
G1 X0.2901 Y1.4679
G1 X0.2953 Y1.4764
G1 X1.5126
G1 X2.7298
G1 X2.735 Y1.4679
G1 X2.7415 Y1.4576
G3 X2.7449 Y1.4557 I0.0034 J0.0021
G1 X2.7696
G1 X2.7944
G3 X2.7978 Y1.4576 I0.0 J0.004
G1 X2.8042 Y1.4679
G1 X2.8094 Y1.4764
G1 X2.8423
G1 X2.8752
G1 X2.8805 Y1.4679
G1 X2.8869 Y1.4576
G3 X2.8903 Y1.4557 I0.0034 J0.0021
G1 X2.9151
G1 X2.9398
G3 X2.9432 Y1.4576 I0.0 J0.004
G1 X2.9496 Y1.4679
G1 X2.9549 Y1.4764
G1 X3.0504
G1 X3.1481
G3 X3.1521 Y1.4803 I0.0 J0.004
G1 X3.1551 Y1.6024
G1 X3.1579 Y1.7207
G1 X3.2347 Y1.7236
G1 X3.311 Y1.7265
G1 Y1.7011
G1 Y1.6715
G3 X3.3122 Y1.6686 I0.004 J0.0
G1 X3.3465 Y1.6354
G1 X3.3808 Y1.6022
G3 X3.3835 Y1.6011 I0.0028 J0.0029
G1 X3.9415
G1 X4.4954
G1 Y0.9091
G1 Y0.217
G1 X3.6325
G1 X2.7679
G1 X2.7626 Y0.2255
G1 X2.7562 Y0.2359
G3 X2.7528 Y0.2378 I-0.0034 J-0.0021
G1 X2.7281
G1 X2.7033
G3 X2.6999 Y0.2359 I0.0 J-0.004
G1 X2.6935 Y0.2255
G1 X2.6882 Y0.217
G1 X2.4106
G1 X2.1307
G3 X2.1267 Y0.213 I0.0 J-0.004
G1 Y0.1662
G1 Y0.1235
G1 X1.5087
G1 X0.8908
G1 X0.8891 Y0.4831
G1 X0.8875 Y0.8427
G1 X0.9241
G1 X0.9616
G1 X0.9665 Y0.8242
G1 X0.9721 Y0.8026
G3 X0.9764 Y0.7997 I0.0039 J0.001
G1 X1.0058 Y0.803
G1 X1.0351 Y0.8064
G3 X1.0387 Y0.8104 I-0.0005 J0.004
G1 Y0.8623
G1 Y0.9142
G3 X1.0351 Y0.9182 I-0.004 J0.0
G1 X1.0065 Y0.9215
G1 X0.9779 Y0.9248
G3 X0.9737 Y0.9223 I-0.0005 J-0.004
G1 X0.9674 Y0.906
G1 X0.9622 Y0.8923
G1 X0.8673
G1 X0.7738
G1 Y0.9797
G1 Y1.0711
G3 X0.7726 Y1.0739 I-0.004 J0.0
G1 X0.7601 Y1.0864
G1 X0.7476 Y1.0989
G3 X0.7448 Y1.1001 I-0.0028 J-0.0028
G1 X0.7215
G1 X0.6982
G3 X0.6949 Y1.0983 I0.0 J-0.004
G1 X0.6788 Y1.0753
G1 X0.6659 Y1.0568
G1 X0.653 Y1.0753
G1 X0.6368 Y1.0983
G3 X0.6335 Y1.1001 I-0.0033 J-0.0023
G1 X0.6102
G1 X0.5869
G3 X0.5841 Y1.0989 I0.0 J-0.004
G1 X0.5716 Y1.0864
G1 X0.5591 Y1.0739
G3 X0.558 Y1.0711 I0.0028 J-0.0028
G1 Y1.0493
G1 Y1.0291
G1 X0.5231 Y0.9953
G1 X0.4896 Y0.9628
G1 X0.4732 Y0.9777
G1 X0.4539 Y0.9951
G3 X0.4513 Y0.9962 I-0.0027 J-0.003
G1 X0.43
G1 X0.4087
G3 X0.4056 Y0.9947 I0.0 J-0.004
G1 X0.3927 Y0.9791
G3 X0.3926 Y0.979 I0.0031 J-0.0026
G2 X0.3698 Y0.9651 I-0.0301 J0.0236
G2 X0.3469 Y0.9791 I0.0084 J0.0394
G1 X0.334 Y0.9947
G3 X0.3309 Y0.9962 I-0.0031 J-0.0026
G1 X0.3083
G1 X0.2856
G3 X0.2828 Y0.995 I0.0 J-0.004
G1 X0.2703 Y0.9825
G1 X0.2579 Y0.9701
G3 X0.2567 Y0.9672 I0.0028 J-0.0028
G1 Y0.9454
G1 Y0.9236
G3 X0.2579 Y0.9208 I0.004 J0.0
G1 X0.2703 Y0.9083
G1 X0.2828 Y0.8958
G3 X0.2856 Y0.8947 I0.0028 J0.0028
G1 X0.3083
G1 X0.3309
G3 X0.334 Y0.8961 I0.0 J0.004
G1 X0.3469 Y0.9117
G3 X0.347 Y0.9118 I-0.0031 J0.0026
G2 X0.3697 Y0.9258 I0.0301 J-0.0236
G2 X0.3926 Y0.9117 I-0.0084 J-0.0394
G1 X0.3927
G1 X0.4056 Y0.8961
G3 X0.4087 Y0.8947 I0.0031 J0.0026
G1 X0.4321
G1 X0.4555
G3 X0.4586 Y0.8961 I0.0 J0.004
G1 X0.4716 Y0.9117
G1 X0.4833 Y0.9258
G1 X0.5041
G1 X0.5267
G3 X0.5296 Y0.927 I0.0 J0.004
G1 X0.5648 Y0.9634
G1 X0.5989 Y0.9986
G1 X0.6212
G1 X0.6411
G1 Y0.9091
G1 Y0.8156
G3 X0.6451 Y0.8116 I0.004 J0.0
G1 X0.7292
G1 X0.8093
G1 X0.8072 Y0.5429
G3 X0.806 Y0.3532 I4.9395 J-0.1239
G3 X0.8061 Y0.1636 I3.6181 J-0.0933
G1 X0.8073 Y0.0571
G3 X0.8113 Y0.0532 I0.004 J0.0
G1 X1.5022
G1 X2.193
G3 X2.197 Y0.0572 I0.0 J0.004
G1 Y0.1091
G1 Y0.1571
G1 X2.2346
G1 X2.2721
G1 Y0.1415
G1 Y0.1239
G1 X2.258 Y0.1122
G1 X2.2424 Y0.0993
G3 X2.241 Y0.0962 I0.0026 J-0.0031
G1 Y0.0736
G1 Y0.0509
G3 X2.2421 Y0.0481 I0.004 J0.0
G1 X2.2546 Y0.0356
G1 X2.2671 Y0.0232
G3 X2.2699 Y0.022 I0.0028 J0.0028
G1 X2.2917
G1 X2.3135
G3 X2.3164 Y0.0232 I0.0 J0.004
G1 X2.3288 Y0.0356
G1 X2.3413 Y0.0481
G3 X2.3425 Y0.0509 I-0.0028 J0.0028
G1 Y0.0736
G1 Y0.0962
G3 X2.341 Y0.0993 I-0.004 J0.0
G1 X2.3254 Y0.1122
G1 X2.3113 Y0.1239
G1 Y0.1415
G1 Y0.1571
G1 X2.3593
G1 X2.4072
G1 Y0.1415
G1 Y0.1239
G1 X2.3931 Y0.1122
G1 X2.3775 Y0.0993
G3 X2.376 Y0.0962 I0.0026 J-0.0031
G1 Y0.0736
G1 Y0.0509
G3 X2.3772 Y0.0481 I0.004 J0.0
G1 X2.3897 Y0.0356
G1 X2.4021 Y0.0232
G3 X2.405 Y0.022 I0.0028 J0.0028
G1 X2.4268
G1 X2.4486
G3 X2.4514 Y0.0232 I0.0 J0.004
G1 X2.4639 Y0.0356
G1 X2.4764 Y0.0481
G3 X2.4775 Y0.0509 I-0.0028 J0.0028
G1 Y0.0736
G1 Y0.0962
G3 X2.4761 Y0.0993 I-0.004 J0.0
G1 X2.4605 Y0.1122
G1 X2.4464 Y0.1239
G1 Y0.1415
G1 Y0.1571
G1 X2.5664
G1 X2.6882
G1 X2.6935 Y0.1486
G1 X2.6999 Y0.1382
G3 X2.7033 Y0.1363 I0.0034 J0.0021
G1 X2.7281
G1 X2.7528
G3 X2.7562 Y0.1382 I0.0 J0.004
G1 X2.7626 Y0.1486
G1 X2.7679 Y0.1571
G1 X3.6585
G1 X4.5513
G3 X4.5553 Y0.1611 I0.0 J0.004
G1 Y1.174
G1 X4.5552 Y2.1581
G1 X4.5665 Y2.1694
G1 X4.579 Y2.1819
G3 X4.5802 Y2.1847 I-0.0028 J0.0028
G1 Y2.2065
G1 Y2.2283
G3 X4.579 Y2.2311 I-0.004 J0.0
G1 X4.5665 Y2.2436
G1 X4.5552 Y2.2549
G1 X4.5553 Y2.5141
G1 Y2.8102
G3 X4.5513 Y2.8142 I-0.004 J0.0
G1 X3.12
G1 X1.8544
G1 X1.7963
G0 Z0.125
G0 Y2.5753
G0 Z0.0423
G1 F10.0 Z-0.004
G1 F25.0 X1.7359
G3 X1.7319 Y2.5713 I0.0 J-0.004
G1 Y2.4175
G1 Y2.2654
G1 X1.722 Y2.2555
G1 X1.711 Y2.2445
G3 X1.7098 Y2.2414 I0.0028 J-0.0028
G1 X1.7131 Y2.1958
G1 X1.7163 Y2.1502
G3 X1.7199 Y2.1465 I0.004 J0.0003
G1 X1.7462 Y2.1435
G1 X1.7726 Y2.1404
G3 X1.7759 Y2.1415 I0.0005 J0.004
G1 X1.7833 Y2.1489
G3 X1.7842 Y2.1505 I-0.0028 J0.0028
G3 X1.7919 Y2.2037 I-0.1307 J0.0459
G1 Y2.248
G3 X1.79 Y2.2514 I-0.004 J0.0
G1 X1.7796 Y2.2578
G1 X1.7711 Y2.2631
G1 Y2.4005
G1 Y2.5361
G1 X1.8333
G1 X1.8977
G1 X1.9095 Y2.522
G1 X1.9224 Y2.5064
G3 X1.9255 Y2.5049 I0.0031 J0.0026
G1 X1.9501
G1 X1.9747
G3 X1.9781 Y2.5068 I0.0 J0.004
G1 X1.9911 Y2.5276
G1 X2.0029 Y2.5465
G1 X2.1124
G1 X2.2202
G1 Y2.483
G1 Y2.4154
G3 X2.2242 Y2.4114 I0.004 J0.0
G1 X2.245
G1 X2.2618
G1 Y2.3596
G1 Y2.3056
G1 X2.2476 Y2.2939
G1 X2.232 Y2.2809
G3 X2.2306 Y2.2778 I0.0026 J-0.0031
G1 Y2.2552
G1 Y2.2326
G3 X2.2318 Y2.2298 I0.004 J0.0
G1 X2.2442 Y2.2173
G1 X2.2567 Y2.2048
G3 X2.2595 Y2.2037 I0.0028 J0.0028
G1 X2.2813
G1 X2.3032
G3 X2.306 Y2.2048 I0.0 J0.004
G1 X2.3184 Y2.2173
G1 X2.3309 Y2.2298
G3 X2.3321 Y2.2326 I-0.0028 J0.0028
G1 Y2.2552
G1 Y2.2778
G3 X2.3306 Y2.2809 I-0.004 J0.0
G1 X2.3151 Y2.2939
G1 X2.3009 Y2.3056
G1 Y2.3752
G1 Y2.4466
G3 X2.2969 Y2.4506 I-0.004 J0.0
G1 X2.2761
G1 X2.2594
G1 Y2.5141
G1 Y2.5817
G3 X2.2554 Y2.5857 I-0.004 J0.0
G1 X2.1209
G1 X1.9887
G1 X1.9835 Y2.5942
G1 X1.977 Y2.6045
G3 X1.9736 Y2.6064 I-0.0034 J-0.0021
G1 X1.9496
G1 X1.9255
G3 X1.9224 Y2.605 I0.0 J-0.004
G1 X1.9095 Y2.5894
G1 X1.8977 Y2.5753
G1 X1.8178
G1 X1.7963
G0 Z0.125
G0 X1.8219 Y2.5023
G0 Z0.0423
G1 F10.0 Z-0.004
G3 F25.0 X1.8204 Y2.5014 I0.0013 J-0.0038
G1 X1.8079 Y2.4889
G1 X1.7954 Y2.4764
G3 X1.7943 Y2.4736 I0.0028 J-0.0028
G1 Y2.451
G1 Y2.4284
G3 X1.7957 Y2.4253 I0.004 J0.0
G1 X1.8113 Y2.4124
G3 X1.8114 Y2.4123 I0.0026 J0.0031
G2 X1.8253 Y2.3895 I-0.0236 J-0.0301
G2 X1.8113 Y2.3666 I-0.0394 J0.0084
G1 X1.7957 Y2.3536
G3 X1.7943 Y2.3506 I0.0026 J-0.0031
G1 Y2.3279
G1 Y2.3053
G3 X1.7954 Y2.3025 I0.004 J0.0
G1 X1.8084 Y2.2895
G1 X1.8202 Y2.2776
G1 Y2.2149
G1 Y2.1505
G3 X1.8237 Y2.1466 I0.004 J0.0
G1 X1.8448 Y2.1435
G3 X1.8759 Y2.1483 I0.0087 J0.0474
G3 X1.8777 Y2.1504 I-0.0019 J0.0035
G3 X1.8854 Y2.2023 I-0.1139 J0.0432
G1 Y2.2451
G3 X1.8842 Y2.2479 I-0.004 J0.0
G1 X1.872 Y2.2601
G1 X1.8624 Y2.2696
G1 X1.8773 Y2.2861
G1 X1.8947 Y2.3053
G3 X1.8958 Y2.308 I-0.003 J0.0027
G1 Y2.3293
G1 Y2.3506
G3 X1.8943 Y2.3536 I-0.004 J0.0
G1 X1.8787 Y2.3666
G3 X1.8786 I-0.0026 J-0.0031
G2 X1.8647 Y2.3894 I0.0236 J0.0301
G2 X1.8787 Y2.4123 I0.0393 J-0.0084
G1 Y2.4124
G1 X1.8943 Y2.4253
G3 X1.8958 Y2.4284 I-0.0026 J0.0031
G1 Y2.451
G1 Y2.4736
G3 X1.8946 Y2.4764 I-0.004 J0.0
G1 X1.8821 Y2.4889
G1 X1.8696 Y2.5014
G3 X1.8668 Y2.5026 I-0.0028 J-0.0028
G1 X1.845
G1 X1.8232
G3 X1.8219 Y2.5023 I0.0 J-0.004
G0 Z0.125
G0 X1.8995 Y2.4159
G0 Z0.0423
G1 F10.0 Z-0.004
G3 F25.0 X1.8981 Y2.4129 I0.0027 J-0.003
G1 Y2.3895
G1 Y2.366
G3 X1.8996 Y2.363 I0.004 J0.0
G1 X1.9152 Y2.35
G1 X1.9293 Y2.3383
G1 Y2.302
G1 Y2.2654
G1 X1.9194 Y2.2555
G1 X1.9084 Y2.2445
G3 X1.9072 Y2.2414 I0.0028 J-0.0028
G1 X1.9105 Y2.1958
G1 X1.9137 Y2.1502
G3 X1.9177 Y2.1465 I0.004 J0.0003
G1 X1.9489
G1 X1.9801
G3 X1.984 Y2.1502 I0.0 J0.004
G1 X1.9873 Y2.1958
G1 X1.9906 Y2.2414
G3 X1.9894 Y2.2445 I-0.004 J0.0003
G1 X1.9784 Y2.2555
G2 X1.9685 Y2.2774 I0.0252 J0.0246
G1 Y2.2868
G1 X2.0424
G1 X2.1163
G1 Y2.2181
G1 Y2.1453
G3 X2.1203 Y2.1413 I0.004 J0.0
G1 X2.3125
G1 X2.5047
G3 X2.5087 Y2.1453 I0.0 J0.004
G1 Y2.1752
G1 Y2.2032
G1 X2.5228 Y2.215
G1 X2.5384 Y2.2279
G3 X2.5399 Y2.231 I-0.0026 J0.0031
G1 Y2.2536
G1 Y2.2762
G3 X2.5387 Y2.2791 I-0.004 J0.0
G1 X2.5262 Y2.2915
G1 X2.5138 Y2.304
G3 X2.5109 Y2.3052 I-0.0028 J-0.0028
G1 X2.4891
G1 X2.4673
G3 X2.4645 Y2.304 I0.0 J-0.004
G1 X2.452 Y2.2915
G1 X2.4395 Y2.2791
G3 X2.4384 Y2.2762 I0.0028 J-0.0028
G1 Y2.2536
G1 Y2.231
G3 X2.4398 Y2.2279 I0.004 J0.0
G1 X2.4554 Y2.215
G1 Y2.2149
G2 X2.4695 Y2.1905 I-0.0246 J-0.0305
G1 Y2.1805
G1 X2.3125
G1 X2.1555
G1 Y2.2492
G1 Y2.3219
G3 X2.1515 Y2.3259 I-0.004 J0.0
G1 X2.058
G1 X1.9685
G1 Y2.3271
G1 X1.9827 Y2.3501
G2 X1.9997 Y2.3725 I2.2196 J-1.6639
G1 X2.0305 Y2.4114
G1 X2.0464
G1 X2.0465
G3 X2.0794 Y2.425 I-0.0011 J0.0496
G3 X2.0795 Y2.4251 I-0.0027 J0.0029
G1 X2.092 Y2.4375
G3 X2.0931 Y2.4404 I-0.0028 J0.0028
G1 Y2.4622
G1 Y2.484
G3 X2.092 Y2.4868 I-0.004 J0.0
G1 X2.0795 Y2.4993
G1 X2.067 Y2.5118
G3 X2.0642 Y2.5129 I-0.0028 J-0.0028
G1 X2.0416
G1 X2.019
G3 X2.0159 Y2.5115 I0.0 J-0.004
G1 X2.0052 Y2.4985
G3 X2.005 Y2.4982 I0.0031 J-0.0025
G3 X1.9901 Y2.4575 I0.0754 J-0.0507
G1 X1.987 Y2.4355
G1 X1.9618 Y2.4384
G1 X1.9327 Y2.4418
G3 X1.9297 Y2.4409 I-0.0005 J-0.004
G1 X1.9146 Y2.4284
G1 X1.8996 Y2.416
G3 X1.8995 Y2.4159 I0.0026 J-0.0031
G0 Z0.125
G0 X2.0192 Y2.2576
G0 Z0.0423
G1 F10.0 Z-0.004
G3 F25.0 X2.0176 Y2.2547 I0.0024 J-0.0032
G1 X2.0144 Y2.2091
G1 X2.0111 Y2.1636
G3 X2.0123 Y2.1605 I0.004 J-0.0003
G1 X2.0233 Y2.1494
G2 X2.0332 Y2.1275 I-0.0252 J-0.0246
G1 Y2.1182
G1 X1.7931
G1 X1.5529
G1 Y2.196
G1 Y2.276
G1 X1.5671 Y2.2877
G1 X1.5826 Y2.3006
G3 X1.5841 Y2.3037 I-0.0026 J0.0031
G1 Y2.3263
G1 Y2.349
G3 X1.5829 Y2.3518 I-0.004 J0.0
G1 X1.5704 Y2.3642
G1 X1.558 Y2.3767
G3 X1.5552 Y2.3779 I-0.0028 J-0.0028
G1 X1.5333
G1 X1.5115
G3 X1.5087 Y2.3767 I0.0 J-0.004
G1 X1.4962 Y2.3642
G1 X1.4838 Y2.3518
G3 X1.4826 Y2.349 I0.0028 J-0.0028
G1 Y2.3263
G1 Y2.3037
G3 X1.484 Y2.3006 I0.004 J0.0
G1 X1.4996 Y2.2877
G1 X1.5138 Y2.276
G1 Y2.196
G1 Y2.1182
G1 X1.2996
G1 X1.0854
G1 Y2.1275
G2 X1.0954 Y2.1495 I0.0384 J-0.0041
G1 X1.1064 Y2.1605
G3 X1.1075 Y2.1636 I-0.0028 J0.0028
G1 X1.1043 Y2.2091
G1 X1.101 Y2.2547
G3 X1.097 Y2.2584 I-0.004 J-0.0003
G1 X1.0658
G1 X1.0347
G3 X1.0307 Y2.2547 I0.0 J-0.004
G1 X1.0274 Y2.2091
G1 X1.0242 Y2.1636
G3 X1.0253 Y2.1605 I0.004 J-0.0003
G1 X1.0364 Y2.1494
G2 X1.0463 Y2.1275 I-0.0252 J-0.0246
G1 Y2.1182
G1 X0.804
G1 X0.5675
G1 X0.5731 Y2.1238
G1 X0.5856 Y2.1363
G3 X0.5868 Y2.1391 I-0.0028 J0.0028
G1 Y2.1609
G1 Y2.1827
G3 X0.5856 Y2.1856 I-0.004 J0.0
G1 X0.5731 Y2.198
G1 X0.5606 Y2.2105
G3 X0.5578 Y2.2117 I-0.0028 J-0.0028
G1 X0.536
G1 X0.5142
G3 X0.5114 Y2.2105 I0.0 J-0.004
G1 X0.4989 Y2.198
G1 X0.4864 Y2.1856
G3 X0.4853 Y2.1827 I0.0028 J-0.0028
G1 Y2.1609
G1 Y2.1391
G3 X0.4864 Y2.1363 I0.004 J0.0
G1 X0.4989 Y2.1238
G1 X0.5045 Y2.1182
G1 X0.2628
G1 X0.0764
G3 X0.0724 Y2.1142 I0.0 J-0.004
G1 Y1.6986
G1 Y1.2831
G3 X0.0764 Y1.2791 I0.004 J0.0
G1 X0.1335
G1 X0.2535
G1 X0.2653 Y1.2602
G1 X0.2783 Y1.2394
G3 X0.2817 Y1.2375 I0.0034 J0.0021
G1 X0.3074
G1 X0.3332
G3 X0.3366 Y1.2394 I0.0 J0.004
G1 X0.3496 Y1.2602
G3 X0.3498 Y1.2605 I-0.0034 J0.0021
G2 X0.3697 Y1.2787 I0.0343 J-0.0174
G2 X0.3899 Y1.2603 I-0.0191 J-0.0412
G3 Y1.2602 I0.0035 J0.002
G1 X0.4029 Y1.2394
G3 X0.4063 Y1.2375 I0.0034 J0.0021
G1 X0.4321
G1 X0.4579
G3 X0.4613 Y1.2394 I0.0 J0.004
G1 X0.4743 Y1.2602
G1 X0.4861 Y1.2791
G1 X2.3773
G1 X4.2668
G1 Y1.0285
G1 Y0.778
G1 X3.9124
G1 X3.558
G1 Y0.7873
G2 X3.5679 Y0.8093 I0.0384 J-0.0041
G1 X3.5789 Y0.8203
G3 X3.5801 Y0.8234 I-0.0028 J0.0028
G1 X3.5768 Y0.869
G1 X3.5735 Y0.9145
G3 X3.5696 Y0.9182 I-0.004 J-0.0003
G1 X3.5384
G1 X3.5072
G3 X3.5032 Y0.9145 I0.0 J-0.004
G1 X3.5 Y0.869
G1 X3.4967 Y0.8234
G3 X3.4979 Y0.8203 I0.004 J-0.0003
G1 X3.5089 Y0.8093
G2 X3.5188 Y0.7874 I-0.0253 J-0.0246
G1 Y0.778
G1 X3.2766
G1 X3.04
G1 X3.0457 Y0.7836
G1 X3.0581 Y0.7961
G3 X3.0593 Y0.7989 I-0.0028 J0.0028
G1 Y0.8207
G1 Y0.8426
G3 X3.0581 Y0.8454 I-0.004 J0.0
G1 X3.0457 Y0.8579
G1 X3.0332 Y0.8703
G3 X3.0304 Y0.8715 I-0.0028 J-0.0028
G1 X3.0086
G1 X2.9867
G3 X2.9839 Y0.8703 I0.0 J-0.004
G1 X2.9714 Y0.8579
G1 X2.959 Y0.8454
G3 X2.9578 Y0.8426 I0.0028 J-0.0028
G1 Y0.8207
G1 Y0.7989
G3 X2.959 Y0.7961 I0.004 J0.0
G1 X2.9714 Y0.7836
G1 X2.9771 Y0.778
G1 X2.699
G1 X2.4152
G1 Y0.7873
G2 X2.4251 Y0.8093 I0.0384 J-0.0041
G1 X2.4361 Y0.8203
G3 X2.4373 Y0.8234 I-0.0028 J0.0028
G1 X2.434 Y0.869
G1 X2.4308 Y0.9145
G3 X2.4268 Y0.9182 I-0.004 J-0.0003
G1 X2.3956
G1 X2.3644
G3 X2.3605 Y0.9145 I0.0 J-0.004
G1 X2.3572 Y0.869
G1 X2.3539 Y0.8234
G3 X2.3551 Y0.8203 I0.004 J-0.0003
G1 X2.3661 Y0.8093
G2 X2.376 Y0.7874 I-0.0253 J-0.0246
G1 Y0.778
G1 X2.0736
G1 X1.7711
G1 Y0.7935
G1 Y0.8111
G1 X1.7852 Y0.8229
G1 X1.8008 Y0.8358
G3 X1.8023 Y0.8389 I-0.0026 J0.0031
G1 Y0.8615
G1 Y0.8841
G3 X1.8011 Y0.8869 I-0.004 J0.0
G1 X1.7886 Y0.8994
G1 X1.7761 Y0.9119
G3 X1.7733 Y0.9131 I-0.0028 J-0.0028
G1 X1.7515
G1 X1.7297
G3 X1.7269 Y0.9119 I0.0 J-0.004
G1 X1.7144 Y0.8994
G1 X1.7019 Y0.8869
G3 X1.7008 Y0.8841 I0.0028 J-0.0028
G1 Y0.8615
G1 Y0.8389
G3 X1.7022 Y0.8358 I0.004 J0.0
G1 X1.7178 Y0.8229
G1 X1.7319 Y0.8111
G1 Y0.7935
G1 Y0.778
G1 X1.5281
G1 X1.3244
G1 Y0.7873
G2 X1.3343 Y0.8093 I0.0384 J-0.0041
G1 X1.3453 Y0.8203
G3 X1.3465 Y0.8234 I-0.0028 J0.0028
G1 X1.3432 Y0.869
G1 X1.3399 Y0.9145
G3 X1.3359 Y0.9182 I-0.004 J-0.0003
G1 X1.3048
G1 X1.2736
G3 X1.2696 Y0.9145 I0.0 J-0.004
G1 X1.2664 Y0.869
G1 X1.2631 Y0.8234
G3 X1.2643 Y0.8203 I0.004 J-0.0003
G1 X1.2753 Y0.8092
G1 X1.2852 Y0.7993
G1 Y0.7719
G1 Y0.7428
G3 X1.2892 Y0.7388 I0.004 J0.0
G1 X2.7956
G1 X4.302
G3 X4.306 Y0.7428 I0.0 J0.004
G1 Y1.0285
G1 Y1.3142
G3 X4.302 Y1.3182 I-0.004 J0.0
G1 X2.3858
G1 X0.4719
G1 X0.4667 Y1.3267
G1 X0.4603 Y1.3371
G3 X0.4569 Y1.339 I-0.0034 J-0.0021
G1 X0.4321
G1 X0.4074
G3 X0.404 Y1.3371 I0.0 J-0.004
G1 X0.3975 Y1.3267
G1 X0.3923 Y1.3182
G1 X0.3698
G1 X0.3473
G1 X0.342 Y1.3267
G1 X0.3356 Y1.3371
G3 X0.3322 Y1.339 I-0.0034 J-0.0021
G1 X0.3074
G1 X0.2827
G3 X0.2793 Y1.3371 I0.0 J-0.004
G1 X0.2729 Y1.3267
G1 X0.2676 Y1.3182
G1 X0.1562
G1 X0.1115
G1 Y1.6986
G1 Y2.079
G1 X1.5068
G1 X2.9687
G1 X2.974 Y2.0705
G1 X2.9804 Y2.0601
G3 X2.9838 Y2.0582 I0.0034 J0.0021
G1 X3.0086
G1 X3.0333
G3 X3.0367 Y2.0601 I0.0 J0.004
G1 X3.0431 Y2.0705
G1 X3.0484 Y2.079
G1 X3.3001
G1 X3.554
G3 X3.558 Y2.083 I0.0 J0.004
G1 Y2.1135
G1 Y2.1419
G1 X3.5665 Y2.1471
G1 X3.5769 Y2.1535
G3 X3.5788 Y2.1569 I-0.0021 J0.0034
G1 Y2.2025
G1 Y2.248
G3 X3.5769 Y2.2514 I-0.004 J0.0
G1 X3.5665 Y2.2578
G1 X3.558 Y2.2631
G1 Y2.4524
G1 Y2.64
G1 X3.8952
G1 X4.2364
G1 X4.3392 Y2.6388
G1 X4.366 Y2.5859
G3 X4.3664 Y2.5853 I0.0036 J0.0018
G1 X4.3948 Y2.5481
G3 X4.3979 Y2.5465 I0.0032 J0.0024
G1 X4.4206
G1 X4.4433
G3 X4.4461 Y2.5477 I0.0 J0.004
G1 X4.4586 Y2.5601
G1 X4.471 Y2.5726
G3 X4.4722 Y2.5754 I-0.0028 J0.0028
G1 Y2.5981
G1 Y2.6207
G3 X4.4708 Y2.6238 I-0.004 J0.0
G1 X4.4552 Y2.6366
G1 X4.4398 Y2.6494
G1 X4.3509 Y2.7353
G3 X4.3482 Y2.7364 I-0.0028 J-0.0029
G1 X4.2886 Y2.7369
G1 X4.2885
G1 X4.1911
G3 X4.1892 Y2.7365 I0.0 J-0.004
G3 X4.1708 Y2.7191 I0.0232 J-0.043
G1 X4.1523 Y2.6986
G1 X4.1346 Y2.6792
G1 X3.8796
G1 X3.5228
G3 X3.5188 Y2.6752 I0.0 J-0.004
G1 Y2.468
G1 Y2.2631
G1 X3.5103 Y2.2578
G1 X3.4999 Y2.2514
G3 X3.498 Y2.248 I0.0021 J-0.0034
G1 Y2.2025
G1 Y2.1569
G3 X3.4999 Y2.1535 I0.004 J0.0
G1 X3.51 Y2.1473
G2 X3.5188 Y2.1291 I-0.0168 J-0.0193
G1 Y2.1182
G1 X3.2916
G1 X3.0625
G1 X3.0507 Y2.1371
G1 X3.0377 Y2.1578
G3 X3.0344 Y2.1597 I-0.0034 J-0.0021
G1 X3.0086
G1 X2.9828
G3 X2.9794 Y2.1578 I0.0 J-0.004
G1 X2.9664 Y2.1371
G1 X2.9546 Y2.1182
G1 X2.5126
G1 X2.0724
G1 Y2.1275
G2 X2.0823 Y2.1495 I0.0384 J-0.0041
G1 X2.0933 Y2.1605
G3 X2.0945 Y2.1636 I-0.0028 J0.0028
G1 X2.0912 Y2.2091
G1 X2.0879 Y2.2547
G3 X2.0839 Y2.2584 I-0.004 J-0.0003
G1 X2.0528
G1 X2.0216
G3 X2.0192 Y2.2576 I0.0 J-0.004
G0 Z0.125
G0 Y2.0351
G0 Z0.0423
G1 F10.0 Z-0.004
G1 F25.0 X1.8658
G1 X0.1399
G3 X0.1359 Y2.0311 I0.0 J-0.004
G1 Y1.6986
G1 Y1.3662
G3 X0.1399 Y1.3622 I0.004 J0.0
G1 X0.338
G1 X0.5689
G1 X0.5742 Y1.3537
G1 X0.5806 Y1.3433
G3 X0.584 Y1.3414 I0.0034 J0.0021
G1 X0.6043
G3 X0.6047 I0.0 J0.004
G3 X0.6472 Y1.3548 I-0.0121 J0.1126
G3 X0.6473 Y1.3549 I-0.0019 J0.0035
G1 X0.6659 Y1.3664
G1 X0.6844 Y1.3549
G3 X0.7273 Y1.3414 I0.0465 J0.0728
G3 X0.7274 I0.0002 J0.004
G1 X0.7477
G3 X0.7512 Y1.3433 I0.0 J0.004
G1 X0.7576 Y1.3537
G1 X0.7628 Y1.3622
G1 X2.5728
G1 X4.3811
G1 Y1.0285
G1 Y0.6949
G1 X2.6865
G1 X0.9879
G3 X0.9839 Y0.6909 I0.0 J-0.004
G1 Y0.6566
G1 Y0.624
G1 X0.974 Y0.6141
G1 X0.963 Y0.603
G3 X0.9618 Y0.5999 I0.0028 J-0.0028
G1 X0.9651 Y0.5544
G1 X0.9683 Y0.5088
G3 X0.9723 Y0.5051 I0.004 J0.0003
G1 X1.0035
G1 X1.0347
G3 X1.0387 Y0.5088 I0.0 J0.004
G1 X1.0419 Y0.5544
G1 X1.0452 Y0.5999
G3 X1.044 Y0.603 I-0.004 J0.0003
G1 X1.0331 Y0.6139
G2 X1.0231 Y0.6411 I0.0352 J0.0284
G1 Y0.6557
G1 X1.6009
G1 X2.1786
G1 Y0.641
G2 X2.1686 Y0.614 I-0.0434 J0.0007
G1 X2.1577 Y0.603
G3 X2.1565 Y0.5999 I0.0028 J-0.0028
G1 X2.1598 Y0.5544
G1 X2.1631 Y0.5088
G3 X2.1671 Y0.5051 I0.004 J0.0003
G1 X2.1982
G1 X2.2294
G3 X2.2334 Y0.5088 I0.0 J0.004
G1 X2.2366 Y0.5544
G1 X2.2399 Y0.5999
G3 X2.2387 Y0.603 I-0.004 J0.0003
G1 X2.2278 Y0.6139
G2 X2.2178 Y0.6411 I0.0352 J0.0284
G1 Y0.6557
G1 X2.7177
G1 X3.2175
G1 Y0.641
G2 X3.2075 Y0.614 I-0.0434 J0.0007
G1 X3.1966 Y0.603
G3 X3.1954 Y0.5999 I0.0028 J-0.0028
G1 X3.1987 Y0.5544
G1 X3.202 Y0.5088
G3 X3.2055 Y0.5051 I0.004 J0.0003
G1 X3.2318 Y0.502
G1 X3.2582 Y0.499
G3 X3.2615 Y0.5001 I0.0005 J0.004
G1 X3.2689 Y0.5075
G3 X3.2698 Y0.509 I-0.0028 J0.0028
G3 X3.2775 Y0.5622 I-0.1306 J0.0459
G1 Y0.6065
G3 X3.2756 Y0.6099 I-0.004 J0.0
G1 X3.2652 Y0.6164
G1 X3.2567 Y0.6216
G1 Y0.6396
G1 Y0.6557
G1 X3.8345
G1 X4.4163
G3 X4.4203 Y0.6597 I0.0 J0.004
G1 Y1.0285
G1 Y1.3973
G3 X4.4163 Y1.4013 I-0.004 J0.0
G1 X2.5955
G1 X0.777
G1 X0.7652 Y1.4202
G1 X0.7522 Y1.441
G3 X0.7488 Y1.4429 I-0.0034 J-0.0021
G1 X0.7235
G1 X0.6982
G3 X0.6949 Y1.4412 I0.0 J-0.004
G1 X0.6788 Y1.4181
G1 X0.6659 Y1.3997
G1 X0.653 Y1.4181
G1 X0.6368 Y1.4412
G3 X0.6335 Y1.4429 I-0.0033 J-0.0023
G1 X0.6082
G1 X0.5829
G3 X0.5795 Y1.441 I0.0 J-0.004
G1 X0.5666 Y1.4202
G1 X0.5548 Y1.4013
G1 X0.3465
G1 X0.175
G1 Y1.6986
G1 Y1.9959
G1 X0.2576
G1 X0.3695
G1 X0.3638 Y1.9902
G1 X0.3514 Y1.9778
G3 X0.3502 Y1.975 I0.0028 J-0.0028
G1 Y1.9531
G1 Y1.9313
G3 X0.3514 Y1.9285 I0.004 J0.0
G1 X0.3638 Y1.916
G1 X0.3763 Y1.9036
G3 X0.3791 Y1.9024 I0.0028 J0.0028
G1 X0.4009
G1 X0.4228
G3 X0.4256 Y1.9036 I0.0 J0.004
G1 X0.4381 Y1.916
G1 X0.4505 Y1.9285
G3 X0.4517 Y1.9313 I-0.0028 J0.0028
G1 Y1.9531
G1 Y1.975
G3 X0.4505 Y1.9778 I-0.004 J0.0
G1 X0.4381 Y1.9902
G1 X0.4324 Y1.9959
G1 X0.5859
G1 X0.745
G1 Y1.9812
G2 X0.735 Y1.9541 I-0.0434 J0.0007
G1 X0.724 Y1.9432
G3 X0.7229 Y1.9401 I0.0028 J-0.0028
G1 X0.7261 Y1.8945
G1 X0.7294 Y1.849
G3 X0.7334 Y1.8452 I0.004 J0.0003
G1 X0.7646
G1 X0.7957
G3 X0.7997 Y1.849 I0.0 J0.004
G1 X0.803 Y1.8945
G1 X0.8062 Y1.9401
G3 X0.8051 Y1.9432 I-0.004 J0.0003
G1 X0.7942 Y1.9541
G2 X0.7841 Y1.9812 I0.0351 J0.0284
G1 Y1.9959
G1 X1.258
G1 X1.7319
G1 Y1.9812
G2 X1.7219 Y1.9541 I-0.0434 J0.0007
G1 X1.711 Y1.9432
G3 X1.7098 Y1.9401 I0.0028 J-0.0028
G1 X1.7131 Y1.8945
G1 X1.7163 Y1.849
G3 X1.7203 Y1.8452 I0.004 J0.0003
G1 X1.7515
G1 X1.7827
G3 X1.7867 Y1.849 I0.0 J0.004
G1 X1.7899 Y1.8945
G1 X1.7932 Y1.9401
G3 X1.792 Y1.9432 I-0.004 J0.0003
G1 X1.7811 Y1.9541
G2 X1.7711 Y1.9812 I0.0352 J0.0284
G1 Y1.9959
G1 X2.4943
G1 X3.2175
G1 Y1.9812
G2 X3.2075 Y1.9541 I-0.0434 J0.0007
G1 X3.1966 Y1.9432
G3 X3.1954 Y1.9401 I0.0028 J-0.0028
G1 X3.1987 Y1.8945
G1 X3.202 Y1.849
G3 X3.2059 Y1.8452 I0.004 J0.0003
G1 X3.2371
G1 X3.2683
G3 X3.2723 Y1.849 I0.0 J0.004
G1 X3.2755 Y1.8945
G1 X3.2788 Y1.9401
G3 X3.2776 Y1.9432 I-0.004 J0.0003
G1 X3.2667 Y1.9541
G2 X3.2567 Y1.9812 I0.0352 J0.0284
G1 Y1.9959
G1 X3.4553
G1 X3.6579
G3 X3.6619 Y1.9999 I0.0 J0.004
G1 Y2.1557
G1 Y2.3076
G1 X3.7341
G3 X3.7635 Y2.2704 I0.0616 J0.0187
G3 X3.8573 Y2.3076 I0.0322 J0.0558
G1 X3.8796
G1 X4.0996
G1 X4.1172 Y2.2881
G3 X4.1182 Y2.2873 I0.003 J0.0027
G1 X4.1748 Y2.2561
G3 X4.1768 Y2.2556 I0.0019 J0.0035
G1 X4.3155 Y2.2567
G3 X4.3173 Y2.2571 I0.0 J0.004
G1 X4.3595 Y2.2788
G1 X4.3845 Y2.274
G3 X4.3878 Y2.2749 I0.0008 J0.0039
G1 X4.4033 Y2.2877
G1 X4.4188 Y2.3006
G3 X4.4203 Y2.3037 I-0.0026 J0.0031
G1 Y2.3271
G1 Y2.3506
G3 X4.4188 Y2.3536 I-0.004 J0.0
G1 X4.4033 Y2.3665
G1 X4.3878 Y2.3794
G3 X4.3845 Y2.3803 I-0.0026 J-0.0031
G1 X4.3582 Y2.3752
G3 X4.3561 Y2.3742 I0.0008 J-0.0039
G1 X4.3286 Y2.3471
G1 X4.1014 Y2.3467
G1 X3.864
G1 X3.8568
G3 X3.7635 Y2.382 I-0.061 J-0.0205
G3 X3.7347 Y2.3467 I0.0322 J-0.0558
G1 X3.6267
G3 X3.6227 Y2.3427 I0.0 J-0.004
G1 Y2.1869
G1 Y2.0351
G1 X2.0192
G0 Z0.125
G0 Y1.9623
G0 Z0.0423
G1 F10.0 Z-0.004
G1 F25.0 X2.0136
G3 X2.0096 Y1.958 I0.0 J-0.004
G1 X2.0167 Y1.861
G1 X2.0237 Y1.7661
G1 X2.0092 Y1.754
G1 X1.9931 Y1.7407
G3 X1.9916 Y1.7376 I0.0026 J-0.0031
G1 Y1.715
G1 Y1.6924
G3 X1.9928 Y1.6895 I0.004 J0.0
G1 X2.0053 Y1.6771
G1 X2.0177 Y1.6646
G3 X2.0206 Y1.6634 I0.0028 J0.0028
G1 X2.0424
G1 X2.0642
G3 X2.067 Y1.6646 I0.0 J0.004
G1 X2.0795 Y1.6771
G1 X2.092 Y1.6895
G3 X2.0931 Y1.6924 I-0.0028 J0.0028
G1 Y1.715
G1 Y1.7376
G3 X2.0917 Y1.7407 I-0.004 J0.0
G1 X2.0761 Y1.7536
G1 X2.062 Y1.7654
G1 Y1.8038
G1 Y1.8401
G1 X2.0736
G1 X2.0891
G3 X2.0931 Y1.8441 I0.0 J0.004
G1 Y1.8752
G1 Y1.9024
G1 X2.1203
G1 X2.1475
G1 Y1.8765
G1 Y1.8485
G1 X2.1333 Y1.8367
G1 X2.1178 Y1.8238
G3 X2.1163 Y1.8207 I0.0026 J-0.0031
G1 Y1.7981
G1 Y1.7755
G3 X2.1175 Y1.7727 I0.004 J0.0
G1 X2.1299 Y1.7602
G1 X2.1424 Y1.7477
G3 X2.1452 Y1.7466 I0.0028 J0.0028
G1 X2.1679
G1 X2.1905
G3 X2.1936 Y1.748 I0.0 J0.004
G1 X2.2065 Y1.7636
G2 X2.2298 Y1.7777 I0.0309 J-0.0247
G1 X2.2395
G1 X2.2443 Y1.7592
G1 X2.2499 Y1.7376
G3 X2.2543 Y1.7347 I0.0039 J0.001
G1 X2.2836 Y1.738
G1 X2.313 Y1.7414
G3 X2.3165 Y1.7451 I-0.0005 J0.004
G1 X2.3197 Y1.79
G1 X2.323 Y1.8349
G3 X2.322 Y1.8378 I-0.004 J0.0003
G1 X2.3096 Y1.8528
G1 X2.2993 Y1.8651
G1 X2.314 Y1.8813
G1 X2.3311 Y1.9001
G3 X2.3321 Y1.9028 I-0.003 J0.0027
G1 Y1.9233
G3 X2.3186 Y1.9589 I-0.0541 J-0.0001
G3 X2.3184 Y1.9591 I-0.003 J-0.0026
G1 X2.306 Y1.9715
G3 X2.3032 Y1.9727 I-0.0028 J-0.0028
G1 X2.2813
G1 X2.2595
G3 X2.2567 Y1.9715 I0.0 J-0.004
G1 X2.2442 Y1.9591
G3 X2.2439 Y1.9587 I0.0028 J-0.0028
G3 X2.2306 Y1.9235 I0.0481 J-0.0383
G3 Y1.9233 I0.004 J-0.0002
G1 Y1.9028
G3 X2.2316 Y1.9001 I0.004 J0.0
G1 X2.2471 Y1.883
G1 X2.2608 Y1.8679
G1 X2.249 Y1.8425
G1 X2.2372 Y1.817
G1 X2.229
G2 X2.2028 Y1.8345 I0.0199 J0.058
G1 Y1.8346
G1 X2.1866 Y1.8524
G1 Y1.8942
G1 Y1.9376
G3 X2.1826 Y1.9416 I-0.004 J0.0
G1 X2.1359
G1 X2.0931
G1 Y1.9479
G1 Y1.9583
G3 X2.0891 Y1.9623 I-0.004 J0.0
G1 X2.0514
G1 X2.0192
G0 Z0.125
G0 X1.984 Y1.954
G0 Z0.0423
G1 F10.0 Z-0.004
G3 F25.0 X1.9801 Y1.9571 I-0.0039 J-0.0009
G1 X1.9489
G1 X1.9177
G3 X1.9137 Y1.9534 I0.0 J-0.004
G1 X1.9105 Y1.9079
G1 X1.9072 Y1.8623
G3 X1.9084 Y1.8592 I0.004 J-0.0003
G1 X1.9194 Y1.8481
G1 X1.9293 Y1.8382
G1 Y1.7069
G1 Y1.5739
G3 X1.9333 Y1.5699 I0.004 J0.0
G1 X2.3489
G1 X2.7644
G3 X2.7684 Y1.5739 I0.0 J0.004
G1 Y1.7233
G1 Y1.8708
G1 X2.7826 Y1.8825
G1 X2.7981 Y1.8955
G3 X2.7996 Y1.8985 I-0.0026 J0.0031
G1 Y1.9212
G1 Y1.9438
G3 X2.7984 Y1.9466 I-0.004 J0.0
G1 X2.7859 Y1.9591
G1 X2.7735 Y1.9715
G3 X2.7707 Y1.9727 I-0.0028 J-0.0028
G1 X2.7488
G1 X2.727
G3 X2.7242 Y1.9715 I0.0 J-0.004
G1 X2.7117 Y1.9591
G1 X2.6993 Y1.9466
G3 X2.6981 Y1.9438 I0.0028 J-0.0028
G1 Y1.9212
G1 Y1.8985
G3 X2.6995 Y1.8955 I0.004 J0.0
G1 X2.7151 Y1.8825
G1 X2.7293 Y1.8708
G1 Y1.7389
G1 Y1.6091
G1 X2.567
G1 X2.4048
G1 Y1.6706
G1 Y1.7343
G1 X2.4147 Y1.7442
G1 X2.4257 Y1.7553
G3 X2.4269 Y1.7584 I-0.0028 J0.0028
G1 X2.4236 Y1.804
G1 X2.4204 Y1.8495
G3 X2.4164 Y1.8532 I-0.004 J-0.0003
G1 X2.3852
G1 X2.3541
G3 X2.3501 Y1.8495 I0.0 J-0.004
G1 X2.3468 Y1.804
G1 X2.3435 Y1.7584
G3 X2.3447 Y1.7553 I0.004 J-0.0003
G1 X2.3558 Y1.7442
G1 X2.3656 Y1.7343
G1 Y1.6706
G1 Y1.6091
G1 X2.2761
G1 X2.1866
G1 Y1.6135
G2 X2.2007 Y1.6331 I0.0415 J-0.015
G1 X2.2008 Y1.6332
G1 X2.2164 Y1.6461
G3 X2.2178 Y1.6492 I-0.0026 J0.0031
G1 Y1.6718
G1 Y1.6945
G3 X2.2166 Y1.6973 I-0.004 J0.0
G1 X2.2042 Y1.7097
G1 X2.1917 Y1.7222
G3 X2.1889 Y1.7234 I-0.0028 J-0.0028
G1 X2.1671
G1 X2.1452
G3 X2.1424 Y1.7222 I0.0 J-0.004
G1 X2.1299 Y1.7097
G1 X2.1175 Y1.6973
G3 X2.1163 Y1.6945 I0.0028 J-0.0028
G1 Y1.6718
G1 Y1.6492
G3 X2.1178 Y1.6461 I0.004 J0.0
G1 X2.1333 Y1.6332
G3 X2.1336 Y1.633 I0.0026 J0.0031
G2 X2.1475 Y1.6136 I-0.0216 J-0.0302
G1 Y1.6091
G1 X2.058
G1 X1.9685
G1 Y1.7225
G1 Y1.8382
G1 X1.9784 Y1.8481
G1 X1.9894 Y1.8592
G3 X1.9906 Y1.8623 I-0.0028 J0.0028
G1 X1.9873 Y1.9079
G1 X1.984 Y1.9534
G3 Y1.954 I-0.004 J-0.0003
G0 Z0.125
G0 X1.7693 Y1.7394
G0 Z0.0423
G1 F10.0 Z-0.004
G1 F25.0 X1.7574 Y1.7513
G1 X1.745 Y1.7638
G3 X1.7422 Y1.7649 I-0.0028 J-0.0028
G1 X1.7203
G1 X1.6985
G3 X1.6957 Y1.7638 I0.0 J-0.004
G1 X1.6832 Y1.7513
G1 X1.6708 Y1.7388
G3 X1.6696 Y1.736 I0.0028 J-0.0028
G1 Y1.7134
G1 Y1.6908
G3 X1.671 Y1.6877 I0.004 J0.0
G1 X1.6866 Y1.6748
G1 X1.7008 Y1.663
G1 Y1.6298
G1 Y1.5987
G1 X1.3411
G1 X0.9815
G1 Y1.6298
G1 Y1.663
G1 X0.9957 Y1.6748
G1 X1.0113 Y1.6877
G3 X1.0127 Y1.6908 I-0.0026 J0.0031
G1 Y1.7142
G1 Y1.7376
G3 X1.0113 Y1.7407 I-0.004 J0.0
G1 X0.9957 Y1.7536
G1 X0.9815 Y1.7654
G1 Y1.8017
G1 Y1.8382
G1 X0.9914 Y1.8481
G1 X1.0025 Y1.8592
G3 X1.0036 Y1.8623 I-0.0028 J0.0028
G1 X1.0004 Y1.9079
G1 X0.9971 Y1.9534
G3 X0.9931 Y1.9571 I-0.004 J-0.0003
G1 X0.9619
G1 X0.9308
G3 X0.9268 Y1.9534 I0.0 J-0.004
G1 X0.9235 Y1.9079
G1 X0.9203 Y1.8623
G3 X0.9214 Y1.8592 I0.004 J-0.0003
G1 X0.9325 Y1.8481
G1 X0.9424 Y1.8382
G1 Y1.8017
G1 Y1.7654
G1 X0.9282 Y1.7536
G1 X0.9126 Y1.7407
G3 X0.9112 Y1.7376 I0.0026 J-0.0031
G1 Y1.7142
G1 Y1.6908
G3 X0.9126 Y1.6877 I0.004 J0.0
G1 X0.9282 Y1.6748
G1 X0.9424 Y1.663
G1 Y1.6142
G1 Y1.5636
G3 X0.9464 Y1.5596 I0.004 J0.0
G1 X1.3411
G1 X1.7359
G3 X1.7399 Y1.5636 I0.0 J0.004
G1 Y1.6142
G1 Y1.663
G1 X1.7541 Y1.6748
G1 X1.7696 Y1.6877
G3 X1.7711 Y1.6908 I-0.0026 J0.0031
G1 Y1.7134
G1 Y1.736
G3 X1.7699 Y1.7388 I-0.004 J0.0
G1 X1.7693 Y1.7394
G0 Z0.125
G0 X1.4799 Y1.8674
G0 Z0.0423
G1 F10.0 Z-0.004
G3 F25.0 X1.4802 Y1.869 I-0.0037 J0.0016
G1 Y1.8908
G1 Y1.9126
G3 X1.479 Y1.9154 I-0.004 J0.0
G1 X1.4666 Y1.9279
G1 X1.4541 Y1.9404
G3 X1.4513 Y1.9416 I-0.0028 J-0.0028
G1 X1.4286
G1 X1.406
G3 X1.4029 Y1.9401 I0.0 J-0.004
G1 X1.39 Y1.9245
G1 X1.3783 Y1.9104
G1 X1.3204
G1 X1.2625
G1 X1.2507 Y1.9245
G1 X1.2378 Y1.9401
G3 X1.2347 Y1.9416 I-0.0031 J-0.0026
G1 X1.2113
G1 X1.1879
G3 X1.1848 Y1.9401 I0.0 J-0.004
G1 X1.1718 Y1.9245
G1 X1.1601 Y1.9104
G1 X1.1321
G1 X1.1062
G1 Y1.9324
G1 Y1.9583
G3 X1.1022 Y1.9623 I-0.004 J0.0
G1 X1.0658
G1 X1.0295
G3 X1.0255 Y1.9583 I0.0 J-0.004
G1 Y1.9012
G1 Y1.8441
G3 X1.0295 Y1.8401 I0.004 J0.0
G1 X1.0399
G1 X1.0463
G1 Y1.7713
G1 Y1.6986
G3 X1.0503 Y1.6946 I0.004 J0.0
G1 X1.1373
G1 X1.2224
G1 X1.2342 Y1.6805
G1 X1.2471 Y1.6649
G3 X1.2502 Y1.6634 I0.0031 J0.0026
G1 X1.2728
G1 X1.2954
G3 X1.2983 Y1.6646 I0.0 J0.004
G1 X1.3107 Y1.6771
G1 X1.3232 Y1.6895
G3 X1.3244 Y1.6924 I-0.0028 J0.0028
G1 Y1.7142
G1 Y1.736
G3 X1.3232 Y1.7388 I-0.004 J0.0
G1 X1.3107 Y1.7513
G1 X1.2983 Y1.7638
G3 X1.2954 Y1.7649 I-0.0028 J-0.0028
G1 X1.2728
G1 X1.2502
G3 X1.2471 Y1.7635 I0.0 J-0.004
G1 X1.2342 Y1.7479
G1 X1.2224 Y1.7338
G1 X1.1529
G1 X1.0854
G1 Y1.7869
G1 Y1.8401
G1 X1.0918
G1 X1.1022
G3 X1.1062 Y1.8441 I0.0 J0.004
G1 Y1.8596
G1 Y1.8712
G1 X1.1321
G1 X1.1601
G1 X1.1718 Y1.8571
G1 X1.1848 Y1.8415
G3 X1.1879 Y1.8401 I0.0031 J0.0026
G1 X1.2113
G1 X1.2347
G3 X1.2378 Y1.8415 I0.0 J0.004
G1 X1.2507 Y1.8571
G1 X1.2625 Y1.8712
G1 X1.3204
G1 X1.3783
G1 X1.39 Y1.8571
G1 X1.4029 Y1.8415
G3 X1.406 Y1.8401 I0.0031 J0.0026
G1 X1.4286
G1 X1.4513
G3 X1.4541 Y1.8412 I0.0 J0.004
G1 X1.4666 Y1.8537
G1 X1.479 Y1.8662
G3 X1.4799 Y1.8674 I-0.0028 J0.0028
G0 Z0.125
G0 X1.4517 Y2.1517
G0 Z0.0423
G1 F10.0 Z-0.004
G3 F25.0 X1.4541 Y2.1529 I-0.0004 J0.004
G1 X1.4666 Y2.1654
G1 X1.479 Y2.1778
G3 X1.4802 Y2.1807 I-0.0028 J0.0028
G1 Y2.2033
G1 Y2.2259
G3 X1.4788 Y2.229 I-0.004 J0.0
G1 X1.4632 Y2.2419
G1 X1.449 Y2.2536
G1 Y2.3895
G1 Y2.5253
G1 X1.4632 Y2.537
G1 X1.4788 Y2.55
G3 X1.4802 Y2.553 I-0.0026 J0.0031
G1 Y2.5765
G1 Y2.5999
G3 X1.4788 Y2.603 I-0.004 J0.0
G1 X1.4632 Y2.6159
G1 X1.449 Y2.6276
G1 Y2.7011
G1 Y2.7746
G1 X1.4632 Y2.7864
G1 X1.4788 Y2.7993
G3 X1.4802 Y2.8024 I-0.0026 J0.0031
G1 Y2.825
G1 Y2.8476
G3 X1.479 Y2.8504 I-0.004 J0.0
G1 X1.4666 Y2.8629
G1 X1.4541 Y2.8754
G3 X1.4513 Y2.8766 I-0.0028 J-0.0028
G1 X1.4294
G1 X1.4076
G3 X1.4048 Y2.8754 I0.0 J-0.004
G1 X1.3923 Y2.8629
G1 X1.3799 Y2.8504
G3 X1.3787 Y2.8476 I0.0028 J-0.0028
G1 Y2.825
G1 Y2.8024
G3 X1.3801 Y2.7993 I0.004 J0.0
G1 X1.3957 Y2.7864
G1 X1.4099 Y2.7746
G1 Y2.7011
G1 Y2.6276
G1 X1.3957 Y2.6159
G1 X1.3801 Y2.603
G3 X1.3787 Y2.5999 I0.0026 J-0.0031
G1 Y2.5765
G1 Y2.553
G3 X1.3801 Y2.55 I0.004 J0.0
G1 X1.3957 Y2.537
G1 X1.4099 Y2.5253
G1 Y2.3895
G1 Y2.2536
G1 X1.3957 Y2.2419
G1 X1.3801 Y2.229
G3 X1.3787 Y2.2259 I0.0026 J-0.0031
G1 Y2.2033
G1 Y2.1807
G3 X1.3799 Y2.1778 I0.004 J0.0
G1 X1.3923 Y2.1654
G1 X1.4048 Y2.1529
G3 X1.4076 Y2.1517 I0.0028 J0.0028
G1 X1.4294
G1 X1.4513
G3 X1.4517 I0.0 J0.004
G0 Z0.125
G0 X1.262 Y2.1801
G0 Z0.0423
G1 F10.0 Z-0.004
G3 F25.0 Y2.1807 I-0.004 J0.0006
G1 Y2.2033
G1 Y2.2259
G3 X1.2606 Y2.229 I-0.004 J0.0
G1 X1.245 Y2.2419
G1 X1.2309 Y2.2536
G1 Y2.3648
G1 Y2.4778
G3 X1.2269 Y2.4818 I-0.004 J0.0
G1 X1.1298
G1 X1.0345
G1 X1.0185 Y2.4995
G1 X1.0023 Y2.5173
G1 Y2.5799
G1 Y2.644
G3 X0.9983 Y2.648 I-0.004 J0.0
G1 X0.7905
G1 X0.5828
G3 X0.5788 Y2.644 I0.0 J-0.004
G1 Y2.5199
G1 Y2.3959
G3 X0.5806 Y2.3925 I0.004 J0.0
G1 X0.591 Y2.3861
G1 X0.5995 Y2.3808
G1 Y2.3598
G1 Y2.3365
G3 X0.6007 Y2.3337 I0.004 J0.0
G1 X0.6132 Y2.3212
G1 X0.6256 Y2.3087
G3 X0.6285 Y2.3076 I0.0028 J0.0028
G1 X0.6511
G1 X0.6737
G3 X0.6768 Y2.309 I0.0 J0.004
G1 X0.6897 Y2.3246
G1 X0.7015 Y2.3387
G1 X0.7638
G1 X0.8263
G1 X0.8376 Y2.3274
G1 X0.8489 Y2.3161
G1 Y2.2908
G1 Y2.2654
G1 X0.839 Y2.2555
G1 X0.8279 Y2.2445
G3 X0.8268 Y2.2414 I0.0028 J-0.0028
G1 X0.83 Y2.1958
G1 X0.8333 Y2.1502
G3 X0.8367 Y2.1466 I0.004 J0.0003
G1 X0.8591 Y2.1434
G1 X0.8815 Y2.1402
G3 X0.8855 Y2.142 I0.0006 J0.004
G1 X0.8925 Y2.1535
G1 X0.8996 Y2.1649
G3 X0.9002 Y2.1673 I-0.0034 J0.0021
G1 X0.8929 Y2.2578
G1 X0.8855 Y2.3482
G3 X0.8847 Y2.3504 I-0.004 J-0.0003
G1 X0.8743 Y2.3634
G1 X0.8638 Y2.3764
G3 X0.8607 Y2.3779 I-0.0031 J-0.0025
G1 X0.7801
G1 X0.7015
G1 X0.6897 Y2.392
G1 X0.6768 Y2.4076
G3 X0.6737 Y2.4091 I-0.0031 J-0.0026
G1 X0.6565
G2 X0.6291 Y2.4205 I0.0047 J0.0497
G1 X0.6179 Y2.4316
G1 Y2.5214
G1 Y2.6088
G1 X0.7905
G1 X0.9631
G1 Y2.5469
G1 Y2.481
G3 X0.9645 Y2.478 I0.004 J0.0
G1 X0.9835 Y2.4608
G1 X1.0025 Y2.4436
G3 X1.0051 Y2.4426 I0.0027 J0.003
G1 X1.1004
G1 X1.1917
G1 Y2.3492
G1 Y2.2536
G1 X1.1776 Y2.2419
G1 X1.162 Y2.229
G3 X1.1605 Y2.2259 I0.0026 J-0.0031
G1 Y2.2033
G1 Y2.1807
G3 X1.1617 Y2.1778 I0.004 J0.0
G1 X1.1742 Y2.1654
G1 X1.1866 Y2.1529
G3 X1.1895 Y2.1517 I0.0028 J0.0028
G1 X1.2113
G1 X1.2331
G3 X1.2359 Y2.1529 I0.0 J0.004
G1 X1.2484 Y2.1654
G1 X1.2609 Y2.1778
G3 X1.262 Y2.1801 I-0.0028 J0.0028
G0 Z0.125
G0 X1.1223 Y2.3198
G0 Z0.0423
G1 F10.0 Z-0.004
G1 F25.0 X1.1237 Y2.3212
G1 X1.1362 Y2.3337
G3 X1.1374 Y2.3365 I-0.0028 J0.0028
G1 Y2.3583
G1 Y2.3801
G3 X1.1362 Y2.3829 I-0.004 J0.0
G1 X1.1237 Y2.3954
G3 X1.1234 Y2.3957 I-0.0028 J-0.0028
G3 X1.0882 Y2.409 I-0.0383 J-0.0481
G3 X1.088 Y2.4091 I-0.0002 J-0.004
G1 X1.0675
G3 X1.0648 Y2.408 I0.0 J-0.004
G1 X1.0452 Y2.3903
G1 X1.028 Y2.3747
G1 X1.0131 Y2.3854
G3 X0.9743 Y2.4077 I-0.1044 J-0.1365
G2 X0.8977 Y2.4744 I0.3259 J0.4515
G1 X0.8976
G1 X0.8408 Y2.5325
G3 X0.838 Y2.5337 I-0.0029 J-0.0028
G1 X0.7948
G1 X0.7534
G1 X0.7417 Y2.5479
G1 X0.7287 Y2.5634
G3 X0.7257 Y2.5649 I-0.0031 J-0.0026
G1 X0.703
G1 X0.6804
G3 X0.6776 Y2.5637 I0.0 J-0.004
G1 X0.6651 Y2.5512
G1 X0.6526 Y2.5388
G3 X0.6515 Y2.536 I0.0028 J-0.0028
G1 Y2.5141
G1 Y2.4923
G3 X0.6526 Y2.4895 I0.004 J0.0
G1 X0.6651 Y2.477
G1 X0.6776 Y2.4646
G3 X0.6804 Y2.4634 I0.0028 J0.0028
G1 X0.703
G1 X0.7257
G3 X0.7287 Y2.4648 I0.0 J0.004
G1 X0.7417 Y2.4804
G1 X0.7534 Y2.4946
G1 X0.7792
G1 X0.8052
G1 X0.8582 Y2.4409
G1 X0.9112 Y2.3872
G1 Y2.3618
G1 Y2.3349
G3 X0.9126 Y2.3318 I0.004 J0.0
G1 X0.9282 Y2.3189
G1 X0.9424 Y2.3071
G1 Y2.2864
G3 Y2.2863 I0.004 J0.0
G2 X0.9323 Y2.2554 I-0.0477 J-0.0016
G1 X0.9214 Y2.2445
G3 X0.9203 Y2.2414 I0.0028 J-0.0028
G1 X0.9235 Y2.1958
G1 X0.9268 Y2.1502
G3 X0.9303 Y2.1465 I0.004 J0.0003
G1 X0.9567 Y2.1435
G1 X0.983 Y2.1404
G3 X0.9863 Y2.1415 I0.0005 J0.004
G1 X0.9937 Y2.1489
G3 X0.9947 Y2.1505 I-0.0028 J0.0028
G3 X1.0023 Y2.2037 I-0.1308 J0.0459
G1 Y2.248
G3 X1.0004 Y2.2514 I-0.004 J0.0
G1 X0.99 Y2.2578
G1 X0.9815 Y2.2631
G1 Y2.2846
G1 Y2.3066
G1 X0.9992 Y2.3226
G1 X0.9993
G2 X1.0265 Y2.3386 I0.048 J-0.0507
G2 X1.0471 Y2.3246 I-0.0117 J-0.0396
G1 X1.0472
G1 X1.0601 Y2.309
G3 X1.0632 Y2.3076 I0.0031 J0.0026
G1 X1.0858
G1 X1.1084
G3 X1.1113 Y2.3087 I0.0 J0.004
G1 X1.1223 Y2.3198
G0 Z0.125
G0 X1.1103 Y2.5257
G0 Z0.0423
G1 F10.0 Z-0.004
G3 F25.0 X1.1131 Y2.5272 I-0.0002 J0.004
G1 X1.1261 Y2.5427
G3 Y2.5428 I-0.0031 J0.0026
G2 X1.1489 Y2.5568 I0.0301 J-0.0236
G2 X1.1718 Y2.5428 I-0.0084 J-0.0394
G1 Y2.5427
G1 X1.1848 Y2.5272
G3 X1.1879 Y2.5257 I0.0031 J0.0026
G1 X1.2105
G1 X1.2331
G3 X1.2359 Y2.5269 I0.0 J0.004
G1 X1.2484 Y2.5394
G1 X1.2609 Y2.5518
G3 X1.262 Y2.5547 I-0.0028 J0.0028
G1 Y2.5765
G1 Y2.5983
G3 X1.2609 Y2.6011 I-0.004 J0.0
G1 X1.2484 Y2.6136
G1 X1.2359 Y2.626
G3 X1.2331 Y2.6272 I-0.0028 J-0.0028
G1 X1.2105
G1 X1.1879
G3 X1.1848 Y2.6258 I0.0 J-0.004
G1 X1.1718 Y2.6102
G3 X1.1717 Y2.61 I0.0031 J-0.0026
G2 X1.1494 Y2.5961 I-0.0291 J0.0218
G2 X1.1225 Y2.6135 I0.0126 J0.0489
G3 X1.1224 Y2.6137 I-0.0031 J-0.0025
G1 X1.1062 Y2.6316
G1 Y2.6838
G1 Y2.7375
G3 X1.1022 Y2.7415 I-0.004 J0.0
G1 X1.0567
G1 X1.0131
G1 X1.0014 Y2.7556
G1 X0.9885 Y2.7712
G3 X0.9854 Y2.7727 I-0.0031 J-0.0026
G1 X0.9623
G1 X0.941
G1 X0.925 Y2.7903
G1 X0.9088 Y2.8082
G1 Y2.8271
G3 X0.8953 Y2.8627 I-0.0541 J-0.0002
G3 X0.8952 Y2.8629 I-0.003 J-0.0026
G1 X0.8827 Y2.8754
G3 X0.8799 Y2.8766 I-0.0028 J-0.0028
G1 X0.8573
G1 X0.8346
G3 X0.8316 Y2.8751 I0.0 J-0.004
G1 X0.8186 Y2.8595
G1 X0.8069 Y2.8454
G1 X0.7594
G1 X0.7118
G1 X0.7001 Y2.8595
G1 X0.6872 Y2.8751
G3 X0.6841 Y2.8766 I-0.0031 J-0.0026
G1 X0.6615
G1 X0.6389
G3 X0.636 Y2.8754 I0.0 J-0.004
G1 X0.6236 Y2.8629
G1 X0.6111 Y2.8504
G3 X0.6099 Y2.8476 I0.0028 J-0.0028
G1 Y2.8258
G1 Y2.804
G3 X0.6111 Y2.8012 I0.004 J0.0
G1 X0.6236 Y2.7887
G1 X0.636 Y2.7762
G3 X0.6389 Y2.7751 I0.0028 J0.0028
G1 X0.6615
G1 X0.6841
G3 X0.6872 Y2.7765 I0.0 J0.004
G1 X0.7001 Y2.7921
G1 X0.7118 Y2.8062
G1 X0.7594
G1 X0.8069
G1 X0.8186 Y2.7921
G1 X0.8316 Y2.7765
G3 X0.8346 Y2.7751 I0.0031 J0.0026
G1 X0.8523
G1 X0.8683
G1 X0.8897 Y2.7523
G3 X0.8898 Y2.7522 I0.0029 J0.0027
G2 X0.9112 Y2.7149 I-0.0563 J-0.0572
G3 X0.9248 Y2.6848 I0.0475 J0.0034
G1 X0.9373 Y2.6723
G3 X0.9401 Y2.6712 I0.0028 J0.0028
G1 X0.9628
G1 X0.9854
G3 X0.9885 Y2.6726 I0.0 J0.004
G1 X1.0014 Y2.6882
G1 X1.0131 Y2.7023
G1 X1.0411
G1 X1.067
G1 Y2.666
G1 Y2.6276
G1 X1.0529 Y2.6159
G1 X1.0373 Y2.603
G3 X1.0359 Y2.5999 I0.0026 J-0.0031
G1 Y2.5773
G1 Y2.5547
G3 X1.037 Y2.5518 I0.004 J0.0
G1 X1.0495 Y2.5394
G1 X1.062 Y2.5269
G3 X1.0648 Y2.5257 I0.0028 J0.0028
G1 X1.0874
G1 X1.11
G3 X1.1103 I0.0 J0.004
G0 Z0.125
G0 X1.0896 Y2.7751
G0 Z0.0423
G1 F10.0 Z-0.004
G3 F25.0 X1.0923 Y2.7765 I-0.0003 J0.004
G1 X1.1053 Y2.7921
G1 X1.117 Y2.8062
G1 X1.1645
G1 X1.2121
G1 X1.2238 Y2.7921
G1 X1.2367 Y2.7765
G3 X1.2398 Y2.7751 I0.0031 J0.0026
G1 X1.2624
G1 X1.285
G3 X1.2879 Y2.7762 I0.0 J0.004
G1 X1.3003 Y2.7887
G1 X1.3128 Y2.8012
G3 X1.314 Y2.804 I-0.0028 J0.0028
G1 Y2.8258
G1 Y2.8476
G3 X1.3128 Y2.8504 I-0.004 J0.0
G1 X1.3003 Y2.8629
G1 X1.2879 Y2.8754
G3 X1.285 Y2.8766 I-0.0028 J-0.0028
G1 X1.2624
G1 X1.2398
G3 X1.2367 Y2.8751 I0.0 J-0.004
G1 X1.2238 Y2.8595
G1 X1.2121 Y2.8454
G1 X1.1645
G1 X1.117
G1 X1.1053 Y2.8595
G1 X1.0923 Y2.8751
G3 X1.0893 Y2.8766 I-0.0031 J-0.0026
G1 X1.0666
G1 X1.044
G3 X1.0412 Y2.8754 I0.0 J-0.004
G1 X1.0287 Y2.8629
G1 X1.0163 Y2.8504
G3 X1.0151 Y2.8476 I0.0028 J-0.0028
G1 Y2.8258
G1 Y2.804
G3 X1.0163 Y2.8012 I0.004 J0.0
G1 X1.0287 Y2.7887
G1 X1.0412 Y2.7762
G3 X1.044 Y2.7751 I0.0028 J0.0028
G1 X1.0666
G1 X1.0893
G3 X1.0896 I0.0 J0.004
G0 Z0.125
G0 X1.2235 Y3.181
G0 Z0.0423
G1 F10.0 Z-0.004
G3 F25.0 X1.2409 Y3.1782 I0.0174 J0.0527
G1 X1.2578
G3 X1.3133 Y3.2337 I0.0 J0.0555
G1 Y3.3278
G3 X1.2578 Y3.3833 I-0.0555 J0.0
G1 X1.2409
G3 X1.1854 Y3.3278 I0.0 J-0.0555
G1 Y3.2337
G3 X1.2235 Y3.181 I0.0555 J0.0
G0 Z0.125
G0 X1.1064 Y3.6498
G0 Z0.0423
G1 F10.0 Z-0.004
G3 F25.0 X1.1428 Y3.6791 I-0.0134 J0.0538
G1 X1.4803
G3 X1.5301 Y3.6481 I0.0498 J0.0245
G1 X1.6242
G3 X1.674 Y3.6791 I0.0 J0.0555
G1 X1.7963
G3 X1.7965 I0.0 J0.004
G1 X2.0079 Y3.6874
G3 X2.0609 Y3.6483 I0.053 J0.0164
G1 X2.155
G3 X2.2105 Y3.7038 I0.0 J0.0555
G1 Y3.7207
G3 X2.155 Y3.7762 I-0.0555 J0.0
G1 X2.0609
G3 X2.0147 Y3.7515 I0.0 J-0.0555
G1 X1.8544
G1 X1.7963
G3 X1.7942 Y3.7509 I0.0 J-0.004
G1 X1.6707
G3 X1.6242 Y3.776 I-0.0465 J-0.0304
G1 X1.5301
G3 X1.4837 Y3.7509 I0.0 J-0.0555
G1 X1.1394
G3 X1.093 Y3.776 I-0.0465 J-0.0304
G1 X0.9989
G3 X0.9524 Y3.7509 I0.0 J-0.0555
G1 X0.4519
G3 X0.4055 Y3.776 I-0.0465 J-0.0304
G1 X0.3114
G3 X0.2559 Y3.7205 I0.0 J-0.0555
G1 Y3.7036
G3 X0.3114 Y3.6481 I0.0555 J0.0
G1 X0.4055
G3 X0.4553 Y3.6791 I0.0 J0.0555
G1 X0.9491
G3 X0.9989 Y3.6481 I0.0498 J0.0245
G1 X1.093
G3 X1.1064 Y3.6498 I0.0 J0.0555
G0 Z0.125
G0 X0.6179 Y3.3564
G0 Z0.0423
G1 F10.0 Z-0.004
G3 F25.0 X0.5703 Y3.3833 I-0.0476 J-0.0286
G1 X0.5534
G3 X0.4979 Y3.3278 I0.0 J-0.0555
G1 Y3.2337
G3 X0.5534 Y3.1782 I0.0555 J0.0
G1 X0.5703
G3 X0.6258 Y3.2337 I0.0 J0.0555
G1 Y3.3278
G3 X0.6179 Y3.3564 I-0.0555 J0.0
G0 Z0.125
G0 X0.4494 Y3.2283
G0 Z0.0423
G1 F10.0 Z-0.004
G3 F25.0 X0.4052 Y3.2502 I-0.0442 J-0.0336
G1 X0.3111
G3 X0.2556 Y3.1947 I0.0 J-0.0555
G1 Y3.1808
G1 X0.2085 Y3.0992
G3 X0.208 Y3.0972 I0.0035 J-0.002
G1 Y2.5728
G1 X0.1918 Y2.555
G1 X0.1746 Y2.536
G3 X0.1736 Y2.5333 I0.003 J-0.0027
G1 Y2.5123
G1 Y2.4914
G3 X0.1749 Y2.4884 I0.004 J0.0
G1 X0.1939 Y2.4712
G1 X0.2129 Y2.454
G3 X0.2156 Y2.453 I0.0027 J0.003
G1 X0.2365
G1 X0.2575
G3 X0.2604 Y2.4543 I0.0 J0.004
G1 X0.2792 Y2.4751
G1 X0.2969 Y2.4946
G1 X0.313
G1 X0.329
G1 X0.3407 Y2.4804
G1 X0.3537 Y2.4648
G3 X0.3567 Y2.4634 I0.0031 J0.0026
G1 X0.3794
G1 X0.402
G3 X0.4048 Y2.4646 I0.0 J0.004
G1 X0.4173 Y2.477
G1 X0.4297 Y2.4895
G3 X0.4309 Y2.4923 I-0.0028 J0.0028
G1 Y2.5141
G1 Y2.536
G3 X0.4297 Y2.5388 I-0.004 J0.0
G1 X0.4173 Y2.5512
G1 X0.4048 Y2.5637
G3 X0.402 Y2.5649 I-0.0028 J-0.0028
G1 X0.3794
G1 X0.3567
G3 X0.3537 Y2.5634 I0.0 J-0.004
G1 X0.3407 Y2.5479
G1 X0.329 Y2.5337
G1 X0.313
G1 X0.2969
G1 X0.2792 Y2.5532
G1 X0.2615 Y2.5728
G1 Y3.0704
G1 X0.2966 Y3.1242
G3 X0.3111 Y3.1223 I0.0145 J0.0536
G1 X0.4052
G3 X0.4607 Y3.1778 I0.0 J0.0555
G1 Y3.1947
G3 X0.4494 Y3.2283 I-0.0555 J0.0
G0 Z0.125
G0 X0.3989 Y2.8761
G0 Z0.0423
G1 F10.0 Z-0.004
G1 F25.0 X0.3848 Y2.8781
G3 X0.3817 Y2.8772 I-0.0006 J-0.004
G1 X0.3667 Y2.8648
G1 X0.3516 Y2.8523
G3 X0.3502 Y2.8492 I0.0026 J-0.0031
G1 Y2.8266
G1 Y2.804
G3 X0.3514 Y2.8012 I0.004 J0.0
G1 X0.3638 Y2.7887
G1 X0.3763 Y2.7762
G3 X0.3791 Y2.7751 I0.0028 J0.0028
G1 X0.4061
G1 X0.4315
G1 X0.4428 Y2.7638
G1 X0.4541 Y2.7525
G1 Y2.5609
G1 Y2.3693
G1 X0.4428 Y2.358
G1 X0.4315 Y2.3467
G1 X0.4061
G1 X0.3791
G3 X0.3763 Y2.3455 I0.0 J-0.004
G1 X0.3638 Y2.3331
G1 X0.3514 Y2.3206
G3 X0.3502 Y2.3178 I0.0028 J-0.0028
G1 Y2.2903
G1 Y2.2646
G1 X0.3325 Y2.2486
G1 X0.3147 Y2.2324
G1 X0.1222
G1 X0.0133
G3 X0.0093 Y2.2284 I0.0 J-0.004
G1 Y1.6882
G1 Y1.148
G3 X0.0133 Y1.144 I0.004 J0.0
G1 X0.2763
G1 X0.6243
G3 X0.6283 Y1.148 I0.0 J0.004
G1 Y1.174
G1 Y1.1959
G1 X2.3904
G1 X4.1525
G1 Y1.061
G1 Y0.9239
G1 X4.1384 Y0.9121
G1 X4.1228 Y0.8992
G3 X4.1214 Y0.8961 I0.0026 J-0.0031
G1 Y0.8735
G1 Y0.8509
G3 X4.1225 Y0.848 I0.004 J0.0
G1 X4.135 Y0.8356
G1 X4.1475 Y0.8231
G3 X4.1503 Y0.8219 I0.0028 J0.0028
G1 X4.1721
G1 X4.1939
G3 X4.1968 Y0.8231 I0.0 J0.004
G1 X4.2092 Y0.8356
G1 X4.2217 Y0.848
G3 X4.2229 Y0.8509 I-0.0028 J0.0028
G1 Y0.8735
G1 Y0.8961
G3 X4.2214 Y0.8992 I-0.004 J0.0
G1 X4.2058 Y0.9121
G1 X4.1917 Y0.9239
G1 Y1.0765
G1 Y1.2311
G3 X4.1877 Y1.2351 I-0.004 J0.0
G1 X2.3904
G1 X0.5931
G3 X0.5891 Y1.2311 I0.0 J-0.004
G1 Y1.2051
G1 Y1.1832
G1 X0.2763
G1 X0.0484
G1 Y1.6882
G1 Y2.1933
G1 X0.1552
G1 X0.351
G3 X0.3539 Y2.1946 I0.0 J0.004
G1 X0.3737 Y2.2166
G2 X0.4156 Y2.2465 I0.0923 J-0.0848
G1 X0.4391 Y2.2555
G3 X0.4414 Y2.2578 I-0.0014 J0.0037
G1 X0.4505 Y2.2817
G2 X0.4753 Y2.3181 I0.1043 J-0.0444
G1 X0.4918 Y2.3318
G3 X0.4933 Y2.3349 I-0.0026 J0.0031
G1 Y2.5587
G1 Y2.7826
G3 X0.4922 Y2.7853 I-0.004 J0.0
G1 X0.475 Y2.8044
G3 X0.4749 I-0.003 J-0.0027
G2 X0.4468 Y2.8457 I0.1093 J0.1046
G3 X0.4467 Y2.8458 I-0.0036 J-0.0017
G1 X0.4352 Y2.8691
G3 X0.4322 Y2.8713 I-0.0036 J-0.0018
G1 X0.4085 Y2.8747
G1 X0.3989 Y2.8761
G0 Z0.125
G0 X0.5137 Y1.9
G0 Z0.0423
G1 F10.0 Z-0.004
G3 F25.0 X0.5114 Y1.8988 I0.0005 J-0.004
G1 X0.4989 Y1.8864
G1 X0.4864 Y1.8739
G3 X0.4853 Y1.8711 I0.0028 J-0.0028
G1 Y1.8484
G1 Y1.8258
G3 X0.4867 Y1.8227 I0.004 J0.0
G1 X0.5023 Y1.8098
G1 X0.5164 Y1.7981
G1 Y1.7649
G1 Y1.7338
G1 X0.4126
G1 X0.3067
G1 X0.2949 Y1.7479
G1 X0.282 Y1.7635
G3 X0.2789 Y1.7649 I-0.0031 J-0.0026
G1 X0.2563
G1 X0.2337
G3 X0.2309 Y1.7638 I0.0 J-0.004
G1 X0.2184 Y1.7513
G1 X0.2059 Y1.7388
G3 X0.2048 Y1.736 I0.0028 J-0.0028
G1 Y1.7142
G1 Y1.6924
G3 X0.2059 Y1.6895 I0.004 J0.0
G1 X0.2184 Y1.6771
G1 X0.2309 Y1.6646
G3 X0.2337 Y1.6634 I0.0028 J0.0028
G1 X0.2563
G1 X0.2789
G3 X0.282 Y1.6649 I0.0 J0.004
G1 X0.2949 Y1.6805
G1 X0.3067 Y1.6946
G1 X0.4282
G1 X0.5516
G3 X0.5556 Y1.6986 I0.0 J0.004
G1 Y1.7493
G1 Y1.7981
G1 X0.5697 Y1.8098
G1 X0.5853 Y1.8227
G3 X0.5868 Y1.8258 I-0.0026 J0.0031
G1 Y1.8484
G1 Y1.8711
G3 X0.5856 Y1.8739 I-0.004 J0.0
G1 X0.5731 Y1.8864
G1 X0.5606 Y1.8988
G3 X0.5578 Y1.9 I-0.0028 J-0.0028
G1 X0.536
G1 X0.5142
G3 X0.5137 I0.0 J-0.004
G0 Z0.125
G0 Y1.6299
G0 Z0.0423
G1 F10.0 Z-0.004
G1 F25.0 X0.4106
G1 X0.3988 Y1.644
G1 X0.3859 Y1.6596
G3 X0.3828 Y1.6611 I-0.0031 J-0.0026
G1 X0.3602
G1 X0.3376
G3 X0.3347 Y1.6599 I0.0 J-0.004
G1 X0.3223 Y1.6474
G1 X0.3098 Y1.6349
G3 X0.3086 Y1.6321 I0.0028 J-0.0028
G1 Y1.6103
G1 Y1.5885
G3 X0.3098 Y1.5857 I0.004 J0.0
G1 X0.3223 Y1.5732
G1 X0.3347 Y1.5607
G3 X0.3376 Y1.5596 I0.0028 J0.0028
G1 X0.3602
G1 X0.3828
G3 X0.3859 Y1.561 I0.0 J0.004
G1 X0.3988 Y1.5766
G1 X0.4106 Y1.5907
G1 X0.6412
G1 X0.8736
G3 X0.8776 Y1.5947 I0.0 J0.004
G1 Y1.7173
G1 Y1.8382
G1 X0.8875 Y1.8481
G1 X0.8986 Y1.8592
G3 X0.8997 Y1.8623 I-0.0028 J0.0028
G1 X0.8965 Y1.9079
G1 X0.8932 Y1.9534
G3 X0.8892 Y1.9571 I-0.004 J-0.0003
G1 X0.8633
G1 X0.8373
G3 X0.8333 Y1.953 I0.0 J-0.004
G1 X0.8373 Y1.7894
G1 X0.8411 Y1.6299
G1 X0.627
G1 X0.5137
G0 Z0.125
G0 X0.8919 Y1.1511
G0 Z0.0423
G1 F10.0 Z-0.004
G3 F25.0 X0.8904 Y1.148 I0.0025 J-0.0031
G1 Y1.1025
G1 Y1.0589
G1 X0.8763 Y1.0472
G1 X0.8607 Y1.0343
G3 X0.8593 Y1.0312 I0.0026 J-0.0031
G1 Y1.0086
G1 Y0.9859
G3 X0.8604 Y0.9831 I0.004 J0.0
G1 X0.8729 Y0.9706
G1 X0.8854 Y0.9582
G3 X0.8882 Y0.957 I0.0028 J0.0028
G1 X0.91
G1 X0.9318
G3 X0.9346 Y0.9582 I0.0 J0.004
G1 X0.9471 Y0.9706
G1 X0.9596 Y0.9831
G3 X0.9608 Y0.9859 I-0.0028 J0.0028
G1 Y1.0086
G1 Y1.0312
G3 X0.9593 Y1.0343 I-0.004 J0.0
G1 X0.9437 Y1.0472
G1 X0.9296 Y1.0589
G1 Y1.0869
G1 Y1.1128
G1 X1.0087
G1 X1.0878
G1 Y1.0202
G1 Y0.9253
G1 X1.0779 Y0.9154
G1 X1.0669 Y0.9043
G3 X1.0657 Y0.9012 I0.0028 J-0.0028
G1 X1.069 Y0.8556
G1 X1.0722 Y0.8101
G3 X1.0757 Y0.8064 I0.004 J0.0003
G1 X1.0968 Y0.8034
G3 X1.1275 Y0.8077 I0.0092 J0.0459
G3 X1.1285 Y0.8085 I-0.0018 J0.0036
G1 X1.1355 Y0.8155
G3 X1.1366 Y0.8185 I-0.0028 J0.0028
G1 X1.1302 Y0.9677
G1 X1.1239 Y1.1128
G1 X1.2928
G1 X1.4618
G1 Y1.0142
G1 Y0.9135
G1 X1.4477 Y0.9017
G1 X1.4321 Y0.8888
G3 X1.4306 Y0.8857 I0.0026 J-0.0031
G1 Y0.8631
G1 Y0.8405
G3 X1.4318 Y0.8377 I0.004 J0.0
G1 X1.4443 Y0.8252
G1 X1.4567 Y0.8127
G3 X1.4596 Y0.8116 I0.0028 J0.0028
G1 X1.4814
G1 X1.5032
G3 X1.506 Y0.8127 I0.0 J0.004
G1 X1.5185 Y0.8252
G1 X1.531 Y0.8377
G3 X1.5321 Y0.8405 I-0.0028 J0.0028
G1 Y0.8631
G1 Y0.8857
G3 X1.5307 Y0.8888 I-0.004 J0.0
G1 X1.5151 Y0.9017
G1 X1.501 Y0.9135
G1 Y1.0298
G1 Y1.148
G3 X1.497 Y1.152 I-0.004 J0.0
G1 X1.1957
G1 X0.8944
G3 X0.8919 Y1.1511 I0.0 J-0.004
G0 Z0.125
G0 X1.1816 Y1.0249
G0 Z0.0423
G1 F10.0 Z-0.004
G3 F25.0 X1.1813 Y1.0233 I0.0037 J-0.0016
G1 Y0.9735
G1 Y0.9253
G1 X1.1714 Y0.9154
G1 X1.1604 Y0.9043
G3 X1.1592 Y0.9012 I0.0028 J-0.0028
G1 X1.1625 Y0.8556
G1 X1.1657 Y0.8101
G3 X1.1693 Y0.8064 I0.004 J0.0003
G1 X1.1956 Y0.8033
G1 X1.222 Y0.8002
G3 X1.2253 Y0.8014 I0.0005 J0.004
G1 X1.2327 Y0.8088
G3 X1.2336 Y0.8103 I-0.0028 J0.0028
G3 X1.2413 Y0.8635 I-0.1309 J0.0459
G1 Y0.9078
G3 X1.2394 Y0.9112 I-0.004 J0.0
G1 X1.229 Y0.9176
G1 X1.2205 Y0.9229
G1 Y0.9533
G1 Y0.9763
G1 X1.2261 Y0.9706
G1 X1.2386 Y0.9582
G3 X1.2414 Y0.957 I0.0028 J0.0028
G1 X1.2632
G1 X1.285
G3 X1.2879 Y0.9582 I0.0 J0.004
G1 X1.3003 Y0.9706
G1 X1.31 Y0.9803
G1 X1.3196 Y0.9706
G1 X1.3321 Y0.9582
G3 X1.3349 Y0.957 I0.0028 J0.0028
G1 X1.3567
G1 X1.3785
G3 X1.3814 Y0.9582 I0.0 J0.004
G1 X1.3938 Y0.9706
G1 X1.4063 Y0.9831
G3 X1.4075 Y0.9859 I-0.0028 J0.0028
G1 Y1.0077
G1 Y1.0296
G3 X1.4063 Y1.0324 I-0.004 J0.0
G1 X1.3938 Y1.0449
G1 X1.3814 Y1.0573
G3 X1.3785 Y1.0585 I-0.0028 J-0.0028
G1 X1.3567
G1 X1.3349
G3 X1.3321 Y1.0573 I0.0 J-0.004
G1 X1.3196 Y1.0449
G1 X1.31 Y1.0352
G1 X1.3003 Y1.0449
G1 X1.2879 Y1.0573
G3 X1.285 Y1.0585 I-0.0028 J-0.0028
G1 X1.2624
G1 X1.2398
G3 X1.2367 Y1.057 I0.0 J-0.004
G1 X1.2238 Y1.0415
G1 Y1.0414
G2 X1.1993 Y1.0273 I-0.0305 J0.0246
G1 X1.1853
G3 X1.1816 Y1.0249 I0.0 J-0.004
G0 Z0.125
G0 Y0.617
G0 Z0.0423
G1 F10.0 Z-0.004
G1 F25.0 X1.1697
G3 X1.1657 Y0.6133 I0.0 J-0.004
G1 X1.1625 Y0.5677
G1 X1.1592 Y0.5221
G3 X1.1604 Y0.519 I0.004 J-0.0003
G1 X1.1714 Y0.508
G1 X1.1813 Y0.4981
G1 Y0.4252
G1 Y0.3525
G1 X1.1672 Y0.3407
G1 X1.1516 Y0.3278
G3 X1.1501 Y0.3247 I0.0026 J-0.0031
G1 Y0.3021
G1 Y0.2795
G3 X1.1513 Y0.2767 I0.004 J0.0
G1 X1.1638 Y0.2642
G1 X1.1762 Y0.2517
G3 X1.1791 Y0.2506 I0.0028 J0.0028
G1 X1.2017
G1 X1.2243
G3 X1.2274 Y0.252 I0.0 J0.004
G1 X1.2403 Y0.2676
G1 X1.2521 Y0.2817
G1 X1.3411
G1 X1.4302
G1 X1.442 Y0.2676
G1 X1.4549 Y0.252
G3 X1.458 Y0.2506 I0.0031 J0.0026
G1 X1.4806
G1 X1.5032
G3 X1.506 Y0.2517 I0.0 J0.004
G1 X1.5185 Y0.2642
G1 X1.531 Y0.2767
G3 X1.5321 Y0.2795 I-0.0028 J0.0028
G1 Y0.3013
G1 Y0.3231
G3 X1.531 Y0.3259 I-0.004 J0.0
G1 X1.5185 Y0.3384
G1 X1.506 Y0.3509
G3 X1.5032 Y0.3521 I-0.0028 J-0.0028
G1 X1.4806
G1 X1.458
G3 X1.4549 Y0.3506 I0.0 J-0.004
G1 X1.442 Y0.335
G1 X1.4302 Y0.3209
G1 X1.3415
G1 X1.2526
G1 X1.2366 Y0.3386
G1 X1.2205 Y0.3564
G1 Y0.4273
G1 Y0.4981
G1 X1.2304 Y0.508
G1 X1.2414 Y0.519
G3 X1.2426 Y0.5221 I-0.0028 J0.0028
G1 X1.2393 Y0.5677
G1 X1.236 Y0.6133
G3 X1.2321 Y0.617 I-0.004 J-0.0003
G1 X1.2009
G1 X1.1816
G0 Z0.125
G0 X1.1322 Y0.6133
G0 Z0.0423
G1 F10.0 Z-0.004
G3 F25.0 X1.1282 Y0.617 I-0.004 J-0.0003
G1 X1.1022
G1 X1.0762
G3 X1.0722 Y0.613 I0.0 J-0.004
G1 Y0.5383
G1 Y0.4653
G1 X1.0604 Y0.4533
G1 X1.0474 Y0.4402
G3 X1.0463 Y0.4374 I0.0028 J-0.0028
G1 Y0.4148
G1 Y0.3922
G3 X1.0477 Y0.3891 I0.004 J0.0
G1 X1.0633 Y0.3761
G1 X1.0774 Y0.3644
G1 Y0.2689
G1 Y0.1714
G3 X1.0814 Y0.1674 I0.004 J0.0
G1 X1.3567
G1 X1.632
G3 X1.636 Y0.1714 I0.0 J0.004
G1 Y0.3361
G1 Y0.4989
G1 X1.6537 Y0.5149
G1 X1.6716 Y0.5311
G1 X1.703
G1 X1.7319
G1 Y0.5052
G1 Y0.4771
G1 X1.7178 Y0.4654
G1 X1.7022 Y0.4525
G3 X1.7008 Y0.4494 I0.0026 J-0.0031
G1 Y0.4268
G1 Y0.4042
G3 X1.7019 Y0.4013 I0.004 J0.0
G1 X1.7144 Y0.3889
G1 X1.7269 Y0.3764
G3 X1.7297 Y0.3752 I0.0028 J0.0028
G1 X1.7515
G1 X1.7733
G3 X1.7761 Y0.3764 I0.0 J0.004
G1 X1.7886 Y0.3889
G1 X1.8011 Y0.4013
G3 X1.8023 Y0.4042 I-0.0028 J0.0028
G1 Y0.4268
G1 Y0.4494
G3 X1.8008 Y0.4525 I-0.004 J0.0
G1 X1.7852 Y0.4654
G1 X1.7711 Y0.4771
G1 Y0.5207
G1 Y0.5662
G3 X1.7671 Y0.5702 I-0.004 J0.0
G1 X1.7164
G1 X1.6676
G1 X1.6559 Y0.5844
G1 X1.643 Y0.5999
G3 X1.6399 Y0.6014 I-0.0031 J-0.0026
G1 X1.6173
G1 X1.5946
G3 X1.5918 Y0.6002 I0.0 J-0.004
G1 X1.5793 Y0.5877
G1 X1.5669 Y0.5753
G3 X1.5657 Y0.5725 I0.0028 J-0.0028
G1 Y0.5498
G1 Y0.5272
G3 X1.5671 Y0.5241 I0.004 J0.0
G1 X1.5827 Y0.5112
G1 X1.5969 Y0.4995
G1 Y0.352
G1 Y0.2066
G1 X1.3567
G1 X1.1166
G1 Y0.2844
G1 Y0.3644
G1 X1.1307 Y0.3761
G1 X1.1463 Y0.3891
G3 X1.1478 Y0.3922 I-0.0026 J0.0031
G1 Y0.4156
G1 Y0.439
G3 X1.1463 Y0.4421 I-0.004 J0.0
G1 X1.1307 Y0.455
G1 X1.1166 Y0.4668
G1 Y0.4822
G2 X1.1266 Y0.5081 I0.0411 J-0.0011
G1 X1.1375 Y0.519
G3 X1.1387 Y0.5221 I-0.0028 J0.0028
G1 X1.1354 Y0.5677
G1 X1.1322 Y0.6133
G0 Z0.125
G0 X1.2644
G0 Z0.0423
G1 F10.0 Z-0.004
G1 F25.0 Y0.561
G1 Y0.5039
G3 X1.2684 Y0.4999 I0.004 J0.0
G1 X1.2788
G1 X1.2852
G1 Y0.4844
G1 Y0.4668
G1 X1.2711 Y0.455
G1 X1.2555 Y0.4421
G3 X1.254 Y0.439 I0.0026 J-0.0031
G1 Y0.4164
G1 Y0.3938
G3 X1.2552 Y0.3909 I0.004 J0.0
G1 X1.2677 Y0.3785
G1 X1.2801 Y0.366
G3 X1.283 Y0.3648 I0.0028 J0.0028
G1 X1.3056
G1 X1.3282
G3 X1.3313 Y0.3663 I0.0 J0.004
G1 X1.3446 Y0.3823
G1 X1.3551 Y0.3949
G1 X1.3628 Y0.3872
G3 X1.3632 Y0.3869 I0.0028 J0.0028
G3 X1.3983 Y0.3752 I0.0341 J0.044
G1 X1.4201
G3 X1.4229 Y0.3764 I0.0 J0.004
G1 X1.4354 Y0.3889
G1 X1.4479 Y0.4013
G3 X1.449 Y0.4042 I-0.0028 J0.0028
G1 Y0.426
G1 Y0.4478
G3 X1.4479 Y0.4506 I-0.004 J0.0
G1 X1.4354 Y0.4631
G1 X1.4229 Y0.4755
G3 X1.4201 Y0.4767 I-0.0028 J-0.0028
G1 X1.3975
G1 X1.3749
G3 X1.3718 Y0.4753 I0.0 J-0.004
G1 X1.3587 Y0.4596
G1 X1.3482 Y0.4469
G1 X1.3371 Y0.4562
G1 X1.3244 Y0.4668
G1 Y0.4844
G1 Y0.4999
G1 X1.3308
G1 X1.3411
G3 X1.3451 Y0.5039 I0.0 J0.004
G1 Y0.5195
G1 Y0.5311
G1 X1.3866
G1 X1.4302
G1 X1.442 Y0.5169
G1 X1.4549 Y0.5013
G3 X1.458 Y0.4999 I0.0031 J0.0026
G1 X1.4806
G1 X1.5032
G3 X1.506 Y0.5011 I0.0 J0.004
G1 X1.5185 Y0.5135
G1 X1.531 Y0.526
G3 X1.5321 Y0.5288 I-0.0028 J0.0028
G1 Y0.5506
G1 Y0.5725
G3 X1.531 Y0.5753 I-0.004 J0.0
G1 X1.5185 Y0.5877
G1 X1.506 Y0.6002
G3 X1.5032 Y0.6014 I-0.0028 J-0.0028
G1 X1.4806
G1 X1.458
G3 X1.4549 Y0.5999 I0.0 J-0.004
G1 X1.442 Y0.5844
G1 X1.4302 Y0.5702
G1 X1.3866
G1 X1.3451
G1 Y0.5922
G1 Y0.6182
G3 X1.3411 Y0.6222 I-0.004 J0.0
G1 X1.3048
G1 X1.2684
G3 X1.2644 Y0.6182 I0.0 J-0.004
G1 Y0.6133
G0 Z0.125
G0 X1.5665 Y0.8381
G0 Z0.0423
G1 F10.0 Z-0.004
G3 F25.0 X1.5669 Y0.8377 I0.0032 J0.0024
G1 X1.5793 Y0.8252
G1 X1.5918 Y0.8127
G3 X1.5946 Y0.8116 I0.0028 J0.0028
G1 X1.6164
G1 X1.6383
G3 X1.6411 Y0.8127 I0.0 J0.004
G1 X1.6536 Y0.8252
G1 X1.666 Y0.8377
G3 X1.6672 Y0.8405 I-0.0028 J0.0028
G1 Y0.8631
G1 Y0.8857
G3 X1.6658 Y0.8888 I-0.004 J0.0
G1 X1.6502 Y0.9017
G1 X1.636 Y0.9135
G1 Y1.0142
G1 Y1.1128
G1 X2.8371
G1 X4.0383
G1 Y1.0026
G1 Y0.8923
G1 X3.9708
G1 X3.9012
G1 X3.8895 Y0.9064
G1 X3.8766 Y0.922
G3 X3.8735 Y0.9234 I-0.0031 J-0.0026
G1 X3.8509
G1 X3.8282
G3 X3.8254 Y0.9223 I0.0 J-0.004
G1 X3.8129 Y0.9098
G1 X3.8005 Y0.8973
G3 X3.7993 Y0.8945 I0.0028 J-0.0028
G1 Y0.8727
G1 Y0.8509
G3 X3.8005 Y0.848 I0.004 J0.0
G1 X3.8129 Y0.8356
G1 X3.8254 Y0.8231
G3 X3.8282 Y0.8219 I0.0028 J0.0028
G1 X3.8509
G1 X3.8735
G3 X3.8766 Y0.8234 I0.0 J0.004
G1 X3.8895 Y0.839
G1 X3.9012 Y0.8531
G1 X3.9864
G1 X4.0734
G3 X4.0774 Y0.8571 I0.0 J0.004
G1 Y1.0026
G1 Y1.148
G3 X4.0734 Y1.152 I-0.004 J0.0
G1 X2.8371
G1 X1.6009
G3 X1.5969 Y1.148 I0.0 J-0.004
G1 Y1.0298
G1 Y0.9135
G1 X1.5827 Y0.9017
G1 X1.5671 Y0.8888
G3 X1.5657 Y0.8857 I0.0026 J-0.0031
G1 Y0.8631
G1 Y0.8405
G3 X1.5665 Y0.8381 I0.004 J0.0
G0 Z0.125
G0 X1.7067 Y0.9783
G0 Z0.0423
G1 F10.0 Z-0.004
G1 F25.0 X1.7144 Y0.9706
G1 X1.7269 Y0.9582
G3 X1.7297 Y0.957 I0.0028 J0.0028
G1 X1.7523
G1 X1.7749
G3 X1.778 Y0.9584 I0.0 J0.004
G1 X1.7909 Y0.974
G3 X1.7911 Y0.9742 I-0.0031 J0.0026
G2 X1.8133 Y0.9881 I0.0291 J-0.0218
G2 X1.8419 Y0.9689 I-0.0151 J-0.0534
G3 X1.842 Y0.9687 I0.0031 J0.0025
G1 X1.8608 Y0.9479
G3 X1.8638 Y0.9466 I0.003 J0.0027
G1 X1.8866
G1 X1.9093
G3 X1.9123 Y0.9479 I0.0 J0.004
G1 X1.9295 Y0.9669
G1 X1.9467 Y0.9859
G3 X1.9477 Y0.9886 I-0.003 J0.0027
G1 Y1.0096
G1 Y1.0305
G3 X1.9464 Y1.0335 I-0.004 J0.0
G1 X1.9274 Y1.0507
G1 X1.9084 Y1.0678
G3 X1.9057 Y1.0689 I-0.0027 J-0.003
G1 X1.8848
G1 X1.8638
G3 X1.8608 Y1.0676 I0.0 J-0.004
G1 X1.842 Y1.0468
G2 X1.8133 Y1.0275 I-0.051 J0.045
G2 X1.7909 Y1.0415 I0.0103 J0.0414
G1 X1.778 Y1.057
G3 X1.7749 Y1.0585 I-0.0031 J-0.0026
G1 X1.7523
G1 X1.7297
G3 X1.7269 Y1.0573 I0.0 J-0.004
G1 X1.7144 Y1.0449
G1 X1.7019 Y1.0324
G3 X1.7008 Y1.0296 I0.0028 J-0.0028
G1 Y1.0077
G1 Y0.9859
G3 X1.7019 Y0.9831 I0.004 J0.0
G1 X1.7067 Y0.9783
G0 Z0.125
G0 X2.0126 Y0.8853
G0 Z0.0423
G1 F10.0 Z-0.004
G3 F25.0 X2.0124 Y0.8841 I0.0038 J-0.0012
G1 Y0.8623
G1 Y0.8405
G3 X2.0136 Y0.8377 I0.004 J0.0
G1 X2.0261 Y0.8252
G1 X2.0385 Y0.8127
G3 X2.0414 Y0.8116 I0.0028 J0.0028
G1 X2.064
G1 X2.0866
G3 X2.0897 Y0.813 I0.0 J0.004
G1 X2.1026 Y0.8286
G1 X2.1143 Y0.8427
G1 X2.136
G1 X2.1564
G1 X2.161 Y0.8249
G1 X2.1664 Y0.8041
G3 X2.1703 Y0.8012 I0.0039 J0.001
G1 X2.1976
G1 X2.2248
G3 X2.2286 Y0.8037 I0.0 J0.004
G1 X2.2341 Y0.8182
G3 X2.2343 Y0.8189 I-0.0037 J0.0014
G3 X2.2367 Y0.8745 I-0.2028 J0.0363
G1 X2.2334 Y0.9146
G3 X2.2298 Y0.9182 I-0.004 J-0.0003
G1 X2.2005 Y0.9216
G1 X2.1712 Y0.9249
G3 X2.1668 Y0.922 I-0.0005 J-0.004
G1 X2.1612 Y0.9004
G1 X2.1564 Y0.8819
G1 X2.136
G1 X2.1143
G1 X2.1026 Y0.896
G1 X2.0897 Y0.9116
G3 X2.0866 Y0.9131 I-0.0031 J-0.0026
G1 X2.064
G1 X2.0414
G3 X2.0385 Y0.9119 I0.0 J-0.004
G1 X2.0261 Y0.8994
G1 X2.0136 Y0.8869
G3 X2.0126 Y0.8853 I0.0028 J-0.0028
G0 Z0.125
G0 X2.2604 Y0.9012
G0 Z0.0423
G1 F10.0 Z-0.004
G1 F25.0 X2.2637 Y0.8556
G1 X2.267 Y0.8101
G3 X2.2704 Y0.8064 I0.004 J0.0003
G1 X2.2928 Y0.8032
G1 X2.3152 Y0.8
G3 X2.3191 Y0.8019 I0.0006 J0.004
G1 X2.3265 Y0.8137
G1 X2.3338 Y0.8255
G3 X2.3343 Y0.828 I-0.0034 J0.0021
G1 X2.3273 Y0.9032
G1 X2.3205 Y0.9763
G1 X2.3351 Y0.9885
G1 X2.3514 Y1.002
G3 X2.3529 Y1.0051 I-0.0026 J0.0031
G1 Y1.0277
G1 Y1.0503
G3 X2.3517 Y1.0532 I-0.004 J0.0
G1 X2.3392 Y1.0656
G1 X2.3268 Y1.0781
G3 X2.3239 Y1.0793 I-0.0028 J-0.0028
G1 X2.3021
G1 X2.2803
G3 X2.2775 Y1.0781 I0.0 J-0.004
G1 X2.265 Y1.0656
G1 X2.2525 Y1.0532
G3 X2.2514 Y1.0503 I0.0028 J-0.0028
G1 Y1.0277
G1 Y1.0051
G3 X2.2528 Y1.002 I0.004 J0.0
G1 X2.2684 Y0.9891
G1 X2.2825 Y0.9773
G1 Y0.9514
G1 Y0.9253
G1 X2.2726 Y0.9154
G1 X2.2616 Y0.9043
G3 X2.2604 Y0.9012 I0.0028 J-0.0028
G0 Z0.125
G0 X2.4643
G0 Z0.0423
G1 F10.0 Z-0.004
G1 F25.0 Y0.8623
G1 Y0.8104
G3 X2.4679 Y0.8064 I0.004 J0.0
G1 X2.4965 Y0.8031
G1 X2.5251 Y0.7998
G3 X2.5293 Y0.8023 I0.0005 J0.004
G1 X2.5352 Y0.8175
G3 X2.5353 Y0.8181 I-0.0037 J0.0014
G3 X2.5379 Y0.8746 I-0.1654 J0.0359
G1 X2.5347 Y0.9146
G3 X2.5307 Y0.9182 I-0.004 J-0.0003
G1 X2.4995
G1 X2.4683
G3 X2.4643 Y0.9142 I0.0 J-0.004
G1 Y0.9012
G0 Z0.125
G0 X2.5656 Y1.0025
G0 Z0.0423
G1 F10.0 Z-0.004
G1 F25.0 X2.5767 Y0.9914
G1 X2.5891 Y0.9789
G3 X2.592 Y0.9778 I0.0028 J0.0028
G1 X2.6146
G1 X2.6372
G3 X2.6403 Y0.9792 I0.0 J0.004
G1 X2.6532 Y0.9948
G1 X2.665 Y1.0089
G1 X2.8683
G1 X3.0717
G1 X3.0834 Y0.9948
G1 X3.0963 Y0.9792
G3 X3.0994 Y0.9778 I0.0031 J0.0026
G1 X3.1228
G1 X3.1463
G3 X3.1493 Y0.9792 I0.0 J0.004
G1 X3.1626 Y0.9952
G1 X3.1746 Y1.0097
G1 X3.2464 Y1.0068
G1 X3.3166 Y1.0039
G1 X3.3196 Y0.9718
G1 X3.3229 Y0.9374
G1 X3.3116 Y0.9162
G1 X3.2996 Y0.894
G3 X3.2992 Y0.8917 I0.0035 J-0.0019
G1 X3.3025 Y0.8509
G1 X3.3058 Y0.81
G3 X3.3093 Y0.8064 I0.004 J0.0003
G1 X3.3317 Y0.8032
G1 X3.3541 Y0.8
G3 X3.358 Y0.8019 I0.0006 J0.004
G1 X3.365 Y0.8131
G1 X3.3719 Y0.8243
G3 X3.3725 Y0.8267 I-0.0034 J0.0021
G1 X3.3652 Y0.9226
G1 X3.358 Y1.0184
G3 X3.3571 Y1.0206 I-0.004 J-0.0003
G1 X3.3468 Y1.0336
G1 X3.3364 Y1.0466
G3 X3.3333 Y1.0481 I-0.0031 J-0.0025
G1 X3.2527
G1 X3.174
G1 X3.1623 Y1.0622
G1 X3.1493 Y1.0778
G3 X3.1463 Y1.0793 I-0.0031 J-0.0026
G1 X3.1228
G1 X3.0994
G3 X3.0963 Y1.0778 I0.0 J-0.004
G1 X3.0834 Y1.0622
G1 X3.0717 Y1.0481
G1 X2.8683
G1 X2.665
G1 X2.6532 Y1.0622
G1 X2.6403 Y1.0778
G3 X2.6372 Y1.0793 I-0.0031 J-0.0026
G1 X2.6146
G1 X2.592
G3 X2.5891 Y1.0781 I0.0 J-0.004
G1 X2.5767 Y1.0656
G1 X2.5642 Y1.0532
G3 X2.563 Y1.0503 I0.0028 J-0.0028
G1 Y1.0285
G1 Y1.0067
G3 X2.5642 Y1.0039 I0.004 J0.0
G1 X2.5656 Y1.0025
G0 Z0.125
G0 X2.7191 Y0.9478
G0 Z0.0423
G1 F10.0 Z-0.004
G3 F25.0 X2.7189 Y0.9465 I0.0038 J-0.0013
G1 Y0.9246
G1 Y0.9028
G3 X2.72 Y0.9 I0.004 J0.0
G1 X2.7325 Y0.8875
G1 X2.745 Y0.8751
G3 X2.7478 Y0.8739 I0.0028 J0.0028
G1 X2.7704
G1 X2.793
G3 X2.7961 Y0.8753 I0.0 J0.004
G1 X2.8091 Y0.8909
G1 X2.8208 Y0.9051
G1 X2.9631
G1 X3.1033
G1 Y0.8779
G1 Y0.8467
G3 X3.1073 Y0.8427 I0.004 J0.0
G1 X3.1528
G1 X3.1952
G1 X3.1999 Y0.8249
G1 X3.2053 Y0.8041
G3 X3.2092 Y0.8012 I0.0039 J0.001
G1 X3.2365
G1 X3.2637
G3 X3.2675 Y0.8037 I0.0 J0.004
G1 X3.273 Y0.8182
G3 X3.2732 Y0.8189 I-0.0037 J0.0014
G3 X3.2756 Y0.8745 I-0.2028 J0.0363
G1 X3.2723 Y0.9146
G3 X3.2687 Y0.9182 I-0.004 J-0.0003
G1 X3.2394 Y0.9216
G1 X3.2101 Y0.9249
G3 X3.2057 Y0.922 I-0.0005 J-0.004
G1 X3.2001 Y0.9004
G1 X3.1952 Y0.8819
G1 X3.1684
G1 X3.1424
G1 Y0.9091
G1 Y0.9402
G3 X3.1384 Y0.9442 I-0.004 J0.0
G1 X2.9787
G1 X2.8208
G1 X2.8091 Y0.9584
G1 X2.7961 Y0.9739
G3 X2.793 Y0.9754 I-0.0031 J-0.0026
G1 X2.7704
G1 X2.7478
G3 X2.745 Y0.9742 I0.0 J-0.004
G1 X2.7325 Y0.9617
G1 X2.72 Y0.9493
G3 X2.7191 Y0.9478 I0.0028 J-0.0028
G0 Z0.125
G0 X2.8461 Y0.6219
G0 Z0.0423
G1 F10.0 Z-0.004
G3 F25.0 X2.8435 Y0.6182 I0.0015 J-0.0037
G1 Y0.5662
G1 Y0.5183
G1 X2.7281
G1 X2.6086
G3 X2.6046 Y0.5143 I0.0 J-0.004
G1 Y0.3948
G1 Y0.2793
G1 X2.4112
G1 X2.2178
G1 Y0.3221
G1 Y0.3648
G1 X2.2278
G2 X2.2523 Y0.3507 I-0.0067 J-0.0398
G1 X2.2652 Y0.3351
G3 X2.2683 Y0.3337 I0.0031 J0.0026
G1 X2.2909
G1 X2.3135
G3 X2.3164 Y0.3348 I0.0 J0.004
G1 X2.3288 Y0.3473
G1 X2.3413 Y0.3598
G3 X2.3425 Y0.3626 I-0.0028 J0.0028
G1 Y0.3852
G1 Y0.4078
G3 X2.341 Y0.4109 I-0.004 J0.0
G1 X2.3254 Y0.4239
G1 X2.3113 Y0.4356
G1 Y0.4667
G1 Y0.4981
G1 X2.3212 Y0.508
G1 X2.3322 Y0.519
G3 X2.3334 Y0.5221 I-0.0028 J0.0028
G1 X2.3301 Y0.5677
G1 X2.3269 Y0.6133
G3 X2.3229 Y0.617 I-0.004 J-0.0003
G1 X2.2969
G1 X2.2709
G3 X2.2669 Y0.6128 I0.0 J-0.004
G1 X2.2698 Y0.5257
G1 X2.2726 Y0.4401
G1 X2.2563 Y0.422
G1 X2.24 Y0.404
G1 X2.2122
G1 X2.1826
G3 X2.1786 Y0.4 I0.0 J-0.004
G1 Y0.3221
G1 Y0.2442
G3 X2.1826 Y0.2402 I0.004 J0.0
G1 X2.4112
G1 X2.6398
G3 X2.6438 Y0.2442 I0.0 J0.004
G1 Y0.3636
G1 Y0.4791
G1 X2.7592
G1 X2.8787
G3 X2.8827 Y0.4831 I0.0 J0.004
G1 Y0.5351
G1 Y0.583
G1 X2.993
G1 X3.1033
G1 Y0.4727
G1 Y0.3584
G3 X3.1073 Y0.3544 I0.004 J0.0
G1 X3.1371
G1 X3.1652
G1 X3.1769 Y0.3403
G1 X3.1898 Y0.3247
G3 X3.1929 Y0.3233 I0.0031 J0.0026
G1 X3.2155
G1 X3.2382
G3 X3.241 Y0.3244 I0.0 J0.004
G1 X3.2534 Y0.3369
G1 X3.2659 Y0.3494
G3 X3.2671 Y0.3522 I-0.0028 J0.0028
G1 Y0.374
G1 Y0.3958
G3 X3.2659 Y0.3987 I-0.004 J0.0
G1 X3.2534 Y0.4111
G1 X3.241 Y0.4236
G3 X3.2382 Y0.4248 I-0.0028 J-0.0028
G1 X3.2155
G1 X3.1929
G3 X3.1898 Y0.4233 I0.0 J-0.004
G1 X3.1769 Y0.4077
G2 X3.1524 Y0.3936 I-0.0304 J0.0245
G1 X3.1424
G1 Y0.5039
G1 Y0.6182
G3 X3.1384 Y0.6222 I-0.004 J0.0
G1 X2.993
G1 X2.8475
G3 X2.8461 Y0.6219 I0.0 J-0.004
G0 Z0.125
G0 X2.9587 Y0.5334
G0 Z0.0423
G1 F10.0 Z-0.004
G3 F25.0 X2.9578 Y0.5309 I0.0031 J-0.0025
G1 Y0.5083
G1 Y0.4857
G3 X2.9593 Y0.4826 I0.004 J0.0
G1 X2.9748 Y0.4696
G1 X2.989 Y0.4579
G1 Y0.4351
G1 Y0.4144
G1 X2.8852
G1 X2.7792
G1 X2.7675 Y0.4285
G1 X2.7546 Y0.4441
G3 X2.7515 Y0.4456 I-0.0031 J-0.0026
G1 X2.7289
G1 X2.7062
G3 X2.7034 Y0.4444 I0.0 J-0.004
G1 X2.6909 Y0.4319
G1 X2.6785 Y0.4194
G3 X2.6773 Y0.4166 I0.0028 J-0.0028
G1 Y0.3948
G1 Y0.373
G3 X2.6785 Y0.3702 I0.004 J0.0
G1 X2.6909 Y0.3577
G1 X2.7034 Y0.3452
G3 X2.7062 Y0.3441 I0.0028 J0.0028
G1 X2.7289
G1 X2.7515
G3 X2.7546 Y0.3455 I0.0 J0.004
G1 X2.7675 Y0.3611
G1 X2.7792 Y0.3752
G1 X2.9007
G1 X3.0241
G3 X3.0281 Y0.3792 I0.0 J0.004
G1 Y0.4195
G1 Y0.4579
G1 X3.0423 Y0.4696
G1 X3.0579 Y0.4826
G3 X3.0593 Y0.4857 I-0.0026 J0.0031
G1 Y0.5083
G1 Y0.5309
G3 X3.0581 Y0.5337 I-0.004 J0.0
G1 X3.0457 Y0.5462
G1 X3.0332 Y0.5587
G3 X3.0304 Y0.5598 I-0.0028 J-0.0028
G1 X3.0086
G1 X2.9867
G3 X2.9839 Y0.5587 I0.0 J-0.004
G1 X2.9714 Y0.5462
G1 X2.959 Y0.5337
G3 X2.9587 Y0.5334 I0.0028 J-0.0028
G0 Z0.125
G0 X2.8572 Y0.3412
G0 Z0.0423
G1 F10.0 Z-0.004
G3 F25.0 X2.8554 Y0.3417 I-0.0019 J-0.0035
G1 X2.8328
G1 X2.8101
G3 X2.8073 Y0.3405 I0.0 J-0.004
G1 X2.7948 Y0.328
G1 X2.7824 Y0.3156
G3 X2.7812 Y0.3127 I0.0028 J-0.0028
G1 Y0.2909
G1 Y0.2691
G3 X2.7824 Y0.2663 I0.004 J0.0
G1 X2.7948 Y0.2538
G1 X2.8073 Y0.2413
G3 X2.8101 Y0.2402 I0.0028 J0.0028
G1 X2.8328
G1 X2.8554
G3 X2.8585 Y0.2416 I0.0 J0.004
G1 X2.8714 Y0.2572
G1 X2.8831 Y0.2713
G1 X3.1137
G1 X3.3462
G3 X3.3502 Y0.2753 I0.0 J0.004
G1 Y0.3875
G1 Y0.4981
G1 X3.3601 Y0.508
G1 X3.3711 Y0.519
G3 X3.3723 Y0.5221 I-0.0028 J0.0028
G1 X3.369 Y0.5677
G1 X3.3658 Y0.6133
G3 X3.3618 Y0.617 I-0.004 J-0.0003
G1 X3.3358
G1 X3.3098
G3 X3.3058 Y0.6129 I0.0 J-0.004
G1 X3.3098 Y0.4596
G1 X3.3136 Y0.3105
G1 X3.0995
G1 X2.8831
G1 X2.8714 Y0.3246
G1 X2.8585 Y0.3402
G3 X2.8572 Y0.3412 I-0.0031 J-0.0026
G0 Z0.125
G0 X2.5394 Y0.5021
G0 Z0.0423
G1 F10.0 Z-0.004
G3 F25.0 X2.5399 Y0.5039 I-0.0036 J0.0018
G1 Y0.561
G1 Y0.6182
G3 X2.5359 Y0.6222 I-0.004 J0.0
G1 X2.4995
G1 X2.4631
G3 X2.4591 Y0.6182 I0.0 J-0.004
G1 Y0.561
G1 Y0.5039
G3 X2.4631 Y0.4999 I0.004 J0.0
G1 X2.4995
G1 X2.5359
G3 X2.5394 Y0.5021 I0.0 J0.004
G0 Z0.125
G0 X2.4372 Y0.5211
G0 Z0.0423
G1 F10.0 Z-0.004
G3 F25.0 X2.4373 Y0.5221 I-0.0039 J0.0007
G1 X2.434 Y0.5677
G1 X2.4308 Y0.6133
G3 X2.4268 Y0.617 I-0.004 J-0.0003
G1 X2.3956
G1 X2.3644
G3 X2.3605 Y0.6133 I0.0 J-0.004
G1 X2.3572 Y0.5677
G1 X2.3539 Y0.5221
G3 X2.3551 Y0.519 I0.004 J-0.0003
G1 X2.3661 Y0.508
G1 X2.376 Y0.4981
G1 Y0.4312
G1 Y0.3626
G3 X2.3772 Y0.3598 I0.004 J0.0
G1 X2.3897 Y0.3473
G1 X2.4021 Y0.3348
G3 X2.405 Y0.3337 I0.0028 J0.0028
G1 X2.4268
G1 X2.4486
G3 X2.4514 Y0.3348 I0.0 J0.004
G1 X2.4639 Y0.3473
G1 X2.4764 Y0.3598
G3 X2.4775 Y0.3626 I-0.0028 J0.0028
G1 Y0.3844
G1 Y0.4062
G3 X2.4764 Y0.4091 I-0.004 J0.0
G1 X2.4639 Y0.4215
G3 X2.4638 Y0.4216 I-0.0028 J-0.0028
G3 X2.4299 Y0.4352 I-0.0345 J-0.0371
G1 X2.4152
G1 Y0.4654
G1 Y0.4981
G1 X2.4251 Y0.508
G1 X2.4361 Y0.519
G3 X2.4372 Y0.5211 I-0.0028 J0.0028
G0 Z0.125
G0 X1.9472 Y0.2532
G0 Z0.0423
G1 F10.0 Z-0.004
G3 F25.0 X1.9464 Y0.2543 I-0.0035 J-0.0019
G1 X1.9274 Y0.2715
G3 X1.8889 Y0.2897 I-0.0477 J-0.0511
G3 X1.8883 I-0.0005 J-0.004
G1 X1.875
G1 Y0.3044
G3 Y0.3047 I-0.004 J0.0
G3 X1.8616 Y0.3381 I-0.0597 J-0.0045
G3 X1.8613 Y0.3384 I-0.0031 J-0.0025
G1 X1.8489 Y0.3509
G3 X1.846 Y0.3521 I-0.0028 J-0.0028
G1 X1.8234
G1 X1.8008
G3 X1.7977 Y0.3506 I0.0 J-0.004
G1 X1.7853 Y0.3356
G1 X1.7728 Y0.3206
G3 X1.7719 Y0.3175 I0.0031 J-0.0026
G1 X1.7753 Y0.2935
G1 X1.7787 Y0.2696
G3 X1.7811 Y0.2665 I0.004 J0.0006
G1 X1.8044 Y0.2562
G1 X1.8254 Y0.247
G1 Y0.2277
G1 Y0.2058
G3 X1.8267 Y0.2029 I0.004 J0.0
G1 X1.8457 Y0.1857
G1 X1.8647 Y0.1685
G3 X1.8674 Y0.1674 I0.0027 J0.003
G1 X1.8884
G1 X1.9093
G3 X1.9123 Y0.1688 I0.0 J0.004
G1 X1.9295 Y0.1878
G1 X1.9467 Y0.2068
G3 X1.9477 Y0.2094 I-0.003 J0.0027
G1 Y0.2304
G1 Y0.2513
G3 X1.9472 Y0.2532 I-0.004 J0.0
G0 Z0.125
G0 X3.4149 Y0.2545
G0 Z0.0423
G1 F10.0 Z-0.004
G3 F25.0 X3.4189 Y0.2506 I0.004 J0.0
G1 X3.7718
G1 X4.1247
G3 X4.1287 Y0.2544 I0.0 J0.004
G1 X4.1316 Y0.3713
G1 X4.1345 Y0.4857
G1 X4.174 Y0.5061
G1 X4.2155 Y0.5276
G3 X4.2176 Y0.5306 I-0.0018 J0.0036
G1 X4.221 Y0.5539
G1 X4.2244 Y0.5772
G3 X4.2235 Y0.5803 I-0.004 J0.0006
G1 X4.2111 Y0.5953
G1 X4.1986 Y0.6103
G3 X4.1955 Y0.6118 I-0.0031 J-0.0026
G1 X4.1729
G1 X4.1503
G3 X4.1475 Y0.6106 I0.0 J-0.004
G1 X4.135 Y0.5981
G1 X4.1225 Y0.5857
G3 X4.1214 Y0.5828 I0.0028 J-0.0028
G1 Y0.5554
G1 Y0.5297
G1 X4.1037 Y0.5137
G1 X4.1036 Y0.5136
G2 X4.0712 Y0.4975 I-0.0428 J0.0457
G2 X4.0454 Y0.5116 I0.0042 J0.0384
G1 X4.0453
G1 X4.0324 Y0.5272
G3 X4.0293 Y0.5287 I-0.0031 J-0.0026
G1 X4.0067
G1 X3.9841
G3 X3.9812 Y0.5275 I0.0 J-0.004
G1 X3.9688 Y0.515
G1 X3.9563 Y0.5026
G3 X3.9551 Y0.4997 I0.0028 J-0.0028
G1 Y0.4771
G1 Y0.4545
G3 X3.9566 Y0.4514 I0.004 J0.0
G1 X3.9722 Y0.4385
G1 X3.9863 Y0.4267
G1 Y0.4091
G1 Y0.3936
G1 X3.9763
G2 X3.9518 Y0.4077 I0.0066 J0.0398
G1 X3.9389 Y0.4233
G3 X3.9358 Y0.4248 I-0.0031 J-0.0026
G1 X3.9132
G1 X3.8906
G3 X3.8877 Y0.4236 I0.0 J-0.004
G1 X3.8753 Y0.4111
G1 X3.8628 Y0.3987
G3 X3.8616 Y0.3958 I0.0028 J-0.0028
G1 Y0.374
G1 Y0.3522
G3 X3.8628 Y0.3494 I0.004 J0.0
G1 X3.8753 Y0.3369
G1 X3.8877 Y0.3244
G3 X3.8906 Y0.3233 I0.0028 J0.0028
G1 X3.9132
G1 X3.9358
G3 X3.9389 Y0.3247 I0.0 J0.004
G1 X3.9518 Y0.3403
G1 X3.9636 Y0.3544
G1 X3.9916
G1 X4.0215
G3 X4.0255 Y0.3584 I0.0 J0.004
G1 Y0.3932
G1 Y0.4262
G1 X4.0432 Y0.4422
G2 X4.0771 Y0.4583 I0.0423 J-0.0453
G1 X4.0902
G1 Y0.374
G1 Y0.2897
G1 X3.7721
G1 X3.4541
G1 Y0.3927
G1 Y0.4981
G1 X3.464 Y0.508
G1 X3.475 Y0.519
G3 X3.4762 Y0.5221 I-0.0028 J0.0028
G1 X3.4729 Y0.5677
G1 X3.4697 Y0.6133
G3 X3.4657 Y0.617 I-0.004 J-0.0003
G1 X3.4345
G1 X3.4033
G3 X3.3993 Y0.6133 I0.0 J-0.004
G1 X3.3961 Y0.5677
G1 X3.3928 Y0.5221
G3 X3.394 Y0.519 I0.004 J-0.0003
G1 X3.405 Y0.508
G1 X3.4149 Y0.4981
G1 Y0.3771
G1 Y0.2546
G1 Y0.2545
G0 Z0.125
G0 X3.4941 Y0.3337
G0 Z0.0423
G1 F10.0 Z-0.004
G1 F25.0 X3.5034 Y0.3244
G3 X3.5062 Y0.3233 I0.0028 J0.0028
G1 X3.528
G1 X3.5498
G3 X3.5526 Y0.3244 I0.0 J0.004
G1 X3.5651 Y0.3369
G1 X3.5748 Y0.3465
G1 X3.5844 Y0.3369
G1 X3.5969 Y0.3244
G3 X3.5997 Y0.3233 I0.0028 J0.0028
G1 X3.6223
G1 X3.6449
G3 X3.648 Y0.3247 I0.0 J0.004
G1 X3.6609 Y0.3403
G1 X3.6727 Y0.3544
G1 X3.6994
G1 X3.7262
G1 X3.7379 Y0.3403
G1 X3.7508 Y0.3247
G3 X3.7539 Y0.3233 I0.0031 J0.0026
G1 X3.7765
G1 X3.7992
G3 X3.802 Y0.3244 I0.0 J0.004
G1 X3.8144 Y0.3369
G1 X3.8269 Y0.3494
G3 X3.8281 Y0.3522 I-0.0028 J0.0028
G1 Y0.374
G1 Y0.3958
G3 X3.8269 Y0.3987 I-0.004 J0.0
G1 X3.8144 Y0.4111
G1 X3.802 Y0.4236
G3 X3.7992 Y0.4248 I-0.0028 J-0.0028
G1 X3.7765
G1 X3.7539
G3 X3.7508 Y0.4233 I0.0 J-0.004
G1 X3.7379 Y0.4077
G3 X3.7377 Y0.4075 I0.0031 J-0.0026
G2 X3.7183 Y0.3936 I-0.0302 J0.0216
G1 X3.7138
G1 Y0.4088
G1 Y0.4262
G1 X3.7315 Y0.4422
G1 X3.7493 Y0.4583
G1 X3.8067
G1 X3.8656
G3 X3.8696 Y0.4623 I0.0 J0.004
G1 Y0.487
G1 Y0.5098
G1 X3.8838 Y0.5216
G1 X3.8994 Y0.5345
G3 X3.9008 Y0.5376 I-0.0026 J0.0031
G1 Y0.5602
G1 Y0.5828
G3 X3.8996 Y0.5857 I-0.004 J0.0
G1 X3.8872 Y0.5981
G1 X3.8747 Y0.6106
G3 X3.8719 Y0.6118 I-0.0028 J-0.0028
G1 X3.8501
G1 X3.8282
G3 X3.8254 Y0.6106 I0.0 J-0.004
G1 X3.8129 Y0.5981
G1 X3.8005 Y0.5857
G3 X3.7993 Y0.5828 I0.0028 J-0.0028
G1 Y0.5602
G1 Y0.5376
G3 X3.8008 Y0.5345 I0.004 J0.0
G1 X3.8163 Y0.5216
G3 X3.8166 Y0.5214 I0.0026 J0.0031
G2 X3.8305 Y0.502 I-0.0216 J-0.0302
G1 Y0.4975
G1 X3.789
G1 X3.7454
G1 X3.7337 Y0.5116
G1 X3.7207 Y0.5272
G3 X3.7177 Y0.5287 I-0.0031 J-0.0026
G1 X3.6942
G1 X3.6708
G3 X3.6677 Y0.5272 I0.0 J-0.004
G1 X3.6548 Y0.5116
G1 X3.6431 Y0.4975
G1 X3.5969 Y0.4983
G1 X3.5685 Y0.4988
G1 X3.5762 Y0.5019
G3 X3.5788 Y0.5056 I-0.0015 J0.0037
G1 Y0.5619
G1 Y0.6182
G3 X3.5748 Y0.6222 I-0.004 J0.0
G1 X3.5384
G1 X3.502
G3 X3.498 Y0.6182 I0.0 J-0.004
G1 Y0.561
G1 Y0.5039
G3 X3.502 Y0.4999 I0.004 J0.0
G1 X3.5124
G1 X3.5188
G1 Y0.4831
G1 Y0.4623
G3 X3.5228 Y0.4583 I0.004 J0.0
G1 X3.5835
G1 X3.6425
G1 X3.6585 Y0.4406
G1 X3.6746 Y0.4228
G1 Y0.4054
G1 Y0.3954
G1 X3.6623 Y0.4065
G1 X3.6433 Y0.4237
G3 X3.6406 Y0.4248 I-0.0027 J-0.003
G1 X3.6202
G3 X3.5846 Y0.4113 I0.0002 J-0.0541
G3 X3.5844 Y0.4111 I0.0026 J-0.003
G1 X3.5748 Y0.4015
G1 X3.5651 Y0.4111
G1 X3.5526 Y0.4236
G3 X3.5498 Y0.4248 I-0.0028 J-0.0028
G1 X3.528
G1 X3.5062
G3 X3.5034 Y0.4236 I0.0 J-0.004
G1 X3.4909 Y0.4111
G1 X3.4784 Y0.3987
G3 X3.4773 Y0.3958 I0.0028 J-0.0028
G1 Y0.374
G1 Y0.3522
G3 X3.4784 Y0.3494 I0.004 J0.0
G1 X3.4909 Y0.3369
G1 X3.4941 Y0.3337
G0 Z0.125
G0 Y0.1235
G0 Z0.0423
G1 F10.0 Z-0.004
G1 F25.0 X3.4741
G3 X3.4711 Y0.1222 I0.0 J-0.004
G1 X3.4539 Y0.1032
G1 X3.4367 Y0.0842
G3 X3.4357 Y0.0815 I0.003 J-0.0027
G1 Y0.0606
G1 Y0.0396
G3 X3.437 Y0.0366 I0.004 J0.0
G1 X3.456 Y0.0194
G1 X3.475 Y0.0023
G3 X3.4777 Y0.0012 I0.0027 J0.003
G1 X3.4979
G1 X3.5182
G3 X3.521 Y0.0024 I0.0 J0.004
G1 X3.5437 Y0.0251
G1 X3.5638 Y0.0451
G1 X3.5803 Y0.0302
G1 X3.5997 Y0.0126
G3 X3.6024 Y0.0116 I0.0027 J0.003
G1 X3.6228
G1 X3.6229
G3 X3.6584 Y0.0251 I-0.0001 J0.0541
G3 X3.6586 Y0.0252 I-0.0026 J0.003
G1 X3.6711 Y0.0377
G3 X3.6723 Y0.0405 I-0.0028 J0.0028
G1 Y0.0624
G1 Y0.0842
G3 X3.6711 Y0.087 I-0.004 J0.0
G1 X3.6586 Y0.0995
G3 X3.6583 Y0.0998 I-0.0028 J-0.0028
G3 X3.623 Y0.1131 I-0.0384 J-0.0481
G3 X3.6228 I-0.0002 J-0.004
G1 X3.6024
G3 X3.5997 Y0.1121 I0.0 J-0.004
G1 X3.5806 Y0.0948
G1 X3.5642 Y0.08
G1 X3.5429 Y0.0999
G1 X3.519 Y0.1224
G3 X3.5163 Y0.1235 I-0.0027 J-0.0029
G1 X3.4952
G1 X3.4941
G0 Z0.125
G0 X3.4563 Y0.8002
G0 Z0.0423
G1 F10.0 Z-0.004
G3 F25.0 X3.4589 Y0.8014 I-0.0002 J0.004
G1 X3.4663 Y0.8088
G3 X3.4672 Y0.8103 I-0.0028 J0.0028
G3 X3.4749 Y0.8635 I-0.1309 J0.0459
G1 Y0.9078
G3 X3.473 Y0.9112 I-0.004 J0.0
G1 X3.4626 Y0.9176
G1 X3.4541 Y0.9229
G1 Y0.9499
G1 Y0.9773
G1 X3.4687 Y0.9894
G1 X3.4819 Y1.0004
G1 X3.4913 Y0.991
G1 X3.5034 Y0.9789
G3 X3.5062 Y0.9778 I0.0028 J0.0028
G1 X3.528
G1 X3.5498
G3 X3.5526 Y0.9789 I0.0 J0.004
G1 X3.5651 Y0.9914
G1 X3.5776 Y1.0039
G3 X3.5788 Y1.0067 I-0.0028 J0.0028
G1 Y1.0285
G1 Y1.0503
G3 X3.5776 Y1.0532 I-0.004 J0.0
G1 X3.5651 Y1.0656
G1 X3.5526 Y1.0781
G3 X3.5498 Y1.0793 I-0.0028 J-0.0028
G1 X3.528
G1 X3.5062
G3 X3.5034 Y1.0781 I0.0 J-0.004
G1 X3.4909 Y1.0656
G1 X3.4813 Y1.056
G1 X3.4716 Y1.0656
G1 X3.4591 Y1.0781
G3 X3.4563 Y1.0793 I-0.0028 J-0.0028
G1 X3.4345
G1 X3.4127
G3 X3.4099 Y1.0781 I0.0 J-0.004
G1 X3.3974 Y1.0656
G1 X3.3849 Y1.0532
G3 X3.3838 Y1.0503 I0.0028 J-0.0028
G1 Y1.0277
G1 Y1.0051
G3 X3.3852 Y1.002 I0.004 J0.0
G1 X3.4008 Y0.9891
G1 X3.4149 Y0.9773
G1 Y0.9514
G1 Y0.9253
G1 X3.405 Y0.9154
G1 X3.394 Y0.9043
G3 X3.3928 Y0.9012 I0.0028 J-0.0028
G1 X3.3961 Y0.8556
G1 X3.3993 Y0.8101
G3 X3.4029 Y0.8064 I0.004 J0.0003
G1 X3.4292 Y0.8033
G1 X3.4556 Y0.8002
G3 X3.4563 I0.0005 J0.004
G0 Z0.125
G0 X3.7895 Y1.003
G0 Z0.0423
G1 F10.0 Z-0.004
G3 F25.0 X3.7904 Y1.002 I0.0034 J0.0021
G1 X3.8059 Y0.9891
G1 X3.8214 Y0.9762
G3 X3.8247 Y0.9754 I0.0026 J0.0031
G1 X3.8527 Y0.9807
G1 X3.8783 Y0.9856
G1 X3.8964 Y0.9626
G1 X3.9159 Y0.9377
G3 X3.9191 Y0.9362 I0.0031 J0.0025
G1 X3.9427
G1 X3.9663
G3 X3.9693 Y0.9375 I0.0 J0.004
G1 X3.9865 Y0.9565
G1 X4.0037 Y0.9755
G3 X4.0047 Y0.9782 I-0.003 J0.0027
G1 Y0.9992
G1 Y1.0201
G3 X4.0034 Y1.0231 I-0.004 J0.0
G1 X3.9844 Y1.0403
G1 X3.9654 Y1.0575
G3 X3.9627 Y1.0585 I-0.0027 J-0.003
G1 X3.9422
G1 X3.9421
G3 X3.9066 Y1.045 I0.0014 J-0.0571
G3 X3.9063 Y1.0448 I0.0026 J-0.0031
G1 X3.8972 Y1.0356
G1 X3.8838 Y1.0546
G1 X3.8677 Y1.0776
G3 X3.8645 Y1.0793 I-0.0033 J-0.0023
G1 X3.8412
G1 X3.8179
G3 X3.815 Y1.0781 I0.0 J-0.004
G1 X3.8026 Y1.0656
G1 X3.7901 Y1.0532
G3 X3.7889 Y1.0503 I0.0028 J-0.0028
G1 Y1.0277
G1 Y1.0051
G3 X3.7895 Y1.003 I0.004 J0.0
G0 Z0.125
G0 Y1.4764
G0 Z0.0423
G1 F10.0 Z-0.004
G1 F25.0 X3.8299
G1 X4.3074
G1 X4.325 Y1.457
G1 X4.3438 Y1.4362
G3 X4.3468 Y1.4349 I0.003 J0.0027
G1 X4.3695
G1 X4.3923
G3 X4.3952 Y1.4362 I0.0 J0.004
G1 X4.4124 Y1.4552
G1 X4.4296 Y1.4742
G3 X4.4306 Y1.4769 I-0.003 J0.0027
G1 Y1.4978
G1 Y1.5188
G3 X4.4293 Y1.5217 I-0.004 J0.0
G1 X4.4103 Y1.5389
G1 X4.3913 Y1.5561
G3 X4.3886 Y1.5572 I-0.0027 J-0.003
G1 X4.3677
G1 X4.3468
