( Made using CamBam - http://www.cambam.co.uk )
( mfos_vco_VI 11/26/2014 11:42:05 AM )
( T3 : 3.175 )
( T6 : 6.35 )
( T10 : 0.0 )
G21 G90 G61 G40
G0 Z3.0
( T10 : 0.0 )
T10 M6
( lettering )
G17
M3 S1000
G0 X1.8512 Y114.7
G0 Z0.405
G1 F1000.0 Z-0.005
G1 F2000.0 Y120.4981
G1 X3.0061
G1 X4.3785 Y116.3928
G2 X4.6553 Y115.5345 I-42.297 J-14.118
G2 X4.9638 Y116.464 I39.7879 J-12.6903
G1 X6.3521 Y120.4981
G1 X7.3843
G1 Y114.7
G1 X6.6447
G1 Y119.5529
G1 X4.9599 Y114.7
G1 X4.2677
G1 X2.5908 Y119.6359
G1 Y114.7
G1 X1.8512
G0 Z3.0
G0 X8.6618
G0 Z0.405
G1 F1000.0 Z-0.005
G1 F2000.0 Y120.4981
G1 X12.5734
G1 Y119.8139
G1 X9.4291
G1 Y118.0183
G1 X12.1502
G1 Y117.3341
G1 X9.4291
G1 Y114.7
G1 X8.6618
G0 Z3.0
G0 X13.5242 Y116.4211
G0 Z0.405
G1 F1000.0 Z-0.005
G2 F2000.0 X13.3367 Y117.5239 I3.0847 J1.0919
G2 X13.5038 Y118.7288 I4.0493 J0.0525
G2 X14.1119 Y119.7823 I2.5388 J-0.7633
G2 X15.0247 Y120.4063 I1.8518 J-1.7291
G2 X16.1132 Y120.601 I1.0514 J-2.7389
G2 X17.5607 Y120.2173 I0.0384 J-2.7778
G2 X18.5416 Y119.1455 I-1.2671 J-2.1443
G2 X18.8024 Y118.3882 I-2.8262 J-1.3969
G2 X18.8817 Y117.5912 I-3.7873 J-0.7794
G2 X18.7983 Y116.7808 I-3.8073 J-0.0176
G2 X18.5258 Y116.0131 I-3.0785 J0.6606
G2 X17.5172 Y114.9571 I-2.1902 J1.0821
G2 X16.1092 Y114.6011 I-1.3907 J2.5382
G2 X15.3497 Y114.6958 I-0.0156 J2.9684
G2 X14.6458 Y114.9966 I0.6641 J2.5277
G2 X13.6689 Y116.0764 I1.32 J2.1761
G2 X13.5242 Y116.4211 I2.94 J1.4367
G0 Z3.0
G0 X14.2487 Y116.6347
G0 Z0.405
G1 F1000.0 Z-0.005
G3 F2000.0 X14.2497 Y116.6315 I2.8503 J0.8401
G3 X14.6894 Y115.8588 I1.9013 J0.5705
G3 X16.1053 Y115.2577 I1.3712 J1.2616
G3 X16.8842 Y115.4056 I0.0248 J1.9937
G3 X17.5291 Y115.8667 I-0.7184 J1.6864
G3 X17.9732 Y116.6779 I-1.4827 J1.3389
G3 X18.0907 Y117.5951 I-3.1919 J0.8751
G3 X18.0366 Y118.2251 I-3.4889 J0.0174
G3 X17.8495 Y118.8291 I-2.5112 J-0.4469
G3 X17.1494 Y119.6478 I-1.6631 J-0.7134
G3 X16.1171 Y119.9405 I-1.0074 J-1.5865
G3 X14.7131 Y119.3789 I-0.0284 J-1.9648
G3 X14.4134 Y118.9744 I1.0634 J-1.1012
G3 X14.1854 Y118.2599 I2.182 J-1.0899
G3 X14.1277 Y117.5121 I4.4092 J-0.7162
G3 X14.2487 Y116.6347 I2.9712 J-0.0373
G0 Z3.0
G0 X19.6095 Y116.5628
G0 Z0.405
G1 F1000.0 Z-0.005
G1 F2000.0 X20.3333 Y116.6261
G3 X20.4103 Y116.2544 I2.0337 J0.2277
G3 X20.5706 Y115.9103 I1.2988 J0.3954
G3 X20.8318 Y115.644 I0.9222 J0.6436
G3 X21.1559 Y115.4594 I0.9891 J1.3595
G3 X22.0458 Y115.2893 I0.8562 J2.0669
G3 X22.821 Y115.4198 I0.0378 J2.1429
G3 X23.096 Y115.5617 I-0.48 J1.2677
G3 X23.3193 Y115.7758 I-0.4962 J0.7413
G3 X23.4854 Y116.2741 I-0.6664 J0.499
G3 X23.3272 Y116.7487 I-0.7467 J0.0148
G3 X23.0892 Y116.9557 I-0.6903 J-0.5534
G3 X22.8052 Y117.0928 I-0.8648 J-1.4289
G3 X22.2923 Y117.2452 I-1.8928 J-5.4306
G3 X21.7729 Y117.3736 I-6.562 J-25.4276
G2 X21.2039 Y117.5268 I2.4313 J10.1638
G2 X20.6536 Y117.7375 I0.9225 J3.2337
G2 X20.3081 Y117.9659 I0.8783 J1.7041
G2 X20.0327 Y118.2754 I0.8804 J1.0608
G2 X19.831 Y118.9992 I1.1413 J0.7081
G2 X20.0801 Y119.8179 I1.4644 J0.0016
G2 X20.8079 Y120.3993 I1.2813 J-0.8577
G2 X21.8718 Y120.597 I1.0277 J-2.5683
G2 X22.4499 Y120.5496 I0.015 J-3.3677
G2 X23.0069 Y120.3874 I-0.4192 J-2.4763
G2 X23.7663 Y119.7783 I-0.5934 J-1.5177
G2 X24.051 Y118.8647 I-1.4704 J-0.9595
G1 X23.3154 Y118.8093
G3 X23.1974 Y119.2653 I-1.4795 J-0.1397
G3 X22.912 Y119.6399 I-0.9331 J-0.4148
G3 X22.4314 Y119.8655 I-0.7258 J-0.9212
G3 X21.9034 Y119.9207 I-0.5018 J-2.2482
G3 X21.3747 Y119.8733 I-0.0284 J-2.6529
G3 X20.887 Y119.6636 I0.1972 J-1.1309
G3 X20.6555 Y119.3949 I0.5419 J-0.7008
G3 X20.5706 Y119.0506 I0.6301 J-0.3381
G3 X20.796 Y118.5364 I0.6592 J-0.0175
G3 X21.0642 Y118.3826 I0.6274 J0.7834
G3 X21.5024 Y118.2346 I1.4791 J3.6549
G3 X21.9509 Y118.1211 I2.4805 J8.8644
G2 X22.601 Y117.9631 I-3.4725 J-15.7053
G2 X23.2363 Y117.7533 I-1.1303 J-4.4889
G2 X23.6509 Y117.5081 I-0.904 J-2.0017
G2 X23.9838 Y117.1601 I-0.8823 J-1.1772
G2 X24.225 Y116.3374 I-1.191 J-0.796
G2 X23.9601 Y115.4633 I-1.5874 J0.004
G2 X23.1967 Y114.8266 I-1.466 J0.9815
G2 X22.0814 Y114.6011 I-1.0735 J2.4393
G2 X21.4094 Y114.6499 I-0.0234 J4.3313
G2 X20.7604 Y114.8305 I0.3991 J2.6903
G2 X19.9259 Y115.5187 I0.7191 J1.7221
G2 X19.6095 Y116.5628 I1.6612 J1.0734
G0 Z3.0
G0 X27.3888 Y119.5769
G0 Z0.405
G1 F1000.0 Z-0.005
G1 F2000.0 X27.0319 Y120.4981
G1 X27.8624
G1 X29.3693 Y116.286
G2 X29.6739 Y115.3368 I-12.5994 J-4.5658
G2 X29.9863 Y116.286 I11.6353 J-3.3039
G1 X31.5525 Y120.4981
G1 X32.3356
G1 X30.0654 Y114.7
G1 X29.2783
G1 X27.3888 Y119.5769
G0 Z3.0
G0 X32.8819 Y118.4597
G0 Z0.405
G1 F1000.0 Z-0.005
G2 F2000.0 X33.1464 Y119.2207 I2.9554 J-0.6011
G2 X34.1312 Y120.245 I2.1241 J-1.0565
G2 X35.5392 Y120.597 I1.3792 J-2.5246
G2 X36.3074 Y120.4959 I0.0244 J-2.7834
G2 X37.0026 Y120.1541 I-0.5789 J-2.0551
G2 X37.5197 Y119.6 I-1.2741 J-1.7075
G2 X37.8292 Y118.9082 I-2.1962 J-1.3977
G1 X37.0738 Y118.7302
G3 X36.8519 Y119.236 I-2.3099 J-0.7119
G3 X36.4885 Y119.6518 I-1.2413 J-0.7183
G3 X36.0298 Y119.8757 I-0.8201 J-1.0978
G3 X35.5234 Y119.9405 I-0.4889 J-1.8111
G3 X34.9385 Y119.8685 I-0.0194 J-2.2542
G3 X34.4041 Y119.6201 I0.4196 J-1.6021
G3 X33.7753 Y118.7579 I0.9859 J-1.3795
G3 X33.5933 Y117.6465 I3.2634 J-1.1048
G3 X33.6409 Y116.9901 I4.3073 J-0.0181
G3 X33.8069 Y116.3532 I3.0383 J0.4521
G3 X34.0737 Y115.8852 I1.6878 J0.6519
G3 X34.4793 Y115.5306 I1.1822 J0.943
G3 X35.4641 Y115.2577 I0.9756 J1.6072
G3 X36.0434 Y115.3453 I0.017 J1.8469
G3 X36.5557 Y115.6294 I-0.4837 J1.476
G3 X36.9512 Y116.1302 I-1.032 J1.2217
G3 X37.1608 Y116.7329 I-2.1634 J1.0901
G1 X37.9281 Y116.5391
G2 X37.6132 Y115.7449 I-3.0361 J0.7444
G2 X37.058 Y115.0955 I-1.9698 J1.122
G2 X36.3354 Y114.716 I-1.3685 J1.7281
G2 X35.5274 Y114.6011 I-0.7835 J2.6114
G2 X34.7369 Y114.6819 I-0.0305 J3.611
G2 X34.0007 Y114.9808 I0.4735 J2.2219
G2 X33.4704 Y115.4672 I1.2267 J1.8697
G2 X33.1069 Y116.0882 I2.1308 J1.6642
G2 X32.8023 Y117.6426 I3.6635 J1.5248
G2 X32.8803 Y118.4521 I4.0111 J0.0221
G2 X32.8819 Y118.4597 I2.9569 J-0.5935
G0 Z3.0
G0 X38.656 Y117.9397
G0 Z0.405
G1 F1000.0 Z-0.005
G2 F2000.0 X38.8071 Y118.7288 I4.0333 J-0.3633
G2 X39.4152 Y119.7823 I2.5388 J-0.7633
G2 X40.328 Y120.4063 I1.8518 J-1.7291
G2 X41.4165 Y120.601 I1.0514 J-2.7389
G2 X42.864 Y120.2173 I0.0384 J-2.7778
G2 X43.8449 Y119.1455 I-1.2671 J-2.1443
G2 X44.1057 Y118.3882 I-2.8262 J-1.3969
G2 X44.185 Y117.5912 I-3.7873 J-0.7794
G2 X44.1016 Y116.7808 I-3.8073 J-0.0176
G2 X43.8291 Y116.0131 I-3.0785 J0.6606
G2 X42.8205 Y114.9571 I-2.1902 J1.0821
G2 X41.4125 Y114.6011 I-1.3907 J2.5382
G2 X40.653 Y114.6958 I-0.0156 J2.9684
G2 X39.9491 Y114.9966 I0.6641 J2.5277
G2 X38.9722 Y116.0764 I1.32 J2.1761
G2 X38.64 Y117.5239 I2.94 J1.4367
G2 X38.656 Y117.9397 I4.0493 J0.0525
G0 Z3.0
G0 X39.4436 Y117.8802
G0 Z0.405
G1 F1000.0 Z-0.005
G3 F2000.0 X39.431 Y117.5121 I4.4543 J-0.3365
G3 X39.553 Y116.6315 I2.9712 J-0.0373
G3 X39.9927 Y115.8588 I1.9013 J0.5705
G3 X41.4086 Y115.2577 I1.3712 J1.2616
G3 X42.1875 Y115.4056 I0.0248 J1.9937
G3 X42.8324 Y115.8667 I-0.7184 J1.6864
G3 X43.2765 Y116.6779 I-1.4827 J1.3389
G3 X43.394 Y117.5951 I-3.1919 J0.8751
G3 X43.3399 Y118.2251 I-3.4889 J0.0174
G3 X43.1528 Y118.8291 I-2.5112 J-0.4469
G3 X42.4527 Y119.6478 I-1.6631 J-0.7134
G3 X41.4204 Y119.9405 I-1.0074 J-1.5865
G3 X40.0164 Y119.3789 I-0.0284 J-1.9648
G3 X39.7167 Y118.9744 I1.0634 J-1.1012
G3 X39.4887 Y118.2599 I2.182 J-1.0899
G3 X39.4436 Y117.8802 I4.4092 J-0.7162
G0 Z3.0
G0 X46.9325 Y120.4981
G0 Z0.405
G1 F1000.0 Z-0.005
G1 F2000.0 X47.7631
G1 X49.27 Y116.286
G2 X49.5745 Y115.3368 I-12.5994 J-4.5658
G2 X49.887 Y116.286 I11.6353 J-3.3039
G1 X51.4532 Y120.4981
G1 X52.2363
G1 X49.9661 Y114.7
G1 X49.179
G1 X46.9325 Y120.4981
G0 Z3.0
G0 X53.055
G0 Z0.405
G1 F1000.0 Z-0.005
G1 F2000.0 X53.8223
G1 Y114.7
G1 X53.055
G1 Y120.4981
G0 Z3.0
G0 X47.2692 Y91.8674
G0 Z0.405
G1 F1000.0 Z-0.005
G3 F2000.0 X46.9092 Y91.9008 I-0.3356 J-1.6607
G3 X46.2487 Y91.7782 I-0.0161 J-1.7536
G3 X45.7267 Y91.4301 I0.5457 J-1.3841
G3 X45.3826 Y90.8962 I1.164 J-1.1279
G3 X45.256 Y90.2159 I1.6519 J-0.6592
G3 X45.3826 Y89.5277 I1.8195 J-0.0211
G3 X45.7267 Y88.9938 I1.556 J0.6249
G3 X46.2487 Y88.6497 I1.077 J1.0659
G3 X46.9092 Y88.531 I0.6439 J1.6866
G3 X47.4306 Y88.5989 I0.0148 J1.9235
G3 X47.9059 Y88.8237 I-0.4126 J1.4872
G3 X48.2753 Y89.2082 I-0.8217 J1.159
G3 X48.4952 Y89.6938 I-1.5381 J0.9892
G2 X48.2753 Y89.2082 I-1.7585 J0.5038
G2 X47.9059 Y88.8237 I-1.1909 J0.7745
G2 X46.9092 Y88.531 I-0.9514 J1.3966
G2 X46.2487 Y88.6497 I-0.0166 J1.8055
G2 X45.7267 Y88.9938 I0.5548 J1.4099
G2 X45.3826 Y89.5277 I1.2117 J1.1587
G2 X45.256 Y90.2159 I1.6927 J0.667
G2 X45.3826 Y90.8962 I1.7786 J0.021
G2 X45.7267 Y91.4301 I1.5082 J-0.5941
G2 X46.2487 Y91.7782 I1.0678 J-1.0361
G2 X46.9092 Y91.9008 I0.6444 J-1.6309
G2 X47.7714 Y91.6793 I0.0243 J-1.6942
G2 X48.0845 Y91.4353 I-0.621 J-1.1199
G2 X48.2935 Y91.0979 I-0.763 J-0.7059
G1 X46.3318 Y90.0102
G1 X48.2935 Y91.0979
G3 X47.7714 Y91.6793 I-1.0466 J-0.4147
G3 X47.2692 Y91.8674 I-0.8378 J-1.4726
G0 Z3.0
G0 X41.3207 Y90.5363
G0 Z0.405
G1 F1000.0 Z-0.005
G2 F2000.0 X41.3998 Y91.0267 I1.5898 J-0.0048
G2 X41.649 Y91.4697 I1.2447 J-0.4086
G2 X42.0563 Y91.7861 I0.9936 J-0.8588
G2 X42.6259 Y91.9087 I0.5433 J-1.1398
G2 X43.1875 Y91.7861 I0.0261 J-1.2282
G2 X43.5949 Y91.4697 I-0.5499 J-1.1284
G2 X43.8401 Y91.0267 I-1.0349 J-0.8623
G2 X43.9271 Y90.5363 I-1.3719 J-0.4963
G1 Y88.626
G1 Y90.5363
G3 X43.8401 Y91.0267 I-1.4589 J-0.0059
G3 X43.5949 Y91.4697 I-1.28 J-0.4192
G3 X43.1875 Y91.7861 I-0.9572 J-0.812
G3 X42.6259 Y91.9087 I-0.5356 J-1.1056
G3 X42.0563 Y91.7861 I-0.0262 J-1.2623
G3 X41.649 Y91.4697 I0.5862 J-1.1751
G3 X41.3998 Y91.0267 I0.9956 J-0.8516
G3 X41.3207 Y90.5363 I1.5111 J-0.4953
G1 Y88.626
G1 Y90.5363
G0 Z3.0
G0 X39.4737 Y88.626
G0 Z0.405
G1 F1000.0 Z-0.005
G1 F2000.0 Y91.7979
G1 Y88.626
G0 Z3.0
G0 X36.8752 Y92.5257
G0 Z0.405
G1 F1000.0 Z-0.005
G2 F2000.0 X36.9306 Y92.8895 I1.2723 J-0.0075
G2 X37.1125 Y93.2297 I0.9639 J-0.2968
G2 X37.4408 Y93.4828 I0.7425 J-0.6235
G2 X37.9431 Y93.5817 I0.4703 J-1.0638
G1 X38.1408
G1 X37.9431
G3 X37.4408 Y93.4828 I-0.032 J-1.1628
G3 X37.1125 Y93.2297 I0.4143 J-0.8767
G3 X36.9306 Y92.8895 I0.782 J-0.637
G3 X36.8752 Y92.5257 I1.2166 J-0.3713
G1 Y88.622
G1 Y92.5257
G0 Z3.0
G0 Y91.8177
G0 Z0.405
G1 F1000.0 Z-0.005
G1 F2000.0 X38.0419
G1 X36.8752
G0 Z3.0
G0 X39.4104 Y92.9902
G0 Z0.405
G1 F1000.0 Z-0.005
G3 F2000.0 X39.4183 Y92.9765 I0.0775 J0.0359
G3 X39.4737 Y92.9528 I0.0493 J0.0387
G3 X39.5291 Y92.9765 I0.006 J0.0624
G3 X39.5488 Y93.024 I-0.0552 J0.0509
G3 X39.4737 Y93.0992 I-0.0658 J0.0094
G3 X39.4025 Y93.024 I-0.0073 J-0.0644
G3 X39.4104 Y92.9902 I0.0854 J0.0021
G3 X39.4183 Y92.9765 I0.0775 J0.0359
G3 X39.4737 Y92.9528 I0.0493 J0.0387
G3 X39.5291 Y92.9765 I0.006 J0.0624
G3 X39.5488 Y93.024 I-0.0552 J0.0509
G3 X39.4737 Y93.0992 I-0.0658 J0.0094
G3 X39.4025 Y93.024 I-0.0073 J-0.0644
G3 X39.4104 Y92.9902 I0.0854 J0.0021
G2 X39.4025 Y93.024 I0.0776 J0.0359
G2 X39.4737 Y93.0992 I0.0639 J0.0108
G2 X39.5488 Y93.024 I0.0094 J-0.0658
G2 X39.5291 Y92.9765 I-0.075 J0.0034
G2 X39.4737 Y92.9528 I-0.0493 J0.0387
G2 X39.4183 Y92.9765 I-0.006 J0.0624
G2 X39.4104 Y92.9902 I0.0696 J0.0496
G2 X39.4025 Y93.024 I0.0776 J0.0359
G2 X39.4737 Y93.0992 I0.0639 J0.0108
G2 X39.5488 Y93.024 I0.0094 J-0.0658
G2 X39.5291 Y92.9765 I-0.075 J0.0034
G2 X39.4737 Y92.9528 I-0.0493 J0.0387
G2 X39.4183 Y92.9765 I-0.006 J0.0624
G2 X39.4104 Y92.9902 I0.0696 J0.0496
G0 Z3.0
G0 X25.4918 Y89.7538
G0 Z0.405
G1 F1000.0 Z-0.005
G2 F2000.0 X25.2719 Y89.2682 I-1.7585 J0.5038
G2 X24.9025 Y88.8837 I-1.1909 J0.7745
G2 X23.9058 Y88.591 I-0.9514 J1.3966
G2 X23.2453 Y88.7097 I-0.0166 J1.8055
G2 X22.7233 Y89.0538 I0.5548 J1.4099
G2 X22.3792 Y89.5877 I1.2117 J1.1587
G2 X22.2526 Y90.2759 I1.6927 J0.667
G2 X22.3792 Y90.9562 I1.7786 J0.021
G2 X22.7233 Y91.4901 I1.5082 J-0.5941
G2 X23.2453 Y91.8382 I1.0678 J-1.0361
G2 X23.9058 Y91.9608 I0.6444 J-1.6309
G2 X24.768 Y91.7393 I0.0243 J-1.6942
G2 X25.0811 Y91.4953 I-0.621 J-1.1199
G2 X25.2901 Y91.1579 I-0.763 J-0.7059
G1 X23.3284 Y90.0702
G1 X25.2901 Y91.1579
G3 X24.768 Y91.7393 I-1.0466 J-0.4147
G3 X23.9058 Y91.9608 I-0.8378 J-1.4726
G3 X23.2453 Y91.8382 I-0.0161 J-1.7536
G3 X22.7233 Y91.4901 I0.5457 J-1.3841
G3 X22.3792 Y90.9562 I1.164 J-1.1279
G3 X22.2526 Y90.2759 I1.6519 J-0.6592
G3 X22.3792 Y89.5877 I1.8195 J-0.0211
G3 X22.7233 Y89.0538 I1.556 J0.6249
G3 X23.2453 Y88.7097 I1.077 J1.0659
G3 X23.9058 Y88.591 I0.6439 J1.6866
G3 X24.4272 Y88.6589 I0.0148 J1.9235
G3 X24.9025 Y88.8837 I-0.4126 J1.4872
G3 X25.2719 Y89.2682 I-0.8217 J1.159
G3 X25.4918 Y89.7538 I-1.5381 J0.9892
G0 Z3.0
G0 X21.105 Y89.4626
G0 Z0.405
G1 F1000.0 Z-0.005
G2 F2000.0 X21.1056 Y89.3979 I-0.5745 J-0.0381
G2 X21.0634 Y89.0979 I-0.9659 J-0.0171
G2 X20.8921 Y88.8481 I-0.4801 J0.1458
G2 X20.5945 Y88.7175 I-0.4418 J0.602
G2 X20.2711 Y88.686 I-0.3074 J1.4795
G1 X18.6337
G1 X20.2711
G3 X20.5945 Y88.7175 I0.0161 J1.5103
G3 X20.8921 Y88.8481 I-0.1443 J0.7327
G3 X21.0634 Y89.0979 I-0.3087 J0.3955
G3 X21.1056 Y89.3979 I-0.9241 J0.2829
G3 X21.0628 Y89.644 I-0.6719 J0.0098
G3 X20.9197 Y89.8487 I-0.4949 J-0.1933
G3 X20.4649 Y90.1217 I-0.9636 J-1.0905
G3 X19.8756 Y90.3075 I-1.4563 J-3.5896
G2 X19.2823 Y90.4895 I1.2455 J5.1196
G2 X18.8315 Y90.7545 I0.5544 J1.4593
G2 X18.6495 Y91.1777 I0.3511 J0.4016
G2 X18.7207 Y91.5297 I0.7525 J0.031
G2 X18.9185 Y91.7353 I0.4678 J-0.2519
G2 X19.2072 Y91.8342 I0.3929 J-0.6762
G2 X19.5394 Y91.8619 I0.3293 J-1.9439
G1 X20.9276
G1 X19.5394
G3 X19.2072 Y91.8342 I-0.0031 J-1.9704
G3 X18.9185 Y91.7353 I0.1041 J-0.775
G3 X18.7207 Y91.5297 I0.2701 J-0.4576
G3 X18.6495 Y91.1777 I0.6814 J-0.321
G3 X18.8315 Y90.7545 I0.533 J-0.0216
G3 X19.2823 Y90.4895 I1.0053 J1.1945
G3 X19.8756 Y90.3075 I1.8392 J4.939
G2 X20.4649 Y90.1217 I-0.8668 J-3.7751
G2 X20.9197 Y89.8487 I-0.5088 J-1.3635
G2 X21.105 Y89.4626 I-0.3893 J-0.4243
G0 Z3.0
G0 X17.7122 Y91.9489
G0 Z0.405
G1 F1000.0 Z-0.005
G3 F2000.0 X17.2415 Y91.8065 I0.2081 J-1.5371
G3 X16.8618 Y91.498 I0.4592 J-0.9531
G3 X16.6047 Y90.972 I1.2546 J-0.939
G3 X16.5138 Y90.2047 I2.7736 J-0.7179
G1 Y88.682
G1 Y90.2047
G2 X16.6047 Y90.972 I2.865 J0.0494
G2 X16.8618 Y91.498 I1.5119 J-0.413
G2 X17.2415 Y91.8065 I0.8389 J-0.6446
G2 X17.7122 Y91.9489 I0.6788 J-1.3948
G0 Z3.0
G0 X16.5138 Y91.8579
G0 Z0.405
G1 F1000.0 Z-0.005
G1 F2000.0 Y88.686
G1 Y91.8579
G0 Z3.0
G0 X14.113 Y88.7413
G0 Z0.405
G1 F1000.0 Z-0.005
G2 F2000.0 X13.5079 Y88.5871 I-0.5718 J0.979
G2 X12.8435 Y88.7136 I-0.0174 J1.7161
G2 X12.3214 Y89.0656 I0.6083 J1.4653
G2 X11.9813 Y89.6035 I1.2144 J1.1444
G2 X11.8626 Y90.2917 I1.8088 J0.6662
G2 X11.9813 Y90.968 I1.8527 J0.0235
G2 X12.3214 Y91.498 I1.4723 J-0.5708
G2 X12.8435 Y91.85 I1.1304 J-1.1134
G2 X13.5079 Y91.9766 I0.647 J-1.5895
G2 X14.1566 Y91.8658 I0.0224 J-1.8237
G2 X14.6668 Y91.5613 I-0.5325 J-1.4718
G2 X14.999 Y91.0906 I-0.8482 J-0.9513
G2 X15.1176 Y90.4855 I-1.3856 J-0.5859
G1 Y88.686
G1 Y90.4855
G3 X14.999 Y91.0906 I-1.5042 J0.0193
G3 X14.6668 Y91.5613 I-1.1805 J-0.4807
G3 X14.1566 Y91.8658 I-1.0427 J-1.1672
G3 X13.5079 Y91.9766 I-0.6262 J-1.713
G3 X12.8435 Y91.85 I-0.0174 J-1.7161
G3 X12.3214 Y91.498 I0.6083 J-1.4653
G3 X11.9813 Y90.968 I1.1322 J-1.1008
G3 X11.8626 Y90.2917 I1.7341 J-0.6528
G3 X11.9813 Y89.6035 I1.9272 J-0.022
G3 X12.3214 Y89.0656 I1.5545 J0.6065
G3 X12.8435 Y88.7136 I1.1304 J1.1134
G3 X13.5079 Y88.5871 I0.647 J1.5895
G3 X14.113 Y88.7413 I0.0333 J1.1333
G0 Z3.0
G0 X10.6161 Y89.7402
G0 Z0.405
G1 F1000.0 Z-0.005
G3 F2000.0 X10.6879 Y90.2759 I-1.7996 J0.5141
G3 X10.5653 Y90.9562 I-1.8293 J0.0215
G3 X10.2252 Y91.4901 I-1.4679 J-0.5598
G3 X9.7031 Y91.8382 I-1.0678 J-1.0361
G3 X9.0426 Y91.9608 I-0.6444 J-1.6309
G3 X8.3821 Y91.8382 I-0.0161 J-1.7536
G3 X7.8601 Y91.4901 I0.5457 J-1.3841
G3 X7.5199 Y90.9562 I1.1277 J-1.0937
G3 X7.3973 Y90.2759 I1.7067 J-0.6588
G3 X7.5199 Y89.5877 I1.8716 J-0.0216
G3 X7.8601 Y89.0538 I1.5128 J0.5884
G3 X8.3821 Y88.7097 I1.077 J1.0659
G3 X9.0426 Y88.591 I0.6439 J1.6866
G3 X9.7031 Y88.7097 I0.0166 J1.8055
G3 X10.2252 Y89.0538 I-0.5548 J1.4099
G3 X10.5653 Y89.5877 I-1.1726 J1.1223
G3 X10.6161 Y89.7402 I-1.7488 J0.6666
G3 X10.6879 Y90.2759 I-1.7996 J0.5141
G3 X10.5653 Y90.9562 I-1.8293 J0.0215
G3 X10.2252 Y91.4901 I-1.4679 J-0.5598
G3 X9.7031 Y91.8382 I-1.0678 J-1.0361
G3 X9.0426 Y91.9608 I-0.6444 J-1.6309
G3 X8.3821 Y91.8382 I-0.0161 J-1.7536
G3 X7.8601 Y91.4901 I0.5457 J-1.3841
G3 X7.5199 Y90.9562 I1.1277 J-1.0937
G3 X7.3973 Y90.2759 I1.7067 J-0.6588
G3 X7.5199 Y89.5877 I1.8716 J-0.0216
G3 X7.8601 Y89.0538 I1.5128 J0.5884
G3 X8.3821 Y88.7097 I1.077 J1.0659
G3 X9.0426 Y88.591 I0.6439 J1.6866
G3 X9.7031 Y88.7097 I0.0166 J1.8055
G3 X10.2252 Y89.0538 I-0.5548 J1.4099
G3 X10.5653 Y89.5877 I-1.1726 J1.1223
G3 X10.6161 Y89.7402 I-1.7488 J0.6666
G2 X10.5653 Y89.5877 I-1.7997 J0.5141
G2 X10.2252 Y89.0538 I-1.5128 J0.5884
G2 X9.7031 Y88.7097 I-1.077 J1.0659
G2 X9.0426 Y88.591 I-0.6439 J1.6866
G2 X8.3821 Y88.7097 I-0.0166 J1.8055
G2 X7.8601 Y89.0538 I0.5548 J1.4099
G2 X7.5199 Y89.5877 I1.1726 J1.1223
G2 X7.3973 Y90.2759 I1.7488 J0.6666
G2 X7.5199 Y90.9562 I1.8293 J0.0215
G2 X7.8601 Y91.4901 I1.4679 J-0.5598
G2 X8.3821 Y91.8382 I1.0678 J-1.0361
G2 X9.0426 Y91.9608 I0.6444 J-1.6309
G2 X9.7031 Y91.8382 I0.0161 J-1.7536
G2 X10.2252 Y91.4901 I-0.5457 J-1.3841
G2 X10.5653 Y90.9562 I-1.1277 J-1.0937
G2 X10.6879 Y90.2759 I-1.7067 J-0.6588
G2 X10.6161 Y89.7402 I-1.8716 J-0.0216
G2 X10.5653 Y89.5877 I-1.7997 J0.5141
G2 X10.2252 Y89.0538 I-1.5128 J0.5884
G2 X9.7031 Y88.7097 I-1.077 J1.0659
G2 X9.0426 Y88.591 I-0.6439 J1.6866
G2 X8.3821 Y88.7097 I-0.0166 J1.8055
G2 X7.8601 Y89.0538 I0.5548 J1.4099
G2 X7.5199 Y89.5877 I1.1726 J1.1223
G2 X7.3973 Y90.2759 I1.7488 J0.6666
G2 X7.5199 Y90.9562 I1.8293 J0.0215
G2 X7.8601 Y91.4901 I1.4679 J-0.5598
G2 X8.3821 Y91.8382 I1.0678 J-1.0361
G2 X9.0426 Y91.9608 I0.6444 J-1.6309
G2 X9.7031 Y91.8382 I0.0161 J-1.7536
G2 X10.2252 Y91.4901 I-0.5457 J-1.3841
G2 X10.5653 Y90.9562 I-1.1277 J-1.0937
G2 X10.6879 Y90.2759 I-1.7067 J-0.6588
G2 X10.6161 Y89.7402 I-1.8716 J-0.0216
G0 Z3.0
G0 X6.2622 Y88.686
G0 Z0.405
G1 F1000.0 Z-0.005
G1 F2000.0 X6.0051
G2 X5.3644 Y88.7967 I-0.012 J1.8395
G2 X4.8384 Y89.1171 I0.5743 J1.5351
G2 X4.4864 Y89.6194 I1.0272 J1.0943
G2 X4.3598 Y90.2719 I1.5214 J0.6336
G2 X4.4903 Y90.9245 I1.6044 J0.0185
G2 X4.8423 Y91.4308 I1.4886 J-0.6595
G2 X5.3367 Y91.7591 I1.1747 J-1.2327
G2 X5.9063 Y91.8777 I0.5708 J-1.3138
G1 X6.2622
G1 X5.9063
G3 X5.3367 Y91.7591 I0.0013 J-1.4324
G3 X4.8423 Y91.4308 I0.6801 J-1.5607
G3 X4.4903 Y90.9245 I1.1366 J-1.1658
G3 X4.3598 Y90.2719 I1.4739 J-0.6341
G3 X4.4864 Y89.6194 I1.648 J-0.019
G3 X4.8384 Y89.1171 I1.3793 J0.5921
G3 X5.3644 Y88.7967 I1.1004 J1.2148
G3 X6.0051 Y88.686 I0.6287 J1.7287
G1 X6.2622
G0 Z3.0
G0 X6.6058 Y81.5117
G0 Z0.405
G1 F1000.0 Z-0.005
G1 F2000.0 X5.6605
G1 X6.6058
G1 Y76.552
G1 Y81.5117
G0 Z3.0
G0 X8.6625
G0 Z0.405
G1 F1000.0 Z-0.005
G1 F2000.0 X10.1931 Y76.9752
G3 X10.2776 Y76.7598 I3.6772 J1.3186
G3 X10.3869 Y76.556 I0.9936 J0.4014
G3 X10.4505 Y76.4924 I0.3477 J0.2845
G3 X10.5332 Y76.4571 I0.0941 J0.1057
G3 X10.6129 Y76.4942 I-0.0169 J0.1405
G3 X10.6756 Y76.556 I-0.3456 J0.4132
G3 X10.7911 Y76.7577 I-0.6521 J0.5072
G3 X10.8733 Y76.9752 I-2.6149 J1.1133
G1 X12.3486 Y81.5117
G1 X10.8733 Y76.9752
G2 X10.7911 Y76.7577 I-2.6939 J0.8946
G2 X10.6756 Y76.556 I-0.7677 J0.3055
G2 X10.6129 Y76.4942 I-0.4092 J0.3525
G2 X10.5332 Y76.4571 I-0.0967 J0.1034
G2 X10.4505 Y76.4924 I0.0113 J0.1411
G2 X10.3869 Y76.556 I0.2851 J0.349
G2 X10.2776 Y76.7598 I0.8852 J0.6058
G2 X10.1931 Y76.9752 I3.5729 J1.5262
G1 X8.6625 Y81.5117
G0 Z3.0
G0 X14.6346 Y81.6105
G0 Z0.405
G1 F1000.0 Z-0.005
G1 F2000.0 X13.1277 Y76.4571
G1 X14.6346 Y81.6105
G0 Z3.0
G0 X16.2396 Y79.5069
G0 Z0.405
G1 F1000.0 Z-0.005
G3 F2000.0 X16.0743 Y79.3601 I0.9025 J-1.1829
G3 X15.7341 Y78.8262 I1.1277 J-1.0937
G3 X15.6115 Y78.1459 I1.7067 J-0.6588
G3 X15.7341 Y77.4577 I1.8716 J-0.0216
G3 X16.0743 Y76.9238 I1.5128 J0.5884
G3 X16.5963 Y76.5797 I1.077 J1.0659
G3 X17.2568 Y76.461 I0.6439 J1.6866
G3 X17.9173 Y76.5797 I0.0166 J1.8055
G3 X18.4394 Y76.9238 I-0.5548 J1.4099
G3 X18.7795 Y77.4577 I-1.1726 J1.1223
G3 X18.9021 Y78.1459 I-1.7488 J0.6666
G3 X18.7795 Y78.8262 I-1.8293 J0.0215
G3 X18.4394 Y79.3601 I-1.4679 J-0.5598
G3 X17.9173 Y79.7082 I-1.0678 J-1.0361
G3 X17.2568 Y79.8308 I-0.6444 J-1.6309
G3 X16.5963 Y79.7082 I-0.0161 J-1.7536
G3 X16.2396 Y79.5069 I0.5457 J-1.3841
G3 X16.0743 Y79.3601 I0.9025 J-1.1829
G3 X15.7341 Y78.8262 I1.1277 J-1.0937
G3 X15.6115 Y78.1459 I1.7067 J-0.6588
G3 X15.7341 Y77.4577 I1.8716 J-0.0216
G3 X16.0743 Y76.9238 I1.5128 J0.5884
G3 X16.5963 Y76.5797 I1.077 J1.0659
G3 X17.2568 Y76.461 I0.6439 J1.6866
G3 X17.9173 Y76.5797 I0.0166 J1.8055
G3 X18.4394 Y76.9238 I-0.5548 J1.4099
G3 X18.7795 Y77.4577 I-1.1726 J1.1223
G3 X18.9021 Y78.1459 I-1.7488 J0.6666
G3 X18.7795 Y78.8262 I-1.8293 J0.0215
G3 X18.4394 Y79.3601 I-1.4679 J-0.5598
G3 X17.9173 Y79.7082 I-1.0678 J-1.0361
G3 X17.2568 Y79.8308 I-0.6444 J-1.6309
G3 X16.5963 Y79.7082 I-0.0161 J-1.7536
G3 X16.2396 Y79.5069 I0.5457 J-1.3841
G2 X16.5963 Y79.7082 I0.9025 J-1.1829
G2 X17.2568 Y79.8308 I0.6444 J-1.6309
G2 X17.9173 Y79.7082 I0.0161 J-1.7536
G2 X18.4394 Y79.3601 I-0.5457 J-1.3841
G2 X18.7795 Y78.8262 I-1.1277 J-1.0937
G2 X18.9021 Y78.1459 I-1.7067 J-0.6588
G2 X18.7795 Y77.4577 I-1.8716 J-0.0216
G2 X18.4394 Y76.9238 I-1.5128 J0.5884
G2 X17.9173 Y76.5797 I-1.077 J1.0659
G2 X17.2568 Y76.461 I-0.6439 J1.6866
G2 X16.5963 Y76.5797 I-0.0166 J1.8055
G2 X16.0743 Y76.9238 I0.5548 J1.4099
G2 X15.7341 Y77.4577 I1.1726 J1.1223
G2 X15.6115 Y78.1459 I1.7488 J0.6666
G2 X15.7341 Y78.8262 I1.8293 J0.0215
G2 X16.0743 Y79.3601 I1.4679 J-0.5598
G2 X16.2396 Y79.5069 I1.0678 J-1.0361
G2 X16.5963 Y79.7082 I0.9025 J-1.1829
G2 X17.2568 Y79.8308 I0.6444 J-1.6309
G2 X17.9173 Y79.7082 I0.0161 J-1.7536
G2 X18.4394 Y79.3601 I-0.5457 J-1.3841
G2 X18.7795 Y78.8262 I-1.1277 J-1.0937
G2 X18.9021 Y78.1459 I-1.7067 J-0.6588
G2 X18.7795 Y77.4577 I-1.8716 J-0.0216
G2 X18.4394 Y76.9238 I-1.5128 J0.5884
G2 X17.9173 Y76.5797 I-1.077 J1.0659
G2 X17.2568 Y76.461 I-0.6439 J1.6866
G2 X16.5963 Y76.5797 I-0.0166 J1.8055
G2 X16.0743 Y76.9238 I0.5548 J1.4099
G2 X15.7341 Y77.4577 I1.1726 J1.1223
G2 X15.6115 Y78.1459 I1.7488 J0.6666
G2 X15.7341 Y78.8262 I1.8293 J0.0215
G2 X16.0743 Y79.3601 I1.4679 J-0.5598
G2 X16.2396 Y79.5069 I1.0678 J-1.0361
G0 Z3.0
G0 X21.8764 Y76.556
G0 Z0.405
G1 F1000.0 Z-0.005
G2 F2000.0 X21.2356 Y76.6667 I-0.012 J1.8395
G2 X20.7096 Y76.9871 I0.5743 J1.5351
G2 X20.3576 Y77.4894 I1.0272 J1.0943
G2 X20.2311 Y78.1419 I1.5214 J0.6336
G2 X20.3616 Y78.7945 I1.6044 J0.0185
G2 X20.7136 Y79.3008 I1.4886 J-0.6595
G2 X21.208 Y79.6291 I1.1747 J-1.2327
G2 X21.7775 Y79.7477 I0.5708 J-1.3138
G1 X22.1334
G1 X21.7775
G3 X21.208 Y79.6291 I0.0013 J-1.4324
G3 X20.7136 Y79.3008 I0.6801 J-1.5607
G3 X20.3616 Y78.7945 I1.1366 J-1.1658
G3 X20.2311 Y78.1419 I1.4739 J-0.6341
G3 X20.3576 Y77.4894 I1.648 J-0.019
G3 X20.7096 Y76.9871 I1.3793 J0.5921
G3 X21.2356 Y76.6667 I1.1004 J1.2148
G3 X21.8764 Y76.556 I0.6287 J1.7287
G1 X22.1334
G1 X21.8764
G0 Z3.0
G0 X24.3364
G0 Z0.405
G1 F1000.0 Z-0.005
G2 F2000.0 X24.0106 Y76.5977 I-0.0135 J1.1864
G2 X23.7194 Y76.7498 I0.2056 J0.7487
G2 X23.5364 Y77.0581 I0.4126 J0.4535
G2 X23.494 Y77.4142 I1.3022 J0.3356
G1 Y80.7048
G1 Y77.4142
G3 X23.5364 Y77.0581 I1.3443 J-0.0206
G3 X23.7194 Y76.7498 I0.5957 J0.1451
G3 X24.0106 Y76.5977 I0.4968 J0.5966
G3 X24.3364 Y76.556 I0.3124 J1.1447
G1 X24.8901
G1 X24.3364
G0 Z3.0
G0 X24.8901 Y79.7477
G0 Z0.405
G1 F1000.0 Z-0.005
G1 F2000.0 X23.494
G1 X24.8901
G0 Z3.0
G0 X23.2958 Y67.8748
G0 Z0.405
G1 F1000.0 Z-0.005
G2 F2000.0 X23.3678 Y68.47 I2.2541 J0.0293
G2 X23.6517 Y68.998 I1.2034 J-0.3068
G2 X24.1514 Y69.303 I0.8146 J-0.7728
G2 X24.7315 Y69.3817 I0.5507 J-1.8829
G1 X25.2575
G1 X24.7315
G3 X24.1514 Y69.303 I-0.0293 J-1.9617
G3 X23.6517 Y68.998 I0.3149 J-1.0777
G3 X23.3678 Y68.47 I0.9194 J-0.8348
G3 X23.2958 Y67.8748 I2.1822 J-0.5659
G1 Y64.422
G1 Y67.8748
G0 Z3.0
G0 Y66.886
G0 Z0.405
G1 F1000.0 Z-0.005
G1 F2000.0 X25.2575
G1 X23.2958
G0 Z3.0
G0 X31.1466 Y68.9506
G0 Z0.405
G1 F1000.0 Z-0.005
G3 F2000.0 X31.1189 Y69.1167 I-1.5531 J-0.1735
G3 X31.0635 Y69.2907 I-0.826 J-0.167
G3 X30.9805 Y69.4252 I-0.3565 J-0.1273
G3 X30.8539 Y69.4805 I-0.1238 J-0.1105
G3 X30.7115 Y69.4173 I0.0024 J-0.1972
G3 X30.6048 Y69.2709 I0.4568 J-0.4455
G3 X30.5296 Y69.089 I1.0138 J-0.5252
G3 X30.4742 Y68.9189 I10.3152 J-3.4525
G1 X29.2917 Y65.039
G2 X29.1374 Y64.6198 I-4.3222 J1.3523
G2 X29.0837 Y64.5082 I-0.8076 J0.3201
G2 X29.0466 Y64.4567 I-0.2653 J0.1525
G2 X28.9911 Y64.426 I-0.0644 J0.0506
G2 X28.9365 Y64.4578 I0.0109 J0.0813
G2 X28.8447 Y64.6198 I0.5103 J0.3962
G2 X28.6984 Y65.039 I4.2339 J1.713
G1 X27.5158 Y68.9189
G3 X27.4605 Y69.0969 I-4.2203 J-1.2154
G3 X27.3774 Y69.2788 I-0.78 J-0.2462
G3 X27.2706 Y69.4212 I-0.4968 J-0.2613
G3 X27.1282 Y69.4805 I-0.1397 J-0.1348
G3 X27.0017 Y69.4252 I0.0009 J-0.1745
G3 X26.9186 Y69.2907 I0.2735 J-0.2618
G3 X26.8632 Y69.1167 I1.2601 J-0.4968
G3 X26.8356 Y68.9506 I1.5261 J-0.3397
G1 X26.2779 Y64.426
G1 X26.8356 Y68.9506
G2 X26.8632 Y69.1167 I1.5531 J-0.1735
G2 X26.9186 Y69.2907 I1.3166 J-0.3231
G2 X27.0017 Y69.4252 I0.3565 J-0.1273
G2 X27.1282 Y69.4805 I0.1275 J-0.1191
G2 X27.2706 Y69.4212 I0.0027 J-0.1942
G2 X27.3774 Y69.2788 I-0.3898 J-0.4036
G2 X27.4605 Y69.0969 I-0.6963 J-0.4278
G2 X27.5158 Y68.9189 I-4.0284 J-1.3509
G1 X28.6984 Y65.039
G3 X28.8447 Y64.6198 I4.3751 J1.292
G3 X28.8997 Y64.5091 I0.8696 J0.3629
G3 X28.9365 Y64.4578 I0.2876 J0.1676
G3 X28.9911 Y64.426 I0.0654 J0.0494
G3 X29.0466 Y64.4567 I-0.0089 J0.0814
G3 X29.1374 Y64.6198 I-0.4662 J0.3667
G3 X29.2917 Y65.039 I-4.1688 J1.7718
G1 X30.4742 Y68.9189
G2 X30.5296 Y69.089 I11.6013 J-3.6831
G2 X30.6048 Y69.2709 I1.0895 J-0.3435
G2 X30.7115 Y69.4173 I0.5632 J-0.2988
G2 X30.8539 Y69.4805 I0.1448 J-0.1339
G2 X30.9805 Y69.4252 I0.0028 J-0.1659
G2 X31.0635 Y69.2907 I-0.2735 J-0.2618
G2 X31.1189 Y69.1167 I-0.7698 J-0.3407
G2 X31.1466 Y68.9506 I-1.5261 J-0.3397
G1 X31.7043 Y64.426
G1 X31.1466 Y68.9506
G0 Z3.0
G0 X16.8698 Y66.3363
G0 Z0.405
G1 F1000.0 Z-0.005
G2 F2000.0 X16.9489 Y66.8267 I1.5898 J-0.0048
G2 X17.1981 Y67.2697 I1.2447 J-0.4086
G2 X17.6055 Y67.5861 I0.9936 J-0.8588
G2 X18.175 Y67.7087 I0.5433 J-1.1398
G2 X18.7366 Y67.5861 I0.0261 J-1.2282
G2 X19.144 Y67.2697 I-0.5499 J-1.1284
G2 X19.3892 Y66.8267 I-1.0349 J-0.8623
G2 X19.4762 Y66.3363 I-1.3719 J-0.4963
G1 Y64.426
G1 Y66.3363
G3 X19.3892 Y66.8267 I-1.4589 J-0.0059
G3 X19.144 Y67.2697 I-1.28 J-0.4192
G3 X18.7366 Y67.5861 I-0.9572 J-0.812
G3 X18.175 Y67.7087 I-0.5356 J-1.1056
G3 X17.6055 Y67.5861 I-0.0262 J-1.2623
G3 X17.1981 Y67.2697 I0.5862 J-1.1751
G3 X16.9489 Y66.8267 I0.9956 J-0.8516
G3 X16.8698 Y66.3363 I1.5111 J-0.4953
G1 Y64.426
G1 Y66.3363
G0 Z3.0
G0 X15.0228 Y64.426
G0 Z0.405
G1 F1000.0 Z-0.005
G1 F2000.0 Y67.5979
G1 Y64.426
G0 Z3.0
G0 X12.9978 Y69.3817
G0 Z0.405
G1 F1000.0 Z-0.005
G1 F2000.0 Y64.422
G1 Y69.3817
G0 Z3.0
G0 X14.953 Y68.8517
G0 Z0.405
G1 F1000.0 Z-0.005
G2 F2000.0 X15.0228 Y68.8992 I0.0625 J-0.0169
G2 X15.0979 Y68.824 I0.0094 J-0.0658
G2 X15.0782 Y68.7765 I-0.075 J0.0034
G2 X15.0228 Y68.7528 I-0.0493 J0.0387
G2 X14.9674 Y68.7765 I-0.006 J0.0624
G2 X14.9516 Y68.824 I0.0696 J0.0496
G2 X14.953 Y68.8517 I0.0639 J0.0108
G2 X15.0228 Y68.8992 I0.0625 J-0.0169
G2 X15.0979 Y68.824 I0.0094 J-0.0658
G2 X15.0782 Y68.7765 I-0.075 J0.0034
G2 X15.0228 Y68.7528 I-0.0493 J0.0387
G2 X14.9674 Y68.7765 I-0.006 J0.0624
G2 X14.9516 Y68.824 I0.0696 J0.0496
G2 X14.953 Y68.8517 I0.0639 J0.0108
G3 X14.9516 Y68.824 I0.0625 J-0.0169
G3 X14.9674 Y68.7765 I0.0854 J0.0021
G3 X15.0228 Y68.7528 I0.0493 J0.0387
G3 X15.0782 Y68.7765 I0.006 J0.0624
G3 X15.0979 Y68.824 I-0.0552 J0.0509
G3 X15.0228 Y68.8992 I-0.0658 J0.0094
G3 X14.953 Y68.8517 I-0.0073 J-0.0644
G3 X14.9516 Y68.824 I0.0625 J-0.0169
G3 X14.9674 Y68.7765 I0.0854 J0.0021
G3 X15.0228 Y68.7528 I0.0493 J0.0387
G3 X15.0782 Y68.7765 I0.006 J0.0624
G3 X15.0979 Y68.824 I-0.0552 J0.0509
G3 X15.0228 Y68.8992 I-0.0658 J0.0094
G3 X14.953 Y68.8517 I-0.0073 J-0.0644
G0 Z3.0
G0 X23.3188 Y53.656
G0 Z0.405
G1 F1000.0 Z-0.005
G3 F2000.0 X23.6422 Y53.6875 I0.0161 J1.5103
G3 X23.9397 Y53.8181 I-0.1443 J0.7327
G3 X24.1111 Y54.0679 I-0.3087 J0.3955
G3 X24.1533 Y54.3679 I-0.9241 J0.2829
G3 X24.1105 Y54.614 I-0.6719 J0.0098
G3 X23.9674 Y54.8188 I-0.4949 J-0.1933
G3 X23.5126 Y55.0917 I-0.9636 J-1.0905
G3 X22.9233 Y55.2775 I-1.4563 J-3.5896
G2 X22.33 Y55.4595 I1.2455 J5.1196
G2 X21.8792 Y55.7245 I0.5544 J1.4593
G2 X21.6972 Y56.1477 I0.3511 J0.4016
G2 X21.7684 Y56.4997 I0.7525 J0.031
G2 X21.9662 Y56.7053 I0.4678 J-0.2519
G2 X22.2549 Y56.8042 I0.3929 J-0.6762
G2 X22.5871 Y56.8319 I0.3293 J-1.9439
G1 X23.9753
G1 X22.5871
G3 X22.2549 Y56.8042 I-0.0031 J-1.9704
G3 X21.9662 Y56.7053 I0.1041 J-0.775
G3 X21.7684 Y56.4997 I0.2701 J-0.4576
G3 X21.6972 Y56.1477 I0.6814 J-0.321
G3 X21.8792 Y55.7245 I0.533 J-0.0216
G3 X22.33 Y55.4595 I1.0053 J1.1945
G3 X22.9233 Y55.2775 I1.8392 J4.939
G2 X23.5126 Y55.0917 I-0.8668 J-3.7751
G2 X23.9674 Y54.8188 I-0.5088 J-1.3635
G2 X24.1533 Y54.3679 I-0.3893 J-0.4243
G2 X24.1111 Y54.0679 I-0.9659 J-0.0171
G2 X23.9397 Y53.8181 I-0.4801 J0.1458
G2 X23.6422 Y53.6875 I-0.4418 J0.602
G2 X23.3188 Y53.656 I-0.3074 J1.4795
G1 X21.6814
G1 X23.3188
G0 Z3.0
G0 X25.4585 Y54.8543
G0 Z0.405
G1 F1000.0 Z-0.005
G3 F2000.0 X25.5376 Y54.3441 I1.5831 J-0.0158
G3 X25.7749 Y53.9328 I1.1237 J0.3742
G3 X26.1665 Y53.656 I0.8427 J0.7765
G3 X26.7202 Y53.5571 I0.5251 J1.3408
G3 X27.2699 Y53.656 I0.03 J1.4108
G3 X27.6654 Y53.9328 I-0.4397 J1.0491
G3 X27.9027 Y54.3441 I-0.8863 J0.7855
G3 X27.9858 Y54.8543 I-1.431 J0.4948
G1 Y56.8082
G1 Y54.8543
G2 X27.9027 Y54.3441 I-1.5139 J-0.0154
G2 X27.6654 Y53.9328 I-1.1237 J0.3742
G2 X27.2699 Y53.656 I-0.8353 J0.7724
G2 X26.7202 Y53.5571 I-0.5198 J1.3121
G2 X26.1665 Y53.656 I-0.0286 J1.4397
G2 X25.7749 Y53.9328 I0.4511 J1.0533
G2 X25.5376 Y54.3441 I0.8863 J0.7855
G2 X25.4585 Y54.8543 I1.5039 J0.4944
G1 Y56.8082
G1 Y54.8543
G0 Z3.0
G0 X26.7202 Y53.5571
G0 Z0.005
G1 F1000.0 Z-0.005
G1 F2000.0 Y51.9118
G1 Y53.5571
G0 Z3.0
G0 X29.465 Y53.656
G0 Z0.405
G1 F1000.0 Z-0.005
G1 F2000.0 Y55.5663
G2 X29.5441 Y56.0567 I1.5898 J-0.0048
G2 X29.7933 Y56.4997 I1.2447 J-0.4086
G2 X30.2006 Y56.8161 I0.9936 J-0.8588
G2 X30.7702 Y56.9387 I0.5433 J-1.1398
G2 X31.3318 Y56.8161 I0.0261 J-1.2282
G2 X31.7392 Y56.4997 I-0.5499 J-1.1284
G2 X31.9844 Y56.0567 I-1.0349 J-0.8623
G2 X32.0714 Y55.5663 I-1.3719 J-0.4963
G1 Y53.656
G1 Y55.5663
G3 X31.9844 Y56.0567 I-1.4589 J-0.0059
G3 X31.7392 Y56.4997 I-1.28 J-0.4192
G3 X31.3318 Y56.8161 I-0.9572 J-0.812
G3 X30.7702 Y56.9387 I-0.5356 J-1.1056
G3 X30.2006 Y56.8161 I-0.0262 J-1.2623
G3 X29.7933 Y56.4997 I0.5862 J-1.1751
G3 X29.5441 Y56.0567 I0.9956 J-0.8516
G3 X29.465 Y55.5663 I1.5111 J-0.4953
G1 Y53.656
G0 Z3.0
G0 X35.1603
G0 Z0.405
G1 F1000.0 Z-0.005
G2 F2000.0 X34.5196 Y53.7667 I-0.012 J1.8395
G2 X33.9936 Y54.0871 I0.5743 J1.5351
G2 X33.6416 Y54.5894 I1.0272 J1.0943
G2 X33.515 Y55.2419 I1.5214 J0.6336
G2 X33.6455 Y55.8945 I1.6044 J0.0185
G2 X33.9975 Y56.4008 I1.4886 J-0.6595
G2 X34.4919 Y56.7291 I1.1747 J-1.2327
G2 X35.0614 Y56.8477 I0.5708 J-1.3138
G1 X35.4174
G1 X35.0614
G3 X34.4919 Y56.7291 I0.0013 J-1.4324
G3 X33.9975 Y56.4008 I0.6801 J-1.5607
G3 X33.6455 Y55.8945 I1.1366 J-1.1658
G3 X33.515 Y55.2419 I1.4739 J-0.6341
G3 X33.6416 Y54.5894 I1.648 J-0.019
G3 X33.9936 Y54.0871 I1.3793 J0.5921
G3 X34.5196 Y53.7667 I1.1004 J1.2148
G3 X35.1603 Y53.656 I0.6287 J1.7287
G1 X35.4174
G1 X35.1603
G0 Z3.0
G0 X47.6 Y55.4
G0 Z0.405
G1 F1000.0 Z-0.005
G1 F2000.0 X53.1
G1 X50.9 Y57.6
G0 Z3.0
G0 X39.8331 Y35.5805
G0 Z0.405
G1 F1000.0 Z-0.005
G3 F2000.0 X39.0479 Y35.7608 I-0.7609 J-1.5139
G3 X38.3874 Y35.6382 I-0.0161 J-1.7536
G3 X37.8653 Y35.2901 I0.5457 J-1.3841
G3 X37.5212 Y34.7562 I1.164 J-1.1279
G3 X37.3947 Y34.0759 I1.6519 J-0.6592
G3 X37.5212 Y33.3877 I1.8195 J-0.0211
G3 X37.8653 Y32.8538 I1.556 J0.6249
G3 X38.3874 Y32.5097 I1.077 J1.0659
G3 X39.0479 Y32.391 I0.6439 J1.6866
G3 X39.5693 Y32.4589 I0.0148 J1.9235
G3 X40.0446 Y32.6837 I-0.4126 J1.4872
G3 X40.4139 Y33.0682 I-0.8217 J1.159
G3 X40.6339 Y33.5538 I-1.5381 J0.9892
G2 X40.4139 Y33.0682 I-1.7585 J0.5038
G2 X40.0446 Y32.6837 I-1.1909 J0.7745
G2 X39.0479 Y32.391 I-0.9514 J1.3966
G2 X38.3874 Y32.5097 I-0.0166 J1.8055
G2 X37.8653 Y32.8538 I0.5548 J1.4099
G2 X37.5212 Y33.3877 I1.2117 J1.1587
G2 X37.3947 Y34.0759 I1.6927 J0.667
G2 X37.5212 Y34.7562 I1.7786 J0.021
G2 X37.8653 Y35.2901 I1.5082 J-0.5941
G2 X38.3874 Y35.6382 I1.0678 J-1.0361
G2 X39.0479 Y35.7608 I0.6444 J-1.6309
G2 X39.9101 Y35.5393 I0.0243 J-1.6942
G2 X40.2232 Y35.2953 I-0.621 J-1.1199
G2 X40.4322 Y34.9579 I-0.763 J-0.7059
G1 X38.4705 Y33.8702
G1 X40.4322 Y34.9579
G3 X39.9101 Y35.5393 I-1.0466 J-0.4147
G3 X39.8331 Y35.5805 I-0.8378 J-1.4726
G0 Z3.0
G0 X36.0697 Y35.6619
G0 Z0.405
G1 F1000.0 Z-0.005
G1 F2000.0 X34.6815
G3 X34.3493 Y35.6342 I-0.0031 J-1.9704
G3 X34.0606 Y35.5353 I0.1041 J-0.775
G3 X33.8628 Y35.3297 I0.2701 J-0.4576
G3 X33.7916 Y34.9777 I0.6814 J-0.321
G3 X33.9735 Y34.5545 I0.533 J-0.0216
G3 X34.4244 Y34.2895 I1.0053 J1.1945
G3 X35.0177 Y34.1075 I1.8392 J4.939
G2 X35.607 Y33.9217 I-0.8668 J-3.7751
G2 X36.0618 Y33.6488 I-0.5088 J-1.3635
G2 X36.2477 Y33.1979 I-0.3893 J-0.4243
G2 X36.2055 Y32.8979 I-0.9659 J-0.0171
G2 X36.0341 Y32.6481 I-0.4801 J0.1458
G2 X35.7366 Y32.5175 I-0.4418 J0.602
G2 X35.4132 Y32.486 I-0.3074 J1.4795
G1 X33.7758
G1 X35.4132
G3 X35.7366 Y32.5175 I0.0161 J1.5103
G3 X36.0341 Y32.6481 I-0.1443 J0.7327
G3 X36.2055 Y32.8979 I-0.3087 J0.3955
G3 X36.2477 Y33.1979 I-0.9241 J0.2829
G3 X36.2049 Y33.444 I-0.6719 J0.0098
G3 X36.0618 Y33.6488 I-0.4949 J-0.1933
G3 X35.607 Y33.9217 I-0.9636 J-1.0905
G3 X35.0177 Y34.1075 I-1.4563 J-3.5896
G2 X34.4244 Y34.2895 I1.2455 J5.1196
G2 X33.9735 Y34.5545 I0.5544 J1.4593
G2 X33.7916 Y34.9777 I0.3511 J0.4016
G2 X33.8628 Y35.3297 I0.7525 J0.031
G2 X34.0606 Y35.5353 I0.4678 J-0.2519
G2 X34.3493 Y35.6342 I0.3929 J-0.6762
G2 X34.6815 Y35.6619 I0.3293 J-1.9439
G1 X36.0697
G0 Z3.0
G0 X32.2926 Y37.4417
G0 Z0.405
G1 F1000.0 Z-0.005
G1 F2000.0 Y32.482
G1 Y37.4417
G0 Z3.0
G0 X30.6711 Y35.6619
G0 Z0.405
G1 F1000.0 Z-0.005
G1 F2000.0 Y33.7476
G2 X30.584 Y33.2612 I-1.4484 J0.008
G2 X30.3388 Y32.8261 I-1.2906 J0.4408
G2 X29.9315 Y32.5097 I-0.9572 J0.812
G2 X29.3659 Y32.3871 I-0.5379 J1.1155
G2 X28.7963 Y32.5097 I-0.0262 J1.2623
G2 X28.389 Y32.8261 I0.5862 J1.1751
G2 X28.1438 Y33.2612 I0.9628 J0.8293
G2 X28.0647 Y33.7476 I1.4993 J0.4935
G1 Y35.6619
G1 Y33.7476
G3 X28.1438 Y33.2612 I1.5786 J0.007
G3 X28.389 Y32.8261 I1.208 J0.3942
G3 X28.7963 Y32.5097 I0.9936 J0.8588
G3 X29.3659 Y32.3871 I0.5433 J1.1398
G3 X29.9315 Y32.5097 I0.0277 J1.2382
G3 X30.3388 Y32.8261 I-0.5499 J1.1284
G3 X30.584 Y33.2612 I-1.0455 J0.8759
G3 X30.6711 Y33.7476 I-1.3616 J0.4946
G1 Y35.6619
G0 Z3.0
G0 X26.7057 Y34.5781
G0 Z0.405
G1 F1000.0 Z-0.005
G2 F2000.0 X26.7753 Y34.0245 I-1.9058 J-0.5209
G2 X26.6487 Y33.3482 I-1.7493 J-0.0226
G2 X26.3086 Y32.834 I-1.4263 J0.574
G2 X25.8063 Y32.5057 I-1.0832 J1.109
G2 X25.2051 Y32.391 I-0.5976 J1.4992
G2 X24.513 Y32.5097 I-0.0332 J1.8842
G3 X25.2051 Y32.391 I0.6589 J1.7657
G3 X25.8063 Y32.5057 I0.0036 J1.6137
G3 X26.3086 Y32.834 I-0.5808 J1.4372
G3 X26.6487 Y33.3482 I-1.0862 J1.0882
G3 X26.7753 Y34.0245 I-1.6228 J0.6537
G3 X26.6448 Y34.7641 I-1.9755 J0.0327
G3 X26.2928 Y35.3099 I-1.5041 J-0.5837
G3 X25.7707 Y35.6461 I-1.0392 J-1.0403
G3 X25.1221 Y35.7608 I-0.6335 J-1.6909
G3 X24.4695 Y35.6342 I-0.019 J-1.648
G3 X23.9632 Y35.2703 I0.5428 J-1.2892
G3 X23.635 Y34.6889 I1.2548 J-1.0919
G3 X23.5203 Y33.894 I2.4345 J-0.757
G1 Y30.7062
G1 Y33.894
G2 X23.635 Y34.6889 I2.5493 J0.0379
G2 X23.9632 Y35.2703 I1.5832 J-0.5105
G2 X24.4695 Y35.6342 I1.049 J-0.9253
G2 X25.1221 Y35.7608 I0.6336 J-1.5214
G2 X25.7707 Y35.6461 I0.0152 J-1.8056
G2 X26.2928 Y35.3099 I-0.5171 J-1.3765
G2 X26.6448 Y34.7641 I-1.1521 J-1.1294
G2 X26.7057 Y34.5781 I-1.8449 J-0.7069
G0 Z3.0
G0 X18.6 Y36.3
G0 Z0.405
G1 F1000.0 Z-0.005
G1 F2000.0 X20.8 Y34.1
G1 X15.3
G2 X10.8 Y39.5 I1.0335 J5.4363
G0 Z3.0
G0 X8.5663 Y42.555
G0 Z0.405
G1 F1000.0 Z-0.005
G3 F2000.0 X8.6414 Y42.1159 I1.2298 J-0.0154
G3 X8.859 Y41.7798 I0.8587 J0.3171
G3 X9.1912 Y41.5622 I0.7321 J0.7556
G3 X9.6104 Y41.4871 I0.4057 J1.0565
G3 X10.0624 Y41.5614 I0.0195 J1.2927
G3 X10.441 Y41.8193 I-0.3238 J0.882
G3 X10.675 Y42.2546 I-0.8284 J0.7258
G3 X10.7376 Y42.7448 I-1.7159 J0.4684
G1 Y44.7619
G1 Y42.7448
G3 X10.7993 Y42.2553 I1.802 J-0.0218
G3 X11.0303 Y41.8193 I1.0686 J0.2871
G3 X11.4089 Y41.5614 I0.7024 J0.6242
G3 X11.8609 Y41.4871 I0.4325 J1.2184
G3 X12.2801 Y41.5622 I0.0135 J1.1316
G3 X12.6084 Y41.7798 I-0.3807 J0.931
G3 X12.8259 Y42.1159 I-0.7035 J0.6937
G3 X12.909 Y42.555 I-1.0419 J0.4245
G1 Y44.7619
G1 Y42.555
G2 X12.8259 Y42.1159 I-1.125 J-0.0145
G2 X12.6084 Y41.7798 I-0.921 J0.3575
G2 X12.2801 Y41.5622 I-0.709 J0.7135
G2 X11.8609 Y41.4871 I-0.4057 J1.0565
G2 X11.4089 Y41.5614 I-0.0195 J1.2927
G2 X11.0303 Y41.8193 I0.3238 J0.882
G2 X10.7993 Y42.2553 I0.8374 J0.723
G2 X10.7376 Y42.7448 I1.74 J0.4677
G1 Y44.7619
G1 Y42.7448
G2 X10.675 Y42.2546 I-1.7782 J-0.0218
G2 X10.441 Y41.8193 I-1.0623 J0.2904
G2 X10.0624 Y41.5614 I-0.7024 J0.6242
G2 X9.6104 Y41.4871 I-0.4325 J1.2184
G2 X9.1912 Y41.5622 I-0.0135 J1.1316
G2 X8.859 Y41.7798 I0.3998 J0.9731
G2 X8.6414 Y42.1159 I0.6412 J0.6533
G2 X8.5663 Y42.555 I1.1548 J0.4236
G1 Y44.7619
G1 Y42.555
G0 Z3.0
G0 X7.2183 Y42.7951
G0 Z0.405
G1 F1000.0 Z-0.005
G2 F2000.0 X7.1187 Y42.4482 I-1.7223 J0.3068
G2 X6.7786 Y41.934 I-1.4263 J0.574
G2 X6.2763 Y41.6057 I-1.0832 J1.109
G2 X5.6751 Y41.491 I-0.5976 J1.4992
G2 X4.983 Y41.6097 I-0.0332 J1.8842
G3 X5.6751 Y41.491 I0.6589 J1.7657
G3 X6.2763 Y41.6057 I0.0036 J1.6137
G3 X6.7786 Y41.934 I-0.5808 J1.4372
G3 X7.1187 Y42.4482 I-1.0862 J1.0882
G3 X7.2453 Y43.1245 I-1.6228 J0.6537
G3 X7.1148 Y43.8641 I-1.9755 J0.0327
G3 X6.7628 Y44.4099 I-1.5041 J-0.5837
G3 X6.2407 Y44.7461 I-1.0392 J-1.0403
G3 X5.5921 Y44.8608 I-0.6335 J-1.6909
G3 X4.9395 Y44.7342 I-0.019 J-1.648
G3 X4.4332 Y44.3703 I0.5428 J-1.2892
G3 X4.105 Y43.7889 I1.2548 J-1.0919
G3 X3.9903 Y42.994 I2.4345 J-0.757
G1 Y39.8062
G1 Y42.994
G2 X4.105 Y43.7889 I2.5493 J0.0379
G2 X4.4332 Y44.3703 I1.5832 J-0.5105
G2 X4.9395 Y44.7342 I1.049 J-0.9253
G2 X5.5921 Y44.8608 I0.6336 J-1.5214
G2 X6.2407 Y44.7461 I0.0152 J-1.8056
G2 X6.7628 Y44.4099 I-0.5171 J-1.3765
G2 X7.1148 Y43.8641 I-1.1521 J-1.1294
G2 X7.2453 Y43.1245 I-1.8449 J-0.7069
G2 X7.2183 Y42.7951 I-1.7493 J-0.0226
G0 Z3.0
G0 X14.4159 Y43.7889
G0 Z0.405
G1 F1000.0 Z-0.005
G2 F2000.0 X14.491 Y44.2319 I1.2424 J0.0171
G2 X14.7125 Y44.5681 I0.8937 J-0.3478
G2 X15.0447 Y44.7817 I0.6954 J-0.7166
G2 X15.46 Y44.8608 I0.404 J-0.9911
G2 X15.912 Y44.7864 I0.0195 J-1.2927
G2 X16.2906 Y44.5285 I-0.3238 J-0.882
G2 X16.5245 Y44.0932 I-0.8284 J-0.7258
G2 X16.5872 Y43.603 I-1.7159 J-0.4684
G1 Y41.586
G1 Y43.603
G2 X16.6488 Y44.0926 I1.802 J0.0218
G2 X16.8799 Y44.5285 I1.0686 J-0.2871
G2 X17.2605 Y44.7868 I0.7012 J-0.6238
G2 X17.7144 Y44.8608 I0.4341 J-1.2337
G2 X18.1297 Y44.7817 I0.0113 J-1.0703
G2 X18.4579 Y44.5681 I-0.3462 J-0.8912
G2 X18.6755 Y44.2319 I-0.7035 J-0.6937
G2 X18.7585 Y43.7889 I-1.0532 J-0.4267
G1 Y41.586
G1 Y43.7889
G3 X18.6755 Y44.2319 I-1.1362 J0.0162
G3 X18.4579 Y44.5681 I-0.921 J-0.3575
G3 X18.1297 Y44.7817 I-0.6744 J-0.6775
G3 X17.7144 Y44.8608 I-0.404 J-0.9911
G3 X17.2605 Y44.7868 I-0.0198 J-1.3078
G3 X16.8799 Y44.5285 I0.3206 J-0.882
G3 X16.6488 Y44.0926 I0.8374 J-0.723
G3 X16.5872 Y43.603 I1.74 J-0.4677
G1 Y41.586
G1 Y43.603
G3 X16.5245 Y44.0932 I-1.7782 J0.0218
G3 X16.2906 Y44.5285 I-1.0623 J-0.2904
G3 X15.912 Y44.7864 I-0.7024 J-0.6242
G3 X15.46 Y44.8608 I-0.4325 J-1.2184
G3 X15.0447 Y44.7817 I-0.0113 J-1.0703
G3 X14.7125 Y44.5681 I0.3631 J-0.9301
G3 X14.491 Y44.2319 I0.6722 J-0.6839
G3 X14.4159 Y43.7889 I1.1673 J-0.4259
G1 Y41.586
G1 Y43.7889
G0 Z3.0
G0 X5.8 Y57.6
G0 Z0.405
G1 F1000.0 Z-0.005
G1 F2000.0 X8.0 Y55.4
G1 X2.5
G0 Z3.0
G0 X4.5587 Y12.8996
G0 Z0.405
G1 F1000.0 Z-0.005
G3 F2000.0 X4.3249 Y12.8742 I0.0953 J-1.9681
G3 X4.0362 Y12.7753 I0.1041 J-0.775
G3 X3.8384 Y12.5697 I0.2701 J-0.4576
G3 X3.7672 Y12.2177 I0.6814 J-0.321
G3 X3.9492 Y11.7945 I0.533 J-0.0216
G3 X4.4 Y11.5295 I1.0053 J1.1945
G3 X4.9933 Y11.3475 I1.8392 J4.939
G2 X5.5826 Y11.1617 I-0.8668 J-3.7751
G2 X6.0374 Y10.8888 I-0.5088 J-1.3635
G2 X6.2233 Y10.4379 I-0.3893 J-0.4243
G2 X6.1811 Y10.1379 I-0.9659 J-0.0171
G2 X6.0097 Y9.8881 I-0.4801 J0.1458
G2 X5.7122 Y9.7575 I-0.4418 J0.602
G2 X5.3888 Y9.726 I-0.3074 J1.4795
G1 X3.7514
G1 X5.3888
G3 X5.7122 Y9.7575 I0.0161 J1.5103
G3 X6.0097 Y9.8881 I-0.1443 J0.7327
G3 X6.1811 Y10.1379 I-0.3087 J0.3955
G3 X6.2233 Y10.4379 I-0.9241 J0.2829
G3 X6.1805 Y10.684 I-0.6719 J0.0098
G3 X6.0374 Y10.8888 I-0.4949 J-0.1933
G3 X5.5826 Y11.1617 I-0.9636 J-1.0905
G3 X4.9933 Y11.3475 I-1.4563 J-3.5896
G2 X4.4 Y11.5295 I1.2455 J5.1196
G2 X3.9492 Y11.7945 I0.5544 J1.4593
G2 X3.7672 Y12.2177 I0.3511 J0.4016
G2 X3.8384 Y12.5697 I0.7525 J0.031
G2 X4.0362 Y12.7753 I0.4678 J-0.2519
G2 X4.3249 Y12.8742 I0.3929 J-0.6762
G2 X4.6571 Y12.9019 I0.3293 J-1.9439
G1 X6.0453
G1 X4.6571
G3 X4.5587 Y12.8996 I-0.0031 J-1.9704
G0 Z3.0
G0 X9.5812 Y9.7813
G0 Z0.405
G1 F1000.0 Z-0.005
G2 F2000.0 X8.9761 Y9.6271 I-0.5718 J0.979
G2 X8.3116 Y9.7536 I-0.0174 J1.7161
G2 X7.7895 Y10.1056 I0.6083 J1.4653
G2 X7.4494 Y10.6435 I1.2144 J1.1444
G2 X7.3307 Y11.3317 I1.8088 J0.6662
G2 X7.4494 Y12.008 I1.8527 J0.0235
G2 X7.7895 Y12.538 I1.4723 J-0.5708
G2 X8.3116 Y12.89 I1.1304 J-1.1134
G2 X8.9761 Y13.0166 I0.647 J-1.5895
G2 X9.6247 Y12.9058 I0.0224 J-1.8237
G2 X10.1349 Y12.6013 I-0.5325 J-1.4718
G2 X10.4671 Y12.1306 I-0.8482 J-0.9513
G2 X10.5858 Y11.5255 I-1.3856 J-0.5859
G1 Y9.726
G1 Y11.5255
G3 X10.4671 Y12.1306 I-1.5042 J0.0193
G3 X10.1349 Y12.6013 I-1.1805 J-0.4807
G3 X9.6247 Y12.9058 I-1.0427 J-1.1672
G3 X8.9761 Y13.0166 I-0.6262 J-1.713
G3 X8.3116 Y12.89 I-0.0174 J-1.7161
G3 X7.7895 Y12.538 I0.6083 J-1.4653
G3 X7.4494 Y12.008 I1.1322 J-1.1008
G3 X7.3307 Y11.3317 I1.7341 J-0.6528
G3 X7.4494 Y10.6435 I1.9272 J-0.022
G3 X7.7895 Y10.1056 I1.5545 J0.6065
G3 X8.3116 Y9.7536 I1.1304 J1.1134
G3 X8.9761 Y9.6271 I0.647 J1.5895
G3 X9.5812 Y9.7813 I0.0333 J1.1333
G0 Z3.0
G0 X12.0566 Y10.3872
G0 Z0.405
G1 F1000.0 Z-0.005
G3 F2000.0 X12.0966 Y10.2559 I1.1946 J0.2924
G3 X12.3141 Y9.9198 I0.8587 J0.3171
G3 X12.6464 Y9.7022 I0.7321 J0.7556
G3 X13.0656 Y9.6271 I0.4057 J1.0565
G3 X13.5176 Y9.7014 I0.0195 J1.2927
G3 X13.8962 Y9.9593 I-0.3238 J0.882
G3 X14.1301 Y10.3946 I-0.8284 J0.7258
G3 X14.1928 Y10.8848 I-1.7159 J0.4684
G1 Y12.9019
G1 Y10.8848
G3 X14.2544 Y10.3953 I1.802 J-0.0218
G3 X14.4855 Y9.9593 I1.0686 J0.2871
G3 X14.864 Y9.7014 I0.7024 J0.6242
G3 X15.316 Y9.6271 I0.4325 J1.2184
G3 X15.7353 Y9.7022 I0.0135 J1.1316
G3 X16.0636 Y9.9198 I-0.3807 J0.931
G3 X16.2811 Y10.2559 I-0.7035 J0.6937
G3 X16.3641 Y10.695 I-1.0419 J0.4245
G1 Y12.9019
G1 Y10.695
G2 X16.2811 Y10.2559 I-1.125 J-0.0145
G2 X16.0636 Y9.9198 I-0.921 J0.3575
G2 X15.7353 Y9.7022 I-0.709 J0.7135
G2 X15.316 Y9.6271 I-0.4057 J1.0565
G2 X14.864 Y9.7014 I-0.0195 J1.2927
G2 X14.4855 Y9.9593 I0.3238 J0.882
G2 X14.2544 Y10.3953 I0.8374 J0.723
G2 X14.1928 Y10.8848 I1.74 J0.4677
G1 Y12.9019
G1 Y10.8848
G2 X14.1301 Y10.3946 I-1.7782 J-0.0218
G2 X13.8962 Y9.9593 I-1.0623 J0.2904
G2 X13.5176 Y9.7014 I-0.7024 J0.6242
G2 X13.0656 Y9.6271 I-0.4325 J1.2184
G2 X12.6464 Y9.7022 I-0.0135 J1.1316
G2 X12.3141 Y9.9198 I0.3998 J0.9731
G2 X12.0966 Y10.2559 I0.6412 J0.6533
G2 X12.0215 Y10.695 I1.1548 J0.4236
G1 Y12.9019
G1 Y10.695
G3 X12.0566 Y10.3872 I1.2298 J-0.0154
G0 Z3.0
G0 X25.303 Y9.596
G0 Z0.405
G1 F1000.0 Z-0.005
G2 F2000.0 X24.9772 Y9.6377 I-0.0135 J1.1864
G2 X24.686 Y9.7898 I0.2056 J0.7487
G2 X24.5029 Y10.0981 I0.4126 J0.4535
G2 X24.4606 Y10.4542 I1.3022 J0.3356
G1 Y13.7448
G1 Y10.4542
G3 X24.5029 Y10.0981 I1.3443 J-0.0206
G3 X24.686 Y9.7898 I0.5957 J0.1451
G3 X24.9772 Y9.6377 I0.4968 J0.5966
G3 X25.303 Y9.596 I0.3124 J1.1447
G1 X25.8567
G1 X25.303
G0 Z3.0
G0 X27.0393
G0 Z0.405
G1 F1000.0 Z-0.005
G1 F2000.0 Y12.7679
G1 Y9.596
G0 Z3.0
G0 Y11.1147
G0 Z0.405
G1 F1000.0 Z-0.005
G2 F2000.0 X27.1302 Y11.882 I2.865 J0.0494
G2 X27.3873 Y12.408 I1.5119 J-0.413
G2 X27.767 Y12.7165 I0.8389 J-0.6446
G2 X28.2377 Y12.8589 I0.6788 J-1.3948
G3 X27.767 Y12.7165 I0.2081 J-1.5371
G3 X27.3873 Y12.408 I0.4592 J-0.9531
G3 X27.1302 Y11.882 I1.2546 J-0.939
G3 X27.0393 Y11.1147 I2.7736 J-0.7179
G1 Y9.592
G1 Y11.1147
G0 Z3.0
G0 X25.8567 Y12.7877
G0 Z0.405
G1 F1000.0 Z-0.005
G1 F2000.0 X24.4606
G1 X25.8567
G0 Z3.0
G0 X29.701 Y12.7679
G0 Z0.405
G1 F1000.0 Z-0.005
G1 F2000.0 Y9.596
G1 Y12.7679
G0 Z3.0
G0 X29.6953 Y13.9225
G0 Z0.405
G1 F1000.0 Z-0.005
G2 F2000.0 X29.6457 Y13.9465 I-0.0003 J0.0627
G2 X29.6299 Y13.994 I0.0696 J0.0496
G2 X29.701 Y14.0692 I0.0639 J0.0108
G2 X29.7762 Y13.994 I0.0094 J-0.0658
G2 X29.7564 Y13.9465 I-0.075 J0.0034
G2 X29.701 Y13.9228 I-0.0493 J0.0387
G2 X29.6953 Y13.9225 I-0.006 J0.0624
G2 X29.6457 Y13.9465 I-0.0003 J0.0627
G2 X29.6299 Y13.994 I0.0696 J0.0496
G2 X29.701 Y14.0692 I0.0639 J0.0108
G2 X29.7762 Y13.994 I0.0094 J-0.0658
G2 X29.7564 Y13.9465 I-0.075 J0.0034
G2 X29.701 Y13.9228 I-0.0493 J0.0387
G2 X29.6953 Y13.9225 I-0.006 J0.0624
G3 X29.701 Y13.9228 I-0.0003 J0.0627
G3 X29.7564 Y13.9465 I0.006 J0.0624
G3 X29.7762 Y13.994 I-0.0552 J0.0509
G3 X29.701 Y14.0692 I-0.0658 J0.0094
G3 X29.6299 Y13.994 I-0.0073 J-0.0644
G3 X29.6457 Y13.9465 I0.0854 J0.0021
G3 X29.6953 Y13.9225 I0.0493 J0.0387
G3 X29.701 Y13.9228 I-0.0003 J0.0627
G3 X29.7564 Y13.9465 I0.006 J0.0624
G3 X29.7762 Y13.994 I-0.0552 J0.0509
G3 X29.701 Y14.0692 I-0.0658 J0.0094
G3 X29.6299 Y13.994 I-0.0073 J-0.0644
G3 X29.6457 Y13.9465 I0.0854 J0.0021
G3 X29.6953 Y13.9225 I0.0493 J0.0387
G0 Z3.0
G0 X39.3069 Y12.313
G0 Z0.405
G1 F1000.0 Z-0.005
G2 F2000.0 X39.3684 Y12.5097 I0.7428 J-0.1244
G2 X39.5662 Y12.7153 I0.4678 J-0.2519
G2 X39.8549 Y12.8142 I0.3929 J-0.6762
G2 X40.1871 Y12.8419 I0.3293 J-1.9439
G1 X41.5753
G1 X40.1871
G3 X39.8549 Y12.8142 I-0.0031 J-1.9704
G3 X39.5662 Y12.7153 I0.1041 J-0.775
G3 X39.3684 Y12.5097 I0.2701 J-0.4576
G3 X39.2972 Y12.1577 I0.6814 J-0.321
G3 X39.4792 Y11.7345 I0.533 J-0.0216
G3 X39.93 Y11.4695 I1.0053 J1.1945
G3 X40.5233 Y11.2875 I1.8392 J4.939
G2 X41.1126 Y11.1017 I-0.8668 J-3.7751
G2 X41.5674 Y10.8288 I-0.5088 J-1.3635
G2 X41.7533 Y10.3779 I-0.3893 J-0.4243
G2 X41.7111 Y10.0779 I-0.9659 J-0.0171
G2 X41.5397 Y9.8281 I-0.4801 J0.1458
G2 X41.2422 Y9.6975 I-0.4418 J0.602
G2 X40.9188 Y9.666 I-0.3074 J1.4795
G1 X39.2814
G1 X40.9188
G3 X41.2422 Y9.6975 I0.0161 J1.5103
G3 X41.5397 Y9.8281 I-0.1443 J0.7327
G3 X41.7111 Y10.0779 I-0.3087 J0.3955
G3 X41.7533 Y10.3779 I-0.9241 J0.2829
G3 X41.7105 Y10.624 I-0.6719 J0.0098
G3 X41.5674 Y10.8288 I-0.4949 J-0.1933
G3 X41.1126 Y11.1017 I-0.9636 J-1.0905
G3 X40.5233 Y11.2875 I-1.4563 J-3.5896
G2 X39.93 Y11.4695 I1.2455 J5.1196
G2 X39.4792 Y11.7345 I0.5544 J1.4593
G2 X39.2972 Y12.1577 I0.3511 J0.4016
G2 X39.3069 Y12.313 I0.7525 J0.031
G0 Z3.0
G0 X43.4184 Y9.666
G0 Z0.405
G1 F1000.0 Z-0.005
G1 F2000.0 Y12.8379
G1 Y9.666
G0 Z3.0
G0 X45.2654
G0 Z0.405
G1 F1000.0 Z-0.005
G1 F2000.0 Y11.5763
G2 X45.3445 Y12.0667 I1.5898 J-0.0048
G2 X45.5937 Y12.5097 I1.2447 J-0.4086
G2 X46.0011 Y12.8261 I0.9936 J-0.8588
G2 X46.5706 Y12.9487 I0.5433 J-1.1398
G2 X47.1322 Y12.8261 I0.0261 J-1.2282
G2 X47.5396 Y12.5097 I-0.5499 J-1.1284
G2 X47.7848 Y12.0667 I-1.0349 J-0.8623
G2 X47.8718 Y11.5763 I-1.3719 J-0.4963
G1 Y9.666
G1 Y11.5763
G3 X47.7848 Y12.0667 I-1.4589 J-0.0059
G3 X47.5396 Y12.5097 I-1.28 J-0.4192
G3 X47.1322 Y12.8261 I-0.9572 J-0.812
G3 X46.5706 Y12.9487 I-0.5356 J-1.1056
G3 X46.0011 Y12.8261 I-0.0262 J-1.2623
G3 X45.5937 Y12.5097 I0.5862 J-1.1751
G3 X45.3445 Y12.0667 I0.9956 J-0.8516
G3 X45.2654 Y11.5763 I1.5111 J-0.4953
G1 Y9.666
G0 Z3.0
G0 X49.2647 Y10.7562
G0 Z0.405
G1 F1000.0 Z-0.005
G2 F2000.0 X49.2007 Y11.2559 I1.7553 J0.4785
G2 X49.3273 Y11.9362 I1.7786 J0.021
G2 X49.6714 Y12.4701 I1.5082 J-0.5941
G2 X50.1935 Y12.8182 I1.0678 J-1.0361
G2 X50.854 Y12.9408 I0.6444 J-1.6309
G2 X51.7162 Y12.7193 I0.0243 J-1.6942
G2 X52.0293 Y12.4753 I-0.621 J-1.1199
G2 X52.2382 Y12.1379 I-0.763 J-0.7059
G1 X50.2765 Y11.0502
G1 X52.2382 Y12.1379
G3 X51.7162 Y12.7193 I-1.0466 J-0.4147
G3 X50.854 Y12.9408 I-0.8378 J-1.4726
G3 X50.1935 Y12.8182 I-0.0161 J-1.7536
G3 X49.6714 Y12.4701 I0.5457 J-1.3841
G3 X49.3273 Y11.9362 I1.164 J-1.1279
G3 X49.2007 Y11.2559 I1.6519 J-0.6592
G3 X49.3273 Y10.5677 I1.8195 J-0.0211
G3 X49.6714 Y10.0338 I1.556 J0.6249
G3 X50.1935 Y9.6897 I1.077 J1.0659
G3 X50.854 Y9.571 I0.6439 J1.6866
G3 X51.3753 Y9.6389 I0.0148 J1.9235
G3 X51.8506 Y9.8637 I-0.4126 J1.4872
G3 X52.22 Y10.2482 I-0.8217 J1.159
G3 X52.4399 Y10.7338 I-1.5381 J0.9892
G2 X52.22 Y10.2482 I-1.7585 J0.5038
G2 X51.8506 Y9.8637 I-1.1909 J0.7745
G2 X50.854 Y9.571 I-0.9514 J1.3966
G2 X50.1935 Y9.6897 I-0.0166 J1.8055
G2 X49.6714 Y10.0338 I0.5548 J1.4099
G2 X49.3273 Y10.5677 I1.2117 J1.1587
G2 X49.2647 Y10.7562 I1.6927 J0.667
G0 Z3.0
G0 X43.4839 Y14.0304
G0 Z0.405
G1 F1000.0 Z-0.005
G3 F2000.0 X43.4936 Y14.064 I-0.0653 J0.037
G3 X43.4184 Y14.1392 I-0.0658 J0.0094
G3 X43.3472 Y14.064 I-0.0073 J-0.0644
G3 X43.363 Y14.0165 I0.0854 J0.0021
G3 X43.4184 Y13.9928 I0.0493 J0.0387
G3 X43.4738 Y14.0165 I0.006 J0.0624
G3 X43.4839 Y14.0304 I-0.0552 J0.0509
G3 X43.4936 Y14.064 I-0.0653 J0.037
G3 X43.4184 Y14.1392 I-0.0658 J0.0094
G3 X43.3472 Y14.064 I-0.0073 J-0.0644
G3 X43.363 Y14.0165 I0.0854 J0.0021
G3 X43.4184 Y13.9928 I0.0493 J0.0387
G3 X43.4738 Y14.0165 I0.006 J0.0624
G3 X43.4839 Y14.0304 I-0.0552 J0.0509
G2 X43.4738 Y14.0165 I-0.0653 J0.037
G2 X43.4184 Y13.9928 I-0.0493 J0.0387
G2 X43.363 Y14.0165 I-0.006 J0.0624
G2 X43.3472 Y14.064 I0.0696 J0.0496
G2 X43.4184 Y14.1392 I0.0639 J0.0108
G2 X43.4936 Y14.064 I0.0094 J-0.0658
G2 X43.4839 Y14.0304 I-0.075 J0.0034
G2 X43.4738 Y14.0165 I-0.0653 J0.037
G2 X43.4184 Y13.9928 I-0.0493 J0.0387
G2 X43.363 Y14.0165 I-0.006 J0.0624
G2 X43.3472 Y14.064 I0.0696 J0.0496
G2 X43.4184 Y14.1392 I0.0639 J0.0108
G2 X43.4936 Y14.064 I0.0094 J-0.0658
G2 X43.4839 Y14.0304 I-0.075 J0.0034
( pot )
G0 Z3.0
( T6 : 6.35 )
T6 M6
M3 S1000
G0 X13.9 Y103.8
G0 Z3.0
G0 X14.69 Y103.8
G0 Z0.01
G1 F1000.0 Z0.0
G2 F2000.0 X13.505 Y103.1158 Z-0.0333 I-0.79 J0.0
G2 Y104.4842 Z-0.0667 I0.395 J0.6842
G2 X14.69 Y103.8 Z-0.1 I0.395 J-0.6842
G2 X13.505 Y103.1158 Z-0.1333 I-0.79 J0.0
G2 Y104.4842 Z-0.1667 I0.395 J0.6842
G2 X14.69 Y103.8 Z-0.2 I0.395 J-0.6842
G2 X13.505 Y103.1158 Z-0.2333 I-0.79 J0.0
G2 Y104.4842 Z-0.2667 I0.395 J0.6842
G2 X14.69 Y103.8 Z-0.3 I0.395 J-0.6842
G2 X13.505 Y103.1158 Z-0.3333 I-0.79 J0.0
G2 Y104.4842 Z-0.3667 I0.395 J0.6842
G2 X14.69 Y103.8 Z-0.4 I0.395 J-0.6842
G2 X13.505 Y103.1158 Z-0.4333 I-0.79 J0.0
G2 Y104.4842 Z-0.4667 I0.395 J0.6842
G2 X14.69 Y103.8 Z-0.5 I0.395 J-0.6842
G2 X13.505 Y103.1158 Z-0.5333 I-0.79 J0.0
G2 Y104.4842 Z-0.5667 I0.395 J0.6842
G2 X14.69 Y103.8 Z-0.6 I0.395 J-0.6842
G2 X13.505 Y103.1158 Z-0.6333 I-0.79 J0.0
G2 Y104.4842 Z-0.6667 I0.395 J0.6842
G2 X14.69 Y103.8 Z-0.7 I0.395 J-0.6842
G2 X13.505 Y103.1158 Z-0.7333 I-0.79 J0.0
G2 Y104.4842 Z-0.7667 I0.395 J0.6842
G2 X14.69 Y103.8 Z-0.8 I0.395 J-0.6842
G2 X13.505 Y103.1158 Z-0.8333 I-0.79 J0.0
G2 Y104.4842 Z-0.8667 I0.395 J0.6842
G2 X14.69 Y103.8 Z-0.9 I0.395 J-0.6842
G2 X13.505 Y103.1158 Z-0.9333 I-0.79 J0.0
G2 Y104.4842 Z-0.9667 I0.395 J0.6842
G2 X14.69 Y103.8 Z-1.0 I0.395 J-0.6842
G2 X13.505 Y103.1158 Z-1.0333 I-0.79 J0.0
G2 Y104.4842 Z-1.0667 I0.395 J0.6842
G2 X14.69 Y103.8 Z-1.1 I0.395 J-0.6842
G2 X13.505 Y103.1158 Z-1.1333 I-0.79 J0.0
G2 Y104.4842 Z-1.1667 I0.395 J0.6842
G2 X14.69 Y103.8 Z-1.2 I0.395 J-0.6842
G2 X13.505 Y103.1158 Z-1.2333 I-0.79 J0.0
G2 Y104.4842 Z-1.2667 I0.395 J0.6842
G2 X14.69 Y103.8 Z-1.3 I0.395 J-0.6842
G2 X13.505 Y103.1158 Z-1.3333 I-0.79 J0.0
G2 Y104.4842 Z-1.3667 I0.395 J0.6842
G2 X14.69 Y103.8 Z-1.4 I0.395 J-0.6842
G2 X13.505 Y103.1158 Z-1.4333 I-0.79 J0.0
G2 Y104.4842 Z-1.4667 I0.395 J0.6842
G2 X14.69 Y103.8 Z-1.5 I0.395 J-0.6842
G2 X13.505 Y103.1158 Z-1.5333 I-0.79 J0.0
G2 Y104.4842 Z-1.5667 I0.395 J0.6842
G2 X14.69 Y103.8 Z-1.6 I0.395 J-0.6842
G2 X13.505 Y103.1158 Z-1.6333 I-0.79 J0.0
G2 Y104.4842 Z-1.6667 I0.395 J0.6842
G2 X14.69 Y103.8 Z-1.7 I0.395 J-0.6842
G2 X13.505 Y103.1158 Z-1.7333 I-0.79 J0.0
G2 Y104.4842 Z-1.7667 I0.395 J0.6842
G2 X14.69 Y103.8 Z-1.8 I0.395 J-0.6842
G2 X13.505 Y103.1158 Z-1.8333 I-0.79 J0.0
G2 Y104.4842 Z-1.8667 I0.395 J0.6842
G2 X14.69 Y103.8 Z-1.9 I0.395 J-0.6842
G2 X13.505 Y103.1158 Z-1.9333 I-0.79 J0.0
G2 Y104.4842 Z-1.9667 I0.395 J0.6842
G2 X14.69 Y103.8 Z-2.0 I0.395 J-0.6842
G2 X13.505 Y103.1158 Z-2.0333 I-0.79 J0.0
G2 Y104.4842 Z-2.0667 I0.395 J0.6842
G2 X14.69 Y103.8 Z-2.1 I0.395 J-0.6842
G2 X13.505 Y103.1158 Z-2.1333 I-0.79 J0.0
G2 Y104.4842 Z-2.1667 I0.395 J0.6842
G2 X14.69 Y103.8 Z-2.2 I0.395 J-0.6842
G2 X13.505 Y103.1158 Z-2.2333 I-0.79 J0.0
G2 Y104.4842 Z-2.2667 I0.395 J0.6842
G2 X14.69 Y103.8 Z-2.3 I0.395 J-0.6842
G2 X13.505 Y103.1158 Z-2.3333 I-0.79 J0.0
G2 Y104.4842 Z-2.3667 I0.395 J0.6842
G2 X14.69 Y103.8 Z-2.4 I0.395 J-0.6842
G2 X13.505 Y103.1158 Z-2.4333 I-0.79 J0.0
G2 Y104.4842 Z-2.4667 I0.395 J0.6842
G2 X14.69 Y103.8 Z-2.5 I0.395 J-0.6842
G2 X13.505 Y103.1158 Z-2.5333 I-0.79 J0.0
G2 Y104.4842 Z-2.5667 I0.395 J0.6842
G2 X14.69 Y103.8 Z-2.6 I0.395 J-0.6842
G2 X13.505 Y103.1158 Z-2.6333 I-0.79 J0.0
G2 Y104.4842 Z-2.6667 I0.395 J0.6842
G2 X14.69 Y103.8 Z-2.7 I0.395 J-0.6842
G2 X13.505 Y103.1158 Z-2.7333 I-0.79 J0.0
G2 Y104.4842 Z-2.7667 I0.395 J0.6842
G2 X14.69 Y103.8 Z-2.8 I0.395 J-0.6842
G2 X13.505 Y103.1158 Z-2.8333 I-0.79 J0.0
G2 Y104.4842 Z-2.8667 I0.395 J0.6842
G2 X14.69 Y103.8 Z-2.9 I0.395 J-0.6842
G2 X13.505 Y103.1158 Z-2.9333 I-0.79 J0.0
G2 Y104.4842 Z-2.9667 I0.395 J0.6842
G2 X14.69 Y103.8 Z-3.0 I0.395 J-0.6842
G2 X13.505 Y103.1158 Z-3.0333 I-0.79 J0.0
G2 Y104.4842 Z-3.0667 I0.395 J0.6842
G2 X14.69 Y103.8 Z-3.1 I0.395 J-0.6842
G2 X13.505 Y103.1158 Z-3.1333 I-0.79 J0.0
G2 Y104.4842 Z-3.1667 I0.395 J0.6842
G2 X14.69 Y103.8 Z-3.2 I0.395 J-0.6842
G2 X13.505 Y103.1158 I-0.79 J0.0
G2 Y104.4842 I0.395 J0.6842
G2 X14.69 Y103.8 I0.395 J-0.6842
G0 Z3.0
G0 X42.76 Y103.86
G0 Z0.01
G1 F1000.0 Z0.0
G2 F2000.0 X41.575 Y103.1758 Z-0.0333 I-0.79 J0.0
G2 Y104.5442 Z-0.0667 I0.395 J0.6842
G2 X42.76 Y103.86 Z-0.1 I0.395 J-0.6842
G2 X41.575 Y103.1758 Z-0.1333 I-0.79 J0.0
G2 Y104.5442 Z-0.1667 I0.395 J0.6842
G2 X42.76 Y103.86 Z-0.2 I0.395 J-0.6842
G2 X41.575 Y103.1758 Z-0.2333 I-0.79 J0.0
G2 Y104.5442 Z-0.2667 I0.395 J0.6842
G2 X42.76 Y103.86 Z-0.3 I0.395 J-0.6842
G2 X41.575 Y103.1758 Z-0.3333 I-0.79 J0.0
G2 Y104.5442 Z-0.3667 I0.395 J0.6842
G2 X42.76 Y103.86 Z-0.4 I0.395 J-0.6842
G2 X41.575 Y103.1758 Z-0.4333 I-0.79 J0.0
G2 Y104.5442 Z-0.4667 I0.395 J0.6842
G2 X42.76 Y103.86 Z-0.5 I0.395 J-0.6842
G2 X41.575 Y103.1758 Z-0.5333 I-0.79 J0.0
G2 Y104.5442 Z-0.5667 I0.395 J0.6842
G2 X42.76 Y103.86 Z-0.6 I0.395 J-0.6842
G2 X41.575 Y103.1758 Z-0.6333 I-0.79 J0.0
G2 Y104.5442 Z-0.6667 I0.395 J0.6842
G2 X42.76 Y103.86 Z-0.7 I0.395 J-0.6842
G2 X41.575 Y103.1758 Z-0.7333 I-0.79 J0.0
G2 Y104.5442 Z-0.7667 I0.395 J0.6842
G2 X42.76 Y103.86 Z-0.8 I0.395 J-0.6842
G2 X41.575 Y103.1758 Z-0.8333 I-0.79 J0.0
G2 Y104.5442 Z-0.8667 I0.395 J0.6842
G2 X42.76 Y103.86 Z-0.9 I0.395 J-0.6842
G2 X41.575 Y103.1758 Z-0.9333 I-0.79 J0.0
G2 Y104.5442 Z-0.9667 I0.395 J0.6842
G2 X42.76 Y103.86 Z-1.0 I0.395 J-0.6842
G2 X41.575 Y103.1758 Z-1.0333 I-0.79 J0.0
G2 Y104.5442 Z-1.0667 I0.395 J0.6842
G2 X42.76 Y103.86 Z-1.1 I0.395 J-0.6842
G2 X41.575 Y103.1758 Z-1.1333 I-0.79 J0.0
G2 Y104.5442 Z-1.1667 I0.395 J0.6842
G2 X42.76 Y103.86 Z-1.2 I0.395 J-0.6842
G2 X41.575 Y103.1758 Z-1.2333 I-0.79 J0.0
G2 Y104.5442 Z-1.2667 I0.395 J0.6842
G2 X42.76 Y103.86 Z-1.3 I0.395 J-0.6842
G2 X41.575 Y103.1758 Z-1.3333 I-0.79 J0.0
G2 Y104.5442 Z-1.3667 I0.395 J0.6842
G2 X42.76 Y103.86 Z-1.4 I0.395 J-0.6842
G2 X41.575 Y103.1758 Z-1.4333 I-0.79 J0.0
G2 Y104.5442 Z-1.4667 I0.395 J0.6842
G2 X42.76 Y103.86 Z-1.5 I0.395 J-0.6842
G2 X41.575 Y103.1758 Z-1.5333 I-0.79 J0.0
G2 Y104.5442 Z-1.5667 I0.395 J0.6842
G2 X42.76 Y103.86 Z-1.6 I0.395 J-0.6842
G2 X41.575 Y103.1758 Z-1.6333 I-0.79 J0.0
G2 Y104.5442 Z-1.6667 I0.395 J0.6842
G2 X42.76 Y103.86 Z-1.7 I0.395 J-0.6842
G2 X41.575 Y103.1758 Z-1.7333 I-0.79 J0.0
G2 Y104.5442 Z-1.7667 I0.395 J0.6842
G2 X42.76 Y103.86 Z-1.8 I0.395 J-0.6842
G2 X41.575 Y103.1758 Z-1.8333 I-0.79 J0.0
G2 Y104.5442 Z-1.8667 I0.395 J0.6842
G2 X42.76 Y103.86 Z-1.9 I0.395 J-0.6842
G2 X41.575 Y103.1758 Z-1.9333 I-0.79 J0.0
G2 Y104.5442 Z-1.9667 I0.395 J0.6842
G2 X42.76 Y103.86 Z-2.0 I0.395 J-0.6842
G2 X41.575 Y103.1758 Z-2.0333 I-0.79 J0.0
G2 Y104.5442 Z-2.0667 I0.395 J0.6842
G2 X42.76 Y103.86 Z-2.1 I0.395 J-0.6842
G2 X41.575 Y103.1758 Z-2.1333 I-0.79 J0.0
G2 Y104.5442 Z-2.1667 I0.395 J0.6842
G2 X42.76 Y103.86 Z-2.2 I0.395 J-0.6842
G2 X41.575 Y103.1758 Z-2.2333 I-0.79 J0.0
G2 Y104.5442 Z-2.2667 I0.395 J0.6842
G2 X42.76 Y103.86 Z-2.3 I0.395 J-0.6842
G2 X41.575 Y103.1758 Z-2.3333 I-0.79 J0.0
G2 Y104.5442 Z-2.3667 I0.395 J0.6842
G2 X42.76 Y103.86 Z-2.4 I0.395 J-0.6842
G2 X41.575 Y103.1758 Z-2.4333 I-0.79 J0.0
G2 Y104.5442 Z-2.4667 I0.395 J0.6842
G2 X42.76 Y103.86 Z-2.5 I0.395 J-0.6842
G2 X41.575 Y103.1758 Z-2.5333 I-0.79 J0.0
G2 Y104.5442 Z-2.5667 I0.395 J0.6842
G2 X42.76 Y103.86 Z-2.6 I0.395 J-0.6842
G2 X41.575 Y103.1758 Z-2.6333 I-0.79 J0.0
G2 Y104.5442 Z-2.6667 I0.395 J0.6842
G2 X42.76 Y103.86 Z-2.7 I0.395 J-0.6842
G2 X41.575 Y103.1758 Z-2.7333 I-0.79 J0.0
G2 Y104.5442 Z-2.7667 I0.395 J0.6842
G2 X42.76 Y103.86 Z-2.8 I0.395 J-0.6842
G2 X41.575 Y103.1758 Z-2.8333 I-0.79 J0.0
G2 Y104.5442 Z-2.8667 I0.395 J0.6842
G2 X42.76 Y103.86 Z-2.9 I0.395 J-0.6842
G2 X41.575 Y103.1758 Z-2.9333 I-0.79 J0.0
G2 Y104.5442 Z-2.9667 I0.395 J0.6842
G2 X42.76 Y103.86 Z-3.0 I0.395 J-0.6842
G2 X41.575 Y103.1758 Z-3.0333 I-0.79 J0.0
G2 Y104.5442 Z-3.0667 I0.395 J0.6842
G2 X42.76 Y103.86 Z-3.1 I0.395 J-0.6842
G2 X41.575 Y103.1758 Z-3.1333 I-0.79 J0.0
G2 Y104.5442 Z-3.1667 I0.395 J0.6842
G2 X42.76 Y103.86 Z-3.2 I0.395 J-0.6842
G2 X41.575 Y103.1758 I-0.79 J0.0
G2 Y104.5442 I0.395 J0.6842
G2 X42.76 Y103.86 I0.395 J-0.6842
( 1/8in jacks )
S1000
G0 Z3.0
G0 X33.7 Y78.3
G0 Z3.0
G0 X33.775 Y78.3
G0 Z0.01
G1 F1000.0 Z0.0
G2 F2000.0 X33.6625 Y78.235 Z-0.0333 I-0.075 J0.0
G2 Y78.365 Z-0.0667 I0.0375 J0.065
G2 X33.775 Y78.3 Z-0.1 I0.0375 J-0.065
G2 X33.6625 Y78.235 Z-0.1333 I-0.075 J0.0
G2 Y78.365 Z-0.1667 I0.0375 J0.065
G2 X33.775 Y78.3 Z-0.2 I0.0375 J-0.065
G2 X33.6625 Y78.235 Z-0.2333 I-0.075 J0.0
G2 Y78.365 Z-0.2667 I0.0375 J0.065
G2 X33.775 Y78.3 Z-0.3 I0.0375 J-0.065
G2 X33.6625 Y78.235 Z-0.3333 I-0.075 J0.0
G2 Y78.365 Z-0.3667 I0.0375 J0.065
G2 X33.775 Y78.3 Z-0.4 I0.0375 J-0.065
G2 X33.6625 Y78.235 Z-0.4333 I-0.075 J0.0
G2 Y78.365 Z-0.4667 I0.0375 J0.065
G2 X33.775 Y78.3 Z-0.5 I0.0375 J-0.065
G2 X33.6625 Y78.235 Z-0.5333 I-0.075 J0.0
G2 Y78.365 Z-0.5667 I0.0375 J0.065
G2 X33.775 Y78.3 Z-0.6 I0.0375 J-0.065
G2 X33.6625 Y78.235 Z-0.6333 I-0.075 J0.0
G2 Y78.365 Z-0.6667 I0.0375 J0.065
G2 X33.775 Y78.3 Z-0.7 I0.0375 J-0.065
G2 X33.6625 Y78.235 Z-0.7333 I-0.075 J0.0
G2 Y78.365 Z-0.7667 I0.0375 J0.065
G2 X33.775 Y78.3 Z-0.8 I0.0375 J-0.065
G2 X33.6625 Y78.235 Z-0.8333 I-0.075 J0.0
G2 Y78.365 Z-0.8667 I0.0375 J0.065
G2 X33.775 Y78.3 Z-0.9 I0.0375 J-0.065
G2 X33.6625 Y78.235 Z-0.9333 I-0.075 J0.0
G2 Y78.365 Z-0.9667 I0.0375 J0.065
G2 X33.775 Y78.3 Z-1.0 I0.0375 J-0.065
G2 X33.6625 Y78.235 Z-1.0333 I-0.075 J0.0
G2 Y78.365 Z-1.0667 I0.0375 J0.065
G2 X33.775 Y78.3 Z-1.1 I0.0375 J-0.065
G2 X33.6625 Y78.235 Z-1.1333 I-0.075 J0.0
G2 Y78.365 Z-1.1667 I0.0375 J0.065
G2 X33.775 Y78.3 Z-1.2 I0.0375 J-0.065
G2 X33.6625 Y78.235 Z-1.2333 I-0.075 J0.0
G2 Y78.365 Z-1.2667 I0.0375 J0.065
G2 X33.775 Y78.3 Z-1.3 I0.0375 J-0.065
G2 X33.6625 Y78.235 Z-1.3333 I-0.075 J0.0
G2 Y78.365 Z-1.3667 I0.0375 J0.065
G2 X33.775 Y78.3 Z-1.4 I0.0375 J-0.065
G2 X33.6625 Y78.235 Z-1.4333 I-0.075 J0.0
G2 Y78.365 Z-1.4667 I0.0375 J0.065
G2 X33.775 Y78.3 Z-1.5 I0.0375 J-0.065
G2 X33.6625 Y78.235 Z-1.5333 I-0.075 J0.0
G2 Y78.365 Z-1.5667 I0.0375 J0.065
G2 X33.775 Y78.3 Z-1.6 I0.0375 J-0.065
G2 X33.6625 Y78.235 Z-1.6333 I-0.075 J0.0
G2 Y78.365 Z-1.6667 I0.0375 J0.065
G2 X33.775 Y78.3 Z-1.7 I0.0375 J-0.065
G2 X33.6625 Y78.235 Z-1.7333 I-0.075 J0.0
G2 Y78.365 Z-1.7667 I0.0375 J0.065
G2 X33.775 Y78.3 Z-1.8 I0.0375 J-0.065
G2 X33.6625 Y78.235 Z-1.8333 I-0.075 J0.0
G2 Y78.365 Z-1.8667 I0.0375 J0.065
G2 X33.775 Y78.3 Z-1.9 I0.0375 J-0.065
G2 X33.6625 Y78.235 Z-1.9333 I-0.075 J0.0
G2 Y78.365 Z-1.9667 I0.0375 J0.065
G2 X33.775 Y78.3 Z-2.0 I0.0375 J-0.065
G2 X33.6625 Y78.235 Z-2.0333 I-0.075 J0.0
G2 Y78.365 Z-2.0667 I0.0375 J0.065
G2 X33.775 Y78.3 Z-2.1 I0.0375 J-0.065
G2 X33.6625 Y78.235 Z-2.1333 I-0.075 J0.0
G2 Y78.365 Z-2.1667 I0.0375 J0.065
G2 X33.775 Y78.3 Z-2.2 I0.0375 J-0.065
G2 X33.6625 Y78.235 Z-2.2333 I-0.075 J0.0
G2 Y78.365 Z-2.2667 I0.0375 J0.065
G2 X33.775 Y78.3 Z-2.3 I0.0375 J-0.065
G2 X33.6625 Y78.235 Z-2.3333 I-0.075 J0.0
G2 Y78.365 Z-2.3667 I0.0375 J0.065
G2 X33.775 Y78.3 Z-2.4 I0.0375 J-0.065
G2 X33.6625 Y78.235 Z-2.4333 I-0.075 J0.0
G2 Y78.365 Z-2.4667 I0.0375 J0.065
G2 X33.775 Y78.3 Z-2.5 I0.0375 J-0.065
G2 X33.6625 Y78.235 Z-2.5333 I-0.075 J0.0
G2 Y78.365 Z-2.5667 I0.0375 J0.065
G2 X33.775 Y78.3 Z-2.6 I0.0375 J-0.065
G2 X33.6625 Y78.235 Z-2.6333 I-0.075 J0.0
G2 Y78.365 Z-2.6667 I0.0375 J0.065
G2 X33.775 Y78.3 Z-2.7 I0.0375 J-0.065
G2 X33.6625 Y78.235 Z-2.7333 I-0.075 J0.0
G2 Y78.365 Z-2.7667 I0.0375 J0.065
G2 X33.775 Y78.3 Z-2.8 I0.0375 J-0.065
G2 X33.6625 Y78.235 Z-2.8333 I-0.075 J0.0
G2 Y78.365 Z-2.8667 I0.0375 J0.065
G2 X33.775 Y78.3 Z-2.9 I0.0375 J-0.065
G2 X33.6625 Y78.235 Z-2.9333 I-0.075 J0.0
G2 Y78.365 Z-2.9667 I0.0375 J0.065
G2 X33.775 Y78.3 Z-3.0 I0.0375 J-0.065
G2 X33.6625 Y78.235 Z-3.0333 I-0.075 J0.0
G2 Y78.365 Z-3.0667 I0.0375 J0.065
G2 X33.775 Y78.3 Z-3.1 I0.0375 J-0.065
G2 X33.6625 Y78.235 Z-3.1333 I-0.075 J0.0
G2 Y78.365 Z-3.1667 I0.0375 J0.065
G2 X33.775 Y78.3 Z-3.2 I0.0375 J-0.065
G2 X33.6625 Y78.235 I-0.075 J0.0
G2 Y78.365 I0.0375 J0.065
G2 X33.775 Y78.3 I0.0375 J-0.065
G0 Z3.0
G0 X40.975 Y67.0
G0 Z0.01
G1 F1000.0 Z0.0
G2 F2000.0 X40.8625 Y66.935 Z-0.0333 I-0.075 J0.0
G2 Y67.065 Z-0.0667 I0.0375 J0.065
G2 X40.975 Y67.0 Z-0.1 I0.0375 J-0.065
G2 X40.8625 Y66.935 Z-0.1333 I-0.075 J0.0
G2 Y67.065 Z-0.1667 I0.0375 J0.065
G2 X40.975 Y67.0 Z-0.2 I0.0375 J-0.065
G2 X40.8625 Y66.935 Z-0.2333 I-0.075 J0.0
G2 Y67.065 Z-0.2667 I0.0375 J0.065
G2 X40.975 Y67.0 Z-0.3 I0.0375 J-0.065
G2 X40.8625 Y66.935 Z-0.3333 I-0.075 J0.0
G2 Y67.065 Z-0.3667 I0.0375 J0.065
G2 X40.975 Y67.0 Z-0.4 I0.0375 J-0.065
G2 X40.8625 Y66.935 Z-0.4333 I-0.075 J0.0
G2 Y67.065 Z-0.4667 I0.0375 J0.065
G2 X40.975 Y67.0 Z-0.5 I0.0375 J-0.065
G2 X40.8625 Y66.935 Z-0.5333 I-0.075 J0.0
G2 Y67.065 Z-0.5667 I0.0375 J0.065
G2 X40.975 Y67.0 Z-0.6 I0.0375 J-0.065
G2 X40.8625 Y66.935 Z-0.6333 I-0.075 J0.0
G2 Y67.065 Z-0.6667 I0.0375 J0.065
G2 X40.975 Y67.0 Z-0.7 I0.0375 J-0.065
G2 X40.8625 Y66.935 Z-0.7333 I-0.075 J0.0
G2 Y67.065 Z-0.7667 I0.0375 J0.065
G2 X40.975 Y67.0 Z-0.8 I0.0375 J-0.065
G2 X40.8625 Y66.935 Z-0.8333 I-0.075 J0.0
G2 Y67.065 Z-0.8667 I0.0375 J0.065
G2 X40.975 Y67.0 Z-0.9 I0.0375 J-0.065
G2 X40.8625 Y66.935 Z-0.9333 I-0.075 J0.0
G2 Y67.065 Z-0.9667 I0.0375 J0.065
G2 X40.975 Y67.0 Z-1.0 I0.0375 J-0.065
G2 X40.8625 Y66.935 Z-1.0333 I-0.075 J0.0
G2 Y67.065 Z-1.0667 I0.0375 J0.065
G2 X40.975 Y67.0 Z-1.1 I0.0375 J-0.065
G2 X40.8625 Y66.935 Z-1.1333 I-0.075 J0.0
G2 Y67.065 Z-1.1667 I0.0375 J0.065
G2 X40.975 Y67.0 Z-1.2 I0.0375 J-0.065
G2 X40.8625 Y66.935 Z-1.2333 I-0.075 J0.0
G2 Y67.065 Z-1.2667 I0.0375 J0.065
G2 X40.975 Y67.0 Z-1.3 I0.0375 J-0.065
G2 X40.8625 Y66.935 Z-1.3333 I-0.075 J0.0
G2 Y67.065 Z-1.3667 I0.0375 J0.065
G2 X40.975 Y67.0 Z-1.4 I0.0375 J-0.065
G2 X40.8625 Y66.935 Z-1.4333 I-0.075 J0.0
G2 Y67.065 Z-1.4667 I0.0375 J0.065
G2 X40.975 Y67.0 Z-1.5 I0.0375 J-0.065
G2 X40.8625 Y66.935 Z-1.5333 I-0.075 J0.0
G2 Y67.065 Z-1.5667 I0.0375 J0.065
G2 X40.975 Y67.0 Z-1.6 I0.0375 J-0.065
G2 X40.8625 Y66.935 Z-1.6333 I-0.075 J0.0
G2 Y67.065 Z-1.6667 I0.0375 J0.065
G2 X40.975 Y67.0 Z-1.7 I0.0375 J-0.065
G2 X40.8625 Y66.935 Z-1.7333 I-0.075 J0.0
G2 Y67.065 Z-1.7667 I0.0375 J0.065
G2 X40.975 Y67.0 Z-1.8 I0.0375 J-0.065
G2 X40.8625 Y66.935 Z-1.8333 I-0.075 J0.0
G2 Y67.065 Z-1.8667 I0.0375 J0.065
G2 X40.975 Y67.0 Z-1.9 I0.0375 J-0.065
G2 X40.8625 Y66.935 Z-1.9333 I-0.075 J0.0
G2 Y67.065 Z-1.9667 I0.0375 J0.065
G2 X40.975 Y67.0 Z-2.0 I0.0375 J-0.065
G2 X40.8625 Y66.935 Z-2.0333 I-0.075 J0.0
G2 Y67.065 Z-2.0667 I0.0375 J0.065
G2 X40.975 Y67.0 Z-2.1 I0.0375 J-0.065
G2 X40.8625 Y66.935 Z-2.1333 I-0.075 J0.0
G2 Y67.065 Z-2.1667 I0.0375 J0.065
G2 X40.975 Y67.0 Z-2.2 I0.0375 J-0.065
G2 X40.8625 Y66.935 Z-2.2333 I-0.075 J0.0
G2 Y67.065 Z-2.2667 I0.0375 J0.065
G2 X40.975 Y67.0 Z-2.3 I0.0375 J-0.065
G2 X40.8625 Y66.935 Z-2.3333 I-0.075 J0.0
G2 Y67.065 Z-2.3667 I0.0375 J0.065
G2 X40.975 Y67.0 Z-2.4 I0.0375 J-0.065
G2 X40.8625 Y66.935 Z-2.4333 I-0.075 J0.0
G2 Y67.065 Z-2.4667 I0.0375 J0.065
G2 X40.975 Y67.0 Z-2.5 I0.0375 J-0.065
G2 X40.8625 Y66.935 Z-2.5333 I-0.075 J0.0
G2 Y67.065 Z-2.5667 I0.0375 J0.065
G2 X40.975 Y67.0 Z-2.6 I0.0375 J-0.065
G2 X40.8625 Y66.935 Z-2.6333 I-0.075 J0.0
G2 Y67.065 Z-2.6667 I0.0375 J0.065
G2 X40.975 Y67.0 Z-2.7 I0.0375 J-0.065
G2 X40.8625 Y66.935 Z-2.7333 I-0.075 J0.0
G2 Y67.065 Z-2.7667 I0.0375 J0.065
G2 X40.975 Y67.0 Z-2.8 I0.0375 J-0.065
G2 X40.8625 Y66.935 Z-2.8333 I-0.075 J0.0
G2 Y67.065 Z-2.8667 I0.0375 J0.065
G2 X40.975 Y67.0 Z-2.9 I0.0375 J-0.065
G2 X40.8625 Y66.935 Z-2.9333 I-0.075 J0.0
G2 Y67.065 Z-2.9667 I0.0375 J0.065
G2 X40.975 Y67.0 Z-3.0 I0.0375 J-0.065
G2 X40.8625 Y66.935 Z-3.0333 I-0.075 J0.0
G2 Y67.065 Z-3.0667 I0.0375 J0.065
G2 X40.975 Y67.0 Z-3.1 I0.0375 J-0.065
G2 X40.8625 Y66.935 Z-3.1333 I-0.075 J0.0
G2 Y67.065 Z-3.1667 I0.0375 J0.065
G2 X40.975 Y67.0 Z-3.2 I0.0375 J-0.065
G2 X40.8625 Y66.935 I-0.075 J0.0
G2 Y67.065 I0.0375 J0.065
G2 X40.975 Y67.0 I0.0375 J-0.065
G0 Z3.0
G0 X41.775 Y55.4
G0 Z0.01
G1 F1000.0 Z0.0
G2 F2000.0 X41.6625 Y55.335 Z-0.0333 I-0.075 J0.0
G2 Y55.465 Z-0.0667 I0.0375 J0.065
G2 X41.775 Y55.4 Z-0.1 I0.0375 J-0.065
G2 X41.6625 Y55.335 Z-0.1333 I-0.075 J0.0
G2 Y55.465 Z-0.1667 I0.0375 J0.065
G2 X41.775 Y55.4 Z-0.2 I0.0375 J-0.065
G2 X41.6625 Y55.335 Z-0.2333 I-0.075 J0.0
G2 Y55.465 Z-0.2667 I0.0375 J0.065
G2 X41.775 Y55.4 Z-0.3 I0.0375 J-0.065
G2 X41.6625 Y55.335 Z-0.3333 I-0.075 J0.0
G2 Y55.465 Z-0.3667 I0.0375 J0.065
G2 X41.775 Y55.4 Z-0.4 I0.0375 J-0.065
G2 X41.6625 Y55.335 Z-0.4333 I-0.075 J0.0
G2 Y55.465 Z-0.4667 I0.0375 J0.065
G2 X41.775 Y55.4 Z-0.5 I0.0375 J-0.065
G2 X41.6625 Y55.335 Z-0.5333 I-0.075 J0.0
G2 Y55.465 Z-0.5667 I0.0375 J0.065
G2 X41.775 Y55.4 Z-0.6 I0.0375 J-0.065
G2 X41.6625 Y55.335 Z-0.6333 I-0.075 J0.0
G2 Y55.465 Z-0.6667 I0.0375 J0.065
G2 X41.775 Y55.4 Z-0.7 I0.0375 J-0.065
G2 X41.6625 Y55.335 Z-0.7333 I-0.075 J0.0
G2 Y55.465 Z-0.7667 I0.0375 J0.065
G2 X41.775 Y55.4 Z-0.8 I0.0375 J-0.065
G2 X41.6625 Y55.335 Z-0.8333 I-0.075 J0.0
G2 Y55.465 Z-0.8667 I0.0375 J0.065
G2 X41.775 Y55.4 Z-0.9 I0.0375 J-0.065
G2 X41.6625 Y55.335 Z-0.9333 I-0.075 J0.0
G2 Y55.465 Z-0.9667 I0.0375 J0.065
G2 X41.775 Y55.4 Z-1.0 I0.0375 J-0.065
G2 X41.6625 Y55.335 Z-1.0333 I-0.075 J0.0
G2 Y55.465 Z-1.0667 I0.0375 J0.065
G2 X41.775 Y55.4 Z-1.1 I0.0375 J-0.065
G2 X41.6625 Y55.335 Z-1.1333 I-0.075 J0.0
G2 Y55.465 Z-1.1667 I0.0375 J0.065
G2 X41.775 Y55.4 Z-1.2 I0.0375 J-0.065
G2 X41.6625 Y55.335 Z-1.2333 I-0.075 J0.0
G2 Y55.465 Z-1.2667 I0.0375 J0.065
G2 X41.775 Y55.4 Z-1.3 I0.0375 J-0.065
G2 X41.6625 Y55.335 Z-1.3333 I-0.075 J0.0
G2 Y55.465 Z-1.3667 I0.0375 J0.065
G2 X41.775 Y55.4 Z-1.4 I0.0375 J-0.065
G2 X41.6625 Y55.335 Z-1.4333 I-0.075 J0.0
G2 Y55.465 Z-1.4667 I0.0375 J0.065
G2 X41.775 Y55.4 Z-1.5 I0.0375 J-0.065
G2 X41.6625 Y55.335 Z-1.5333 I-0.075 J0.0
G2 Y55.465 Z-1.5667 I0.0375 J0.065
G2 X41.775 Y55.4 Z-1.6 I0.0375 J-0.065
G2 X41.6625 Y55.335 Z-1.6333 I-0.075 J0.0
G2 Y55.465 Z-1.6667 I0.0375 J0.065
G2 X41.775 Y55.4 Z-1.7 I0.0375 J-0.065
G2 X41.6625 Y55.335 Z-1.7333 I-0.075 J0.0
G2 Y55.465 Z-1.7667 I0.0375 J0.065
G2 X41.775 Y55.4 Z-1.8 I0.0375 J-0.065
G2 X41.6625 Y55.335 Z-1.8333 I-0.075 J0.0
G2 Y55.465 Z-1.8667 I0.0375 J0.065
G2 X41.775 Y55.4 Z-1.9 I0.0375 J-0.065
G2 X41.6625 Y55.335 Z-1.9333 I-0.075 J0.0
G2 Y55.465 Z-1.9667 I0.0375 J0.065
G2 X41.775 Y55.4 Z-2.0 I0.0375 J-0.065
G2 X41.6625 Y55.335 Z-2.0333 I-0.075 J0.0
G2 Y55.465 Z-2.0667 I0.0375 J0.065
G2 X41.775 Y55.4 Z-2.1 I0.0375 J-0.065
G2 X41.6625 Y55.335 Z-2.1333 I-0.075 J0.0
G2 Y55.465 Z-2.1667 I0.0375 J0.065
G2 X41.775 Y55.4 Z-2.2 I0.0375 J-0.065
G2 X41.6625 Y55.335 Z-2.2333 I-0.075 J0.0
G2 Y55.465 Z-2.2667 I0.0375 J0.065
G2 X41.775 Y55.4 Z-2.3 I0.0375 J-0.065
G2 X41.6625 Y55.335 Z-2.3333 I-0.075 J0.0
G2 Y55.465 Z-2.3667 I0.0375 J0.065
G2 X41.775 Y55.4 Z-2.4 I0.0375 J-0.065
G2 X41.6625 Y55.335 Z-2.4333 I-0.075 J0.0
G2 Y55.465 Z-2.4667 I0.0375 J0.065
G2 X41.775 Y55.4 Z-2.5 I0.0375 J-0.065
G2 X41.6625 Y55.335 Z-2.5333 I-0.075 J0.0
G2 Y55.465 Z-2.5667 I0.0375 J0.065
G2 X41.775 Y55.4 Z-2.6 I0.0375 J-0.065
G2 X41.6625 Y55.335 Z-2.6333 I-0.075 J0.0
G2 Y55.465 Z-2.6667 I0.0375 J0.065
G2 X41.775 Y55.4 Z-2.7 I0.0375 J-0.065
G2 X41.6625 Y55.335 Z-2.7333 I-0.075 J0.0
G2 Y55.465 Z-2.7667 I0.0375 J0.065
G2 X41.775 Y55.4 Z-2.8 I0.0375 J-0.065
G2 X41.6625 Y55.335 Z-2.8333 I-0.075 J0.0
G2 Y55.465 Z-2.8667 I0.0375 J0.065
G2 X41.775 Y55.4 Z-2.9 I0.0375 J-0.065
G2 X41.6625 Y55.335 Z-2.9333 I-0.075 J0.0
G2 Y55.465 Z-2.9667 I0.0375 J0.065
G2 X41.775 Y55.4 Z-3.0 I0.0375 J-0.065
G2 X41.6625 Y55.335 Z-3.0333 I-0.075 J0.0
G2 Y55.465 Z-3.0667 I0.0375 J0.065
G2 X41.775 Y55.4 Z-3.1 I0.0375 J-0.065
G2 X41.6625 Y55.335 Z-3.1333 I-0.075 J0.0
G2 Y55.465 Z-3.1667 I0.0375 J0.065
G2 X41.775 Y55.4 Z-3.2 I0.0375 J-0.065
G2 X41.6625 Y55.335 I-0.075 J0.0
G2 Y55.465 I0.0375 J0.065
G2 X41.775 Y55.4 I0.0375 J-0.065
G0 Z3.0
G0 X26.275 Y43.4
G0 Z0.01
G1 F1000.0 Z0.0
G2 F2000.0 X26.1625 Y43.335 Z-0.0333 I-0.075 J0.0
G2 Y43.465 Z-0.0667 I0.0375 J0.065
G2 X26.275 Y43.4 Z-0.1 I0.0375 J-0.065
G2 X26.1625 Y43.335 Z-0.1333 I-0.075 J0.0
G2 Y43.465 Z-0.1667 I0.0375 J0.065
G2 X26.275 Y43.4 Z-0.2 I0.0375 J-0.065
G2 X26.1625 Y43.335 Z-0.2333 I-0.075 J0.0
G2 Y43.465 Z-0.2667 I0.0375 J0.065
G2 X26.275 Y43.4 Z-0.3 I0.0375 J-0.065
G2 X26.1625 Y43.335 Z-0.3333 I-0.075 J0.0
G2 Y43.465 Z-0.3667 I0.0375 J0.065
G2 X26.275 Y43.4 Z-0.4 I0.0375 J-0.065
G2 X26.1625 Y43.335 Z-0.4333 I-0.075 J0.0
G2 Y43.465 Z-0.4667 I0.0375 J0.065
G2 X26.275 Y43.4 Z-0.5 I0.0375 J-0.065
G2 X26.1625 Y43.335 Z-0.5333 I-0.075 J0.0
G2 Y43.465 Z-0.5667 I0.0375 J0.065
G2 X26.275 Y43.4 Z-0.6 I0.0375 J-0.065
G2 X26.1625 Y43.335 Z-0.6333 I-0.075 J0.0
G2 Y43.465 Z-0.6667 I0.0375 J0.065
G2 X26.275 Y43.4 Z-0.7 I0.0375 J-0.065
G2 X26.1625 Y43.335 Z-0.7333 I-0.075 J0.0
G2 Y43.465 Z-0.7667 I0.0375 J0.065
G2 X26.275 Y43.4 Z-0.8 I0.0375 J-0.065
G2 X26.1625 Y43.335 Z-0.8333 I-0.075 J0.0
G2 Y43.465 Z-0.8667 I0.0375 J0.065
G2 X26.275 Y43.4 Z-0.9 I0.0375 J-0.065
G2 X26.1625 Y43.335 Z-0.9333 I-0.075 J0.0
G2 Y43.465 Z-0.9667 I0.0375 J0.065
G2 X26.275 Y43.4 Z-1.0 I0.0375 J-0.065
G2 X26.1625 Y43.335 Z-1.0333 I-0.075 J0.0
G2 Y43.465 Z-1.0667 I0.0375 J0.065
G2 X26.275 Y43.4 Z-1.1 I0.0375 J-0.065
G2 X26.1625 Y43.335 Z-1.1333 I-0.075 J0.0
G2 Y43.465 Z-1.1667 I0.0375 J0.065
G2 X26.275 Y43.4 Z-1.2 I0.0375 J-0.065
G2 X26.1625 Y43.335 Z-1.2333 I-0.075 J0.0
G2 Y43.465 Z-1.2667 I0.0375 J0.065
G2 X26.275 Y43.4 Z-1.3 I0.0375 J-0.065
G2 X26.1625 Y43.335 Z-1.3333 I-0.075 J0.0
G2 Y43.465 Z-1.3667 I0.0375 J0.065
G2 X26.275 Y43.4 Z-1.4 I0.0375 J-0.065
G2 X26.1625 Y43.335 Z-1.4333 I-0.075 J0.0
G2 Y43.465 Z-1.4667 I0.0375 J0.065
G2 X26.275 Y43.4 Z-1.5 I0.0375 J-0.065
G2 X26.1625 Y43.335 Z-1.5333 I-0.075 J0.0
G2 Y43.465 Z-1.5667 I0.0375 J0.065
G2 X26.275 Y43.4 Z-1.6 I0.0375 J-0.065
G2 X26.1625 Y43.335 Z-1.6333 I-0.075 J0.0
G2 Y43.465 Z-1.6667 I0.0375 J0.065
G2 X26.275 Y43.4 Z-1.7 I0.0375 J-0.065
G2 X26.1625 Y43.335 Z-1.7333 I-0.075 J0.0
G2 Y43.465 Z-1.7667 I0.0375 J0.065
G2 X26.275 Y43.4 Z-1.8 I0.0375 J-0.065
G2 X26.1625 Y43.335 Z-1.8333 I-0.075 J0.0
G2 Y43.465 Z-1.8667 I0.0375 J0.065
G2 X26.275 Y43.4 Z-1.9 I0.0375 J-0.065
G2 X26.1625 Y43.335 Z-1.9333 I-0.075 J0.0
G2 Y43.465 Z-1.9667 I0.0375 J0.065
G2 X26.275 Y43.4 Z-2.0 I0.0375 J-0.065
G2 X26.1625 Y43.335 Z-2.0333 I-0.075 J0.0
G2 Y43.465 Z-2.0667 I0.0375 J0.065
G2 X26.275 Y43.4 Z-2.1 I0.0375 J-0.065
G2 X26.1625 Y43.335 Z-2.1333 I-0.075 J0.0
G2 Y43.465 Z-2.1667 I0.0375 J0.065
G2 X26.275 Y43.4 Z-2.2 I0.0375 J-0.065
G2 X26.1625 Y43.335 Z-2.2333 I-0.075 J0.0
G2 Y43.465 Z-2.2667 I0.0375 J0.065
G2 X26.275 Y43.4 Z-2.3 I0.0375 J-0.065
G2 X26.1625 Y43.335 Z-2.3333 I-0.075 J0.0
G2 Y43.465 Z-2.3667 I0.0375 J0.065
G2 X26.275 Y43.4 Z-2.4 I0.0375 J-0.065
G2 X26.1625 Y43.335 Z-2.4333 I-0.075 J0.0
G2 Y43.465 Z-2.4667 I0.0375 J0.065
G2 X26.275 Y43.4 Z-2.5 I0.0375 J-0.065
G2 X26.1625 Y43.335 Z-2.5333 I-0.075 J0.0
G2 Y43.465 Z-2.5667 I0.0375 J0.065
G2 X26.275 Y43.4 Z-2.6 I0.0375 J-0.065
G2 X26.1625 Y43.335 Z-2.6333 I-0.075 J0.0
G2 Y43.465 Z-2.6667 I0.0375 J0.065
G2 X26.275 Y43.4 Z-2.7 I0.0375 J-0.065
G2 X26.1625 Y43.335 Z-2.7333 I-0.075 J0.0
G2 Y43.465 Z-2.7667 I0.0375 J0.065
G2 X26.275 Y43.4 Z-2.8 I0.0375 J-0.065
G2 X26.1625 Y43.335 Z-2.8333 I-0.075 J0.0
G2 Y43.465 Z-2.8667 I0.0375 J0.065
G2 X26.275 Y43.4 Z-2.9 I0.0375 J-0.065
G2 X26.1625 Y43.335 Z-2.9333 I-0.075 J0.0
G2 Y43.465 Z-2.9667 I0.0375 J0.065
G2 X26.275 Y43.4 Z-3.0 I0.0375 J-0.065
G2 X26.1625 Y43.335 Z-3.0333 I-0.075 J0.0
G2 Y43.465 Z-3.0667 I0.0375 J0.065
G2 X26.275 Y43.4 Z-3.1 I0.0375 J-0.065
G2 X26.1625 Y43.335 Z-3.1333 I-0.075 J0.0
G2 Y43.465 Z-3.1667 I0.0375 J0.065
G2 X26.275 Y43.4 Z-3.2 I0.0375 J-0.065
G2 X26.1625 Y43.335 I-0.075 J0.0
G2 Y43.465 I0.0375 J0.065
G2 X26.275 Y43.4 I0.0375 J-0.065
G0 Z3.0
G0 X14.775 Y55.3
G0 Z0.01
G1 F1000.0 Z0.0
G2 F2000.0 X14.6625 Y55.235 Z-0.0333 I-0.075 J0.0
G2 Y55.365 Z-0.0667 I0.0375 J0.065
G2 X14.775 Y55.3 Z-0.1 I0.0375 J-0.065
G2 X14.6625 Y55.235 Z-0.1333 I-0.075 J0.0
G2 Y55.365 Z-0.1667 I0.0375 J0.065
G2 X14.775 Y55.3 Z-0.2 I0.0375 J-0.065
G2 X14.6625 Y55.235 Z-0.2333 I-0.075 J0.0
G2 Y55.365 Z-0.2667 I0.0375 J0.065
G2 X14.775 Y55.3 Z-0.3 I0.0375 J-0.065
G2 X14.6625 Y55.235 Z-0.3333 I-0.075 J0.0
G2 Y55.365 Z-0.3667 I0.0375 J0.065
G2 X14.775 Y55.3 Z-0.4 I0.0375 J-0.065
G2 X14.6625 Y55.235 Z-0.4333 I-0.075 J0.0
G2 Y55.365 Z-0.4667 I0.0375 J0.065
G2 X14.775 Y55.3 Z-0.5 I0.0375 J-0.065
G2 X14.6625 Y55.235 Z-0.5333 I-0.075 J0.0
G2 Y55.365 Z-0.5667 I0.0375 J0.065
G2 X14.775 Y55.3 Z-0.6 I0.0375 J-0.065
G2 X14.6625 Y55.235 Z-0.6333 I-0.075 J0.0
G2 Y55.365 Z-0.6667 I0.0375 J0.065
G2 X14.775 Y55.3 Z-0.7 I0.0375 J-0.065
G2 X14.6625 Y55.235 Z-0.7333 I-0.075 J0.0
G2 Y55.365 Z-0.7667 I0.0375 J0.065
G2 X14.775 Y55.3 Z-0.8 I0.0375 J-0.065
G2 X14.6625 Y55.235 Z-0.8333 I-0.075 J0.0
G2 Y55.365 Z-0.8667 I0.0375 J0.065
G2 X14.775 Y55.3 Z-0.9 I0.0375 J-0.065
G2 X14.6625 Y55.235 Z-0.9333 I-0.075 J0.0
G2 Y55.365 Z-0.9667 I0.0375 J0.065
G2 X14.775 Y55.3 Z-1.0 I0.0375 J-0.065
G2 X14.6625 Y55.235 Z-1.0333 I-0.075 J0.0
G2 Y55.365 Z-1.0667 I0.0375 J0.065
G2 X14.775 Y55.3 Z-1.1 I0.0375 J-0.065
G2 X14.6625 Y55.235 Z-1.1333 I-0.075 J0.0
G2 Y55.365 Z-1.1667 I0.0375 J0.065
G2 X14.775 Y55.3 Z-1.2 I0.0375 J-0.065
G2 X14.6625 Y55.235 Z-1.2333 I-0.075 J0.0
G2 Y55.365 Z-1.2667 I0.0375 J0.065
G2 X14.775 Y55.3 Z-1.3 I0.0375 J-0.065
G2 X14.6625 Y55.235 Z-1.3333 I-0.075 J0.0
G2 Y55.365 Z-1.3667 I0.0375 J0.065
G2 X14.775 Y55.3 Z-1.4 I0.0375 J-0.065
G2 X14.6625 Y55.235 Z-1.4333 I-0.075 J0.0
G2 Y55.365 Z-1.4667 I0.0375 J0.065
G2 X14.775 Y55.3 Z-1.5 I0.0375 J-0.065
G2 X14.6625 Y55.235 Z-1.5333 I-0.075 J0.0
G2 Y55.365 Z-1.5667 I0.0375 J0.065
G2 X14.775 Y55.3 Z-1.6 I0.0375 J-0.065
G2 X14.6625 Y55.235 Z-1.6333 I-0.075 J0.0
G2 Y55.365 Z-1.6667 I0.0375 J0.065
G2 X14.775 Y55.3 Z-1.7 I0.0375 J-0.065
G2 X14.6625 Y55.235 Z-1.7333 I-0.075 J0.0
G2 Y55.365 Z-1.7667 I0.0375 J0.065
G2 X14.775 Y55.3 Z-1.8 I0.0375 J-0.065
G2 X14.6625 Y55.235 Z-1.8333 I-0.075 J0.0
G2 Y55.365 Z-1.8667 I0.0375 J0.065
G2 X14.775 Y55.3 Z-1.9 I0.0375 J-0.065
G2 X14.6625 Y55.235 Z-1.9333 I-0.075 J0.0
G2 Y55.365 Z-1.9667 I0.0375 J0.065
G2 X14.775 Y55.3 Z-2.0 I0.0375 J-0.065
G2 X14.6625 Y55.235 Z-2.0333 I-0.075 J0.0
G2 Y55.365 Z-2.0667 I0.0375 J0.065
G2 X14.775 Y55.3 Z-2.1 I0.0375 J-0.065
G2 X14.6625 Y55.235 Z-2.1333 I-0.075 J0.0
G2 Y55.365 Z-2.1667 I0.0375 J0.065
G2 X14.775 Y55.3 Z-2.2 I0.0375 J-0.065
G2 X14.6625 Y55.235 Z-2.2333 I-0.075 J0.0
G2 Y55.365 Z-2.2667 I0.0375 J0.065
G2 X14.775 Y55.3 Z-2.3 I0.0375 J-0.065
G2 X14.6625 Y55.235 Z-2.3333 I-0.075 J0.0
G2 Y55.365 Z-2.3667 I0.0375 J0.065
G2 X14.775 Y55.3 Z-2.4 I0.0375 J-0.065
G2 X14.6625 Y55.235 Z-2.4333 I-0.075 J0.0
G2 Y55.365 Z-2.4667 I0.0375 J0.065
G2 X14.775 Y55.3 Z-2.5 I0.0375 J-0.065
G2 X14.6625 Y55.235 Z-2.5333 I-0.075 J0.0
G2 Y55.365 Z-2.5667 I0.0375 J0.065
G2 X14.775 Y55.3 Z-2.6 I0.0375 J-0.065
G2 X14.6625 Y55.235 Z-2.6333 I-0.075 J0.0
G2 Y55.365 Z-2.6667 I0.0375 J0.065
G2 X14.775 Y55.3 Z-2.7 I0.0375 J-0.065
G2 X14.6625 Y55.235 Z-2.7333 I-0.075 J0.0
G2 Y55.365 Z-2.7667 I0.0375 J0.065
G2 X14.775 Y55.3 Z-2.8 I0.0375 J-0.065
G2 X14.6625 Y55.235 Z-2.8333 I-0.075 J0.0
G2 Y55.365 Z-2.8667 I0.0375 J0.065
G2 X14.775 Y55.3 Z-2.9 I0.0375 J-0.065
G2 X14.6625 Y55.235 Z-2.9333 I-0.075 J0.0
G2 Y55.365 Z-2.9667 I0.0375 J0.065
G2 X14.775 Y55.3 Z-3.0 I0.0375 J-0.065
G2 X14.6625 Y55.235 Z-3.0333 I-0.075 J0.0
G2 Y55.365 Z-3.0667 I0.0375 J0.065
G2 X14.775 Y55.3 Z-3.1 I0.0375 J-0.065
G2 X14.6625 Y55.235 Z-3.1333 I-0.075 J0.0
G2 Y55.365 Z-3.1667 I0.0375 J0.065
G2 X14.775 Y55.3 Z-3.2 I0.0375 J-0.065
G2 X14.6625 Y55.235 I-0.075 J0.0
G2 Y55.365 I0.0375 J0.065
G2 X14.775 Y55.3 I0.0375 J-0.065
G0 Z3.0
G0 X9.175 Y21.0
G0 Z0.01
G1 F1000.0 Z0.0
G2 F2000.0 X9.0625 Y20.935 Z-0.0333 I-0.075 J0.0
G2 Y21.065 Z-0.0667 I0.0375 J0.065
G2 X9.175 Y21.0 Z-0.1 I0.0375 J-0.065
G2 X9.0625 Y20.935 Z-0.1333 I-0.075 J0.0
G2 Y21.065 Z-0.1667 I0.0375 J0.065
G2 X9.175 Y21.0 Z-0.2 I0.0375 J-0.065
G2 X9.0625 Y20.935 Z-0.2333 I-0.075 J0.0
G2 Y21.065 Z-0.2667 I0.0375 J0.065
G2 X9.175 Y21.0 Z-0.3 I0.0375 J-0.065
G2 X9.0625 Y20.935 Z-0.3333 I-0.075 J0.0
G2 Y21.065 Z-0.3667 I0.0375 J0.065
G2 X9.175 Y21.0 Z-0.4 I0.0375 J-0.065
G2 X9.0625 Y20.935 Z-0.4333 I-0.075 J0.0
G2 Y21.065 Z-0.4667 I0.0375 J0.065
G2 X9.175 Y21.0 Z-0.5 I0.0375 J-0.065
G2 X9.0625 Y20.935 Z-0.5333 I-0.075 J0.0
G2 Y21.065 Z-0.5667 I0.0375 J0.065
G2 X9.175 Y21.0 Z-0.6 I0.0375 J-0.065
G2 X9.0625 Y20.935 Z-0.6333 I-0.075 J0.0
G2 Y21.065 Z-0.6667 I0.0375 J0.065
G2 X9.175 Y21.0 Z-0.7 I0.0375 J-0.065
G2 X9.0625 Y20.935 Z-0.7333 I-0.075 J0.0
G2 Y21.065 Z-0.7667 I0.0375 J0.065
G2 X9.175 Y21.0 Z-0.8 I0.0375 J-0.065
G2 X9.0625 Y20.935 Z-0.8333 I-0.075 J0.0
G2 Y21.065 Z-0.8667 I0.0375 J0.065
G2 X9.175 Y21.0 Z-0.9 I0.0375 J-0.065
G2 X9.0625 Y20.935 Z-0.9333 I-0.075 J0.0
G2 Y21.065 Z-0.9667 I0.0375 J0.065
G2 X9.175 Y21.0 Z-1.0 I0.0375 J-0.065
G2 X9.0625 Y20.935 Z-1.0333 I-0.075 J0.0
G2 Y21.065 Z-1.0667 I0.0375 J0.065
G2 X9.175 Y21.0 Z-1.1 I0.0375 J-0.065
G2 X9.0625 Y20.935 Z-1.1333 I-0.075 J0.0
G2 Y21.065 Z-1.1667 I0.0375 J0.065
G2 X9.175 Y21.0 Z-1.2 I0.0375 J-0.065
G2 X9.0625 Y20.935 Z-1.2333 I-0.075 J0.0
G2 Y21.065 Z-1.2667 I0.0375 J0.065
G2 X9.175 Y21.0 Z-1.3 I0.0375 J-0.065
G2 X9.0625 Y20.935 Z-1.3333 I-0.075 J0.0
G2 Y21.065 Z-1.3667 I0.0375 J0.065
G2 X9.175 Y21.0 Z-1.4 I0.0375 J-0.065
G2 X9.0625 Y20.935 Z-1.4333 I-0.075 J0.0
G2 Y21.065 Z-1.4667 I0.0375 J0.065
G2 X9.175 Y21.0 Z-1.5 I0.0375 J-0.065
G2 X9.0625 Y20.935 Z-1.5333 I-0.075 J0.0
G2 Y21.065 Z-1.5667 I0.0375 J0.065
G2 X9.175 Y21.0 Z-1.6 I0.0375 J-0.065
G2 X9.0625 Y20.935 Z-1.6333 I-0.075 J0.0
G2 Y21.065 Z-1.6667 I0.0375 J0.065
G2 X9.175 Y21.0 Z-1.7 I0.0375 J-0.065
G2 X9.0625 Y20.935 Z-1.7333 I-0.075 J0.0
G2 Y21.065 Z-1.7667 I0.0375 J0.065
G2 X9.175 Y21.0 Z-1.8 I0.0375 J-0.065
G2 X9.0625 Y20.935 Z-1.8333 I-0.075 J0.0
G2 Y21.065 Z-1.8667 I0.0375 J0.065
G2 X9.175 Y21.0 Z-1.9 I0.0375 J-0.065
G2 X9.0625 Y20.935 Z-1.9333 I-0.075 J0.0
G2 Y21.065 Z-1.9667 I0.0375 J0.065
G2 X9.175 Y21.0 Z-2.0 I0.0375 J-0.065
G2 X9.0625 Y20.935 Z-2.0333 I-0.075 J0.0
G2 Y21.065 Z-2.0667 I0.0375 J0.065
G2 X9.175 Y21.0 Z-2.1 I0.0375 J-0.065
G2 X9.0625 Y20.935 Z-2.1333 I-0.075 J0.0
G2 Y21.065 Z-2.1667 I0.0375 J0.065
G2 X9.175 Y21.0 Z-2.2 I0.0375 J-0.065
G2 X9.0625 Y20.935 Z-2.2333 I-0.075 J0.0
G2 Y21.065 Z-2.2667 I0.0375 J0.065
G2 X9.175 Y21.0 Z-2.3 I0.0375 J-0.065
G2 X9.0625 Y20.935 Z-2.3333 I-0.075 J0.0
G2 Y21.065 Z-2.3667 I0.0375 J0.065
G2 X9.175 Y21.0 Z-2.4 I0.0375 J-0.065
G2 X9.0625 Y20.935 Z-2.4333 I-0.075 J0.0
G2 Y21.065 Z-2.4667 I0.0375 J0.065
G2 X9.175 Y21.0 Z-2.5 I0.0375 J-0.065
G2 X9.0625 Y20.935 Z-2.5333 I-0.075 J0.0
G2 Y21.065 Z-2.5667 I0.0375 J0.065
G2 X9.175 Y21.0 Z-2.6 I0.0375 J-0.065
G2 X9.0625 Y20.935 Z-2.6333 I-0.075 J0.0
G2 Y21.065 Z-2.6667 I0.0375 J0.065
G2 X9.175 Y21.0 Z-2.7 I0.0375 J-0.065
G2 X9.0625 Y20.935 Z-2.7333 I-0.075 J0.0
G2 Y21.065 Z-2.7667 I0.0375 J0.065
G2 X9.175 Y21.0 Z-2.8 I0.0375 J-0.065
G2 X9.0625 Y20.935 Z-2.8333 I-0.075 J0.0
G2 Y21.065 Z-2.8667 I0.0375 J0.065
G2 X9.175 Y21.0 Z-2.9 I0.0375 J-0.065
G2 X9.0625 Y20.935 Z-2.9333 I-0.075 J0.0
G2 Y21.065 Z-2.9667 I0.0375 J0.065
G2 X9.175 Y21.0 Z-3.0 I0.0375 J-0.065
G2 X9.0625 Y20.935 Z-3.0333 I-0.075 J0.0
G2 Y21.065 Z-3.0667 I0.0375 J0.065
G2 X9.175 Y21.0 Z-3.1 I0.0375 J-0.065
G2 X9.0625 Y20.935 Z-3.1333 I-0.075 J0.0
G2 Y21.065 Z-3.1667 I0.0375 J0.065
G2 X9.175 Y21.0 Z-3.2 I0.0375 J-0.065
G2 X9.0625 Y20.935 I-0.075 J0.0
G2 Y21.065 I0.0375 J0.065
G2 X9.175 Y21.0 I0.0375 J-0.065
G0 Z3.0
G0 X27.175
G0 Z0.01
G1 F1000.0 Z0.0
G2 F2000.0 X27.0625 Y20.935 Z-0.0333 I-0.075 J0.0
G2 Y21.065 Z-0.0667 I0.0375 J0.065
G2 X27.175 Y21.0 Z-0.1 I0.0375 J-0.065
G2 X27.0625 Y20.935 Z-0.1333 I-0.075 J0.0
G2 Y21.065 Z-0.1667 I0.0375 J0.065
G2 X27.175 Y21.0 Z-0.2 I0.0375 J-0.065
G2 X27.0625 Y20.935 Z-0.2333 I-0.075 J0.0
G2 Y21.065 Z-0.2667 I0.0375 J0.065
G2 X27.175 Y21.0 Z-0.3 I0.0375 J-0.065
G2 X27.0625 Y20.935 Z-0.3333 I-0.075 J0.0
G2 Y21.065 Z-0.3667 I0.0375 J0.065
G2 X27.175 Y21.0 Z-0.4 I0.0375 J-0.065
G2 X27.0625 Y20.935 Z-0.4333 I-0.075 J0.0
G2 Y21.065 Z-0.4667 I0.0375 J0.065
G2 X27.175 Y21.0 Z-0.5 I0.0375 J-0.065
G2 X27.0625 Y20.935 Z-0.5333 I-0.075 J0.0
G2 Y21.065 Z-0.5667 I0.0375 J0.065
G2 X27.175 Y21.0 Z-0.6 I0.0375 J-0.065
G2 X27.0625 Y20.935 Z-0.6333 I-0.075 J0.0
G2 Y21.065 Z-0.6667 I0.0375 J0.065
G2 X27.175 Y21.0 Z-0.7 I0.0375 J-0.065
G2 X27.0625 Y20.935 Z-0.7333 I-0.075 J0.0
G2 Y21.065 Z-0.7667 I0.0375 J0.065
G2 X27.175 Y21.0 Z-0.8 I0.0375 J-0.065
G2 X27.0625 Y20.935 Z-0.8333 I-0.075 J0.0
G2 Y21.065 Z-0.8667 I0.0375 J0.065
G2 X27.175 Y21.0 Z-0.9 I0.0375 J-0.065
G2 X27.0625 Y20.935 Z-0.9333 I-0.075 J0.0
G2 Y21.065 Z-0.9667 I0.0375 J0.065
G2 X27.175 Y21.0 Z-1.0 I0.0375 J-0.065
G2 X27.0625 Y20.935 Z-1.0333 I-0.075 J0.0
G2 Y21.065 Z-1.0667 I0.0375 J0.065
G2 X27.175 Y21.0 Z-1.1 I0.0375 J-0.065
G2 X27.0625 Y20.935 Z-1.1333 I-0.075 J0.0
G2 Y21.065 Z-1.1667 I0.0375 J0.065
G2 X27.175 Y21.0 Z-1.2 I0.0375 J-0.065
G2 X27.0625 Y20.935 Z-1.2333 I-0.075 J0.0
G2 Y21.065 Z-1.2667 I0.0375 J0.065
G2 X27.175 Y21.0 Z-1.3 I0.0375 J-0.065
G2 X27.0625 Y20.935 Z-1.3333 I-0.075 J0.0
G2 Y21.065 Z-1.3667 I0.0375 J0.065
G2 X27.175 Y21.0 Z-1.4 I0.0375 J-0.065
G2 X27.0625 Y20.935 Z-1.4333 I-0.075 J0.0
G2 Y21.065 Z-1.4667 I0.0375 J0.065
G2 X27.175 Y21.0 Z-1.5 I0.0375 J-0.065
G2 X27.0625 Y20.935 Z-1.5333 I-0.075 J0.0
G2 Y21.065 Z-1.5667 I0.0375 J0.065
G2 X27.175 Y21.0 Z-1.6 I0.0375 J-0.065
G2 X27.0625 Y20.935 Z-1.6333 I-0.075 J0.0
G2 Y21.065 Z-1.6667 I0.0375 J0.065
G2 X27.175 Y21.0 Z-1.7 I0.0375 J-0.065
G2 X27.0625 Y20.935 Z-1.7333 I-0.075 J0.0
G2 Y21.065 Z-1.7667 I0.0375 J0.065
G2 X27.175 Y21.0 Z-1.8 I0.0375 J-0.065
G2 X27.0625 Y20.935 Z-1.8333 I-0.075 J0.0
G2 Y21.065 Z-1.8667 I0.0375 J0.065
G2 X27.175 Y21.0 Z-1.9 I0.0375 J-0.065
G2 X27.0625 Y20.935 Z-1.9333 I-0.075 J0.0
G2 Y21.065 Z-1.9667 I0.0375 J0.065
G2 X27.175 Y21.0 Z-2.0 I0.0375 J-0.065
G2 X27.0625 Y20.935 Z-2.0333 I-0.075 J0.0
G2 Y21.065 Z-2.0667 I0.0375 J0.065
G2 X27.175 Y21.0 Z-2.1 I0.0375 J-0.065
G2 X27.0625 Y20.935 Z-2.1333 I-0.075 J0.0
G2 Y21.065 Z-2.1667 I0.0375 J0.065
G2 X27.175 Y21.0 Z-2.2 I0.0375 J-0.065
G2 X27.0625 Y20.935 Z-2.2333 I-0.075 J0.0
G2 Y21.065 Z-2.2667 I0.0375 J0.065
G2 X27.175 Y21.0 Z-2.3 I0.0375 J-0.065
G2 X27.0625 Y20.935 Z-2.3333 I-0.075 J0.0
G2 Y21.065 Z-2.3667 I0.0375 J0.065
G2 X27.175 Y21.0 Z-2.4 I0.0375 J-0.065
G2 X27.0625 Y20.935 Z-2.4333 I-0.075 J0.0
G2 Y21.065 Z-2.4667 I0.0375 J0.065
G2 X27.175 Y21.0 Z-2.5 I0.0375 J-0.065
G2 X27.0625 Y20.935 Z-2.5333 I-0.075 J0.0
G2 Y21.065 Z-2.5667 I0.0375 J0.065
G2 X27.175 Y21.0 Z-2.6 I0.0375 J-0.065
G2 X27.0625 Y20.935 Z-2.6333 I-0.075 J0.0
G2 Y21.065 Z-2.6667 I0.0375 J0.065
G2 X27.175 Y21.0 Z-2.7 I0.0375 J-0.065
G2 X27.0625 Y20.935 Z-2.7333 I-0.075 J0.0
G2 Y21.065 Z-2.7667 I0.0375 J0.065
G2 X27.175 Y21.0 Z-2.8 I0.0375 J-0.065
G2 X27.0625 Y20.935 Z-2.8333 I-0.075 J0.0
G2 Y21.065 Z-2.8667 I0.0375 J0.065
G2 X27.175 Y21.0 Z-2.9 I0.0375 J-0.065
G2 X27.0625 Y20.935 Z-2.9333 I-0.075 J0.0
G2 Y21.065 Z-2.9667 I0.0375 J0.065
G2 X27.175 Y21.0 Z-3.0 I0.0375 J-0.065
G2 X27.0625 Y20.935 Z-3.0333 I-0.075 J0.0
G2 Y21.065 Z-3.0667 I0.0375 J0.065
G2 X27.175 Y21.0 Z-3.1 I0.0375 J-0.065
G2 X27.0625 Y20.935 Z-3.1333 I-0.075 J0.0
G2 Y21.065 Z-3.1667 I0.0375 J0.065
G2 X27.175 Y21.0 Z-3.2 I0.0375 J-0.065
G2 X27.0625 Y20.935 I-0.075 J0.0
G2 Y21.065 I0.0375 J0.065
G2 X27.175 Y21.0 I0.0375 J-0.065
G0 Z3.0
G0 X45.375
G0 Z0.01
G1 F1000.0 Z0.0
G2 F2000.0 X45.2625 Y20.935 Z-0.0333 I-0.075 J0.0
G2 Y21.065 Z-0.0667 I0.0375 J0.065
G2 X45.375 Y21.0 Z-0.1 I0.0375 J-0.065
G2 X45.2625 Y20.935 Z-0.1333 I-0.075 J0.0
G2 Y21.065 Z-0.1667 I0.0375 J0.065
G2 X45.375 Y21.0 Z-0.2 I0.0375 J-0.065
G2 X45.2625 Y20.935 Z-0.2333 I-0.075 J0.0
G2 Y21.065 Z-0.2667 I0.0375 J0.065
G2 X45.375 Y21.0 Z-0.3 I0.0375 J-0.065
G2 X45.2625 Y20.935 Z-0.3333 I-0.075 J0.0
G2 Y21.065 Z-0.3667 I0.0375 J0.065
G2 X45.375 Y21.0 Z-0.4 I0.0375 J-0.065
G2 X45.2625 Y20.935 Z-0.4333 I-0.075 J0.0
G2 Y21.065 Z-0.4667 I0.0375 J0.065
G2 X45.375 Y21.0 Z-0.5 I0.0375 J-0.065
G2 X45.2625 Y20.935 Z-0.5333 I-0.075 J0.0
G2 Y21.065 Z-0.5667 I0.0375 J0.065
G2 X45.375 Y21.0 Z-0.6 I0.0375 J-0.065
G2 X45.2625 Y20.935 Z-0.6333 I-0.075 J0.0
G2 Y21.065 Z-0.6667 I0.0375 J0.065
G2 X45.375 Y21.0 Z-0.7 I0.0375 J-0.065
G2 X45.2625 Y20.935 Z-0.7333 I-0.075 J0.0
G2 Y21.065 Z-0.7667 I0.0375 J0.065
G2 X45.375 Y21.0 Z-0.8 I0.0375 J-0.065
G2 X45.2625 Y20.935 Z-0.8333 I-0.075 J0.0
G2 Y21.065 Z-0.8667 I0.0375 J0.065
G2 X45.375 Y21.0 Z-0.9 I0.0375 J-0.065
G2 X45.2625 Y20.935 Z-0.9333 I-0.075 J0.0
G2 Y21.065 Z-0.9667 I0.0375 J0.065
G2 X45.375 Y21.0 Z-1.0 I0.0375 J-0.065
G2 X45.2625 Y20.935 Z-1.0333 I-0.075 J0.0
G2 Y21.065 Z-1.0667 I0.0375 J0.065
G2 X45.375 Y21.0 Z-1.1 I0.0375 J-0.065
G2 X45.2625 Y20.935 Z-1.1333 I-0.075 J0.0
G2 Y21.065 Z-1.1667 I0.0375 J0.065
G2 X45.375 Y21.0 Z-1.2 I0.0375 J-0.065
G2 X45.2625 Y20.935 Z-1.2333 I-0.075 J0.0
G2 Y21.065 Z-1.2667 I0.0375 J0.065
G2 X45.375 Y21.0 Z-1.3 I0.0375 J-0.065
G2 X45.2625 Y20.935 Z-1.3333 I-0.075 J0.0
G2 Y21.065 Z-1.3667 I0.0375 J0.065
G2 X45.375 Y21.0 Z-1.4 I0.0375 J-0.065
G2 X45.2625 Y20.935 Z-1.4333 I-0.075 J0.0
G2 Y21.065 Z-1.4667 I0.0375 J0.065
G2 X45.375 Y21.0 Z-1.5 I0.0375 J-0.065
G2 X45.2625 Y20.935 Z-1.5333 I-0.075 J0.0
G2 Y21.065 Z-1.5667 I0.0375 J0.065
G2 X45.375 Y21.0 Z-1.6 I0.0375 J-0.065
G2 X45.2625 Y20.935 Z-1.6333 I-0.075 J0.0
G2 Y21.065 Z-1.6667 I0.0375 J0.065
G2 X45.375 Y21.0 Z-1.7 I0.0375 J-0.065
G2 X45.2625 Y20.935 Z-1.7333 I-0.075 J0.0
G2 Y21.065 Z-1.7667 I0.0375 J0.065
G2 X45.375 Y21.0 Z-1.8 I0.0375 J-0.065
G2 X45.2625 Y20.935 Z-1.8333 I-0.075 J0.0
G2 Y21.065 Z-1.8667 I0.0375 J0.065
G2 X45.375 Y21.0 Z-1.9 I0.0375 J-0.065
G2 X45.2625 Y20.935 Z-1.9333 I-0.075 J0.0
G2 Y21.065 Z-1.9667 I0.0375 J0.065
G2 X45.375 Y21.0 Z-2.0 I0.0375 J-0.065
G2 X45.2625 Y20.935 Z-2.0333 I-0.075 J0.0
G2 Y21.065 Z-2.0667 I0.0375 J0.065
G2 X45.375 Y21.0 Z-2.1 I0.0375 J-0.065
G2 X45.2625 Y20.935 Z-2.1333 I-0.075 J0.0
G2 Y21.065 Z-2.1667 I0.0375 J0.065
G2 X45.375 Y21.0 Z-2.2 I0.0375 J-0.065
G2 X45.2625 Y20.935 Z-2.2333 I-0.075 J0.0
G2 Y21.065 Z-2.2667 I0.0375 J0.065
G2 X45.375 Y21.0 Z-2.3 I0.0375 J-0.065
G2 X45.2625 Y20.935 Z-2.3333 I-0.075 J0.0
G2 Y21.065 Z-2.3667 I0.0375 J0.065
G2 X45.375 Y21.0 Z-2.4 I0.0375 J-0.065
G2 X45.2625 Y20.935 Z-2.4333 I-0.075 J0.0
G2 Y21.065 Z-2.4667 I0.0375 J0.065
G2 X45.375 Y21.0 Z-2.5 I0.0375 J-0.065
G2 X45.2625 Y20.935 Z-2.5333 I-0.075 J0.0
G2 Y21.065 Z-2.5667 I0.0375 J0.065
G2 X45.375 Y21.0 Z-2.6 I0.0375 J-0.065
G2 X45.2625 Y20.935 Z-2.6333 I-0.075 J0.0
G2 Y21.065 Z-2.6667 I0.0375 J0.065
G2 X45.375 Y21.0 Z-2.7 I0.0375 J-0.065
G2 X45.2625 Y20.935 Z-2.7333 I-0.075 J0.0
G2 Y21.065 Z-2.7667 I0.0375 J0.065
G2 X45.375 Y21.0 Z-2.8 I0.0375 J-0.065
G2 X45.2625 Y20.935 Z-2.8333 I-0.075 J0.0
G2 Y21.065 Z-2.8667 I0.0375 J0.065
G2 X45.375 Y21.0 Z-2.9 I0.0375 J-0.065
G2 X45.2625 Y20.935 Z-2.9333 I-0.075 J0.0
G2 Y21.065 Z-2.9667 I0.0375 J0.065
G2 X45.375 Y21.0 Z-3.0 I0.0375 J-0.065
G2 X45.2625 Y20.935 Z-3.0333 I-0.075 J0.0
G2 Y21.065 Z-3.0667 I0.0375 J0.065
G2 X45.375 Y21.0 Z-3.1 I0.0375 J-0.065
G2 X45.2625 Y20.935 Z-3.1333 I-0.075 J0.0
G2 Y21.065 Z-3.1667 I0.0375 J0.065
G2 X45.375 Y21.0 Z-3.2 I0.0375 J-0.065
G2 X45.2625 Y20.935 I-0.075 J0.0
G2 Y21.065 I0.0375 J0.065
G2 X45.375 Y21.0 I0.0375 J-0.065
G0 Z3.0
G0 X46.875 Y34.3
G0 Z0.01
G1 F1000.0 Z0.0
G2 F2000.0 X46.7625 Y34.235 Z-0.0333 I-0.075 J0.0
G2 Y34.365 Z-0.0667 I0.0375 J0.065
G2 X46.875 Y34.3 Z-0.1 I0.0375 J-0.065
G2 X46.7625 Y34.235 Z-0.1333 I-0.075 J0.0
G2 Y34.365 Z-0.1667 I0.0375 J0.065
G2 X46.875 Y34.3 Z-0.2 I0.0375 J-0.065
G2 X46.7625 Y34.235 Z-0.2333 I-0.075 J0.0
G2 Y34.365 Z-0.2667 I0.0375 J0.065
G2 X46.875 Y34.3 Z-0.3 I0.0375 J-0.065
G2 X46.7625 Y34.235 Z-0.3333 I-0.075 J0.0
G2 Y34.365 Z-0.3667 I0.0375 J0.065
G2 X46.875 Y34.3 Z-0.4 I0.0375 J-0.065
G2 X46.7625 Y34.235 Z-0.4333 I-0.075 J0.0
G2 Y34.365 Z-0.4667 I0.0375 J0.065
G2 X46.875 Y34.3 Z-0.5 I0.0375 J-0.065
G2 X46.7625 Y34.235 Z-0.5333 I-0.075 J0.0
G2 Y34.365 Z-0.5667 I0.0375 J0.065
G2 X46.875 Y34.3 Z-0.6 I0.0375 J-0.065
G2 X46.7625 Y34.235 Z-0.6333 I-0.075 J0.0
G2 Y34.365 Z-0.6667 I0.0375 J0.065
G2 X46.875 Y34.3 Z-0.7 I0.0375 J-0.065
G2 X46.7625 Y34.235 Z-0.7333 I-0.075 J0.0
G2 Y34.365 Z-0.7667 I0.0375 J0.065
G2 X46.875 Y34.3 Z-0.8 I0.0375 J-0.065
G2 X46.7625 Y34.235 Z-0.8333 I-0.075 J0.0
G2 Y34.365 Z-0.8667 I0.0375 J0.065
G2 X46.875 Y34.3 Z-0.9 I0.0375 J-0.065
G2 X46.7625 Y34.235 Z-0.9333 I-0.075 J0.0
G2 Y34.365 Z-0.9667 I0.0375 J0.065
G2 X46.875 Y34.3 Z-1.0 I0.0375 J-0.065
G2 X46.7625 Y34.235 Z-1.0333 I-0.075 J0.0
G2 Y34.365 Z-1.0667 I0.0375 J0.065
G2 X46.875 Y34.3 Z-1.1 I0.0375 J-0.065
G2 X46.7625 Y34.235 Z-1.1333 I-0.075 J0.0
G2 Y34.365 Z-1.1667 I0.0375 J0.065
G2 X46.875 Y34.3 Z-1.2 I0.0375 J-0.065
G2 X46.7625 Y34.235 Z-1.2333 I-0.075 J0.0
G2 Y34.365 Z-1.2667 I0.0375 J0.065
G2 X46.875 Y34.3 Z-1.3 I0.0375 J-0.065
G2 X46.7625 Y34.235 Z-1.3333 I-0.075 J0.0
G2 Y34.365 Z-1.3667 I0.0375 J0.065
G2 X46.875 Y34.3 Z-1.4 I0.0375 J-0.065
G2 X46.7625 Y34.235 Z-1.4333 I-0.075 J0.0
G2 Y34.365 Z-1.4667 I0.0375 J0.065
G2 X46.875 Y34.3 Z-1.5 I0.0375 J-0.065
G2 X46.7625 Y34.235 Z-1.5333 I-0.075 J0.0
G2 Y34.365 Z-1.5667 I0.0375 J0.065
G2 X46.875 Y34.3 Z-1.6 I0.0375 J-0.065
G2 X46.7625 Y34.235 Z-1.6333 I-0.075 J0.0
G2 Y34.365 Z-1.6667 I0.0375 J0.065
G2 X46.875 Y34.3 Z-1.7 I0.0375 J-0.065
G2 X46.7625 Y34.235 Z-1.7333 I-0.075 J0.0
G2 Y34.365 Z-1.7667 I0.0375 J0.065
G2 X46.875 Y34.3 Z-1.8 I0.0375 J-0.065
G2 X46.7625 Y34.235 Z-1.8333 I-0.075 J0.0
G2 Y34.365 Z-1.8667 I0.0375 J0.065
G2 X46.875 Y34.3 Z-1.9 I0.0375 J-0.065
G2 X46.7625 Y34.235 Z-1.9333 I-0.075 J0.0
G2 Y34.365 Z-1.9667 I0.0375 J0.065
G2 X46.875 Y34.3 Z-2.0 I0.0375 J-0.065
G2 X46.7625 Y34.235 Z-2.0333 I-0.075 J0.0
G2 Y34.365 Z-2.0667 I0.0375 J0.065
G2 X46.875 Y34.3 Z-2.1 I0.0375 J-0.065
G2 X46.7625 Y34.235 Z-2.1333 I-0.075 J0.0
G2 Y34.365 Z-2.1667 I0.0375 J0.065
G2 X46.875 Y34.3 Z-2.2 I0.0375 J-0.065
G2 X46.7625 Y34.235 Z-2.2333 I-0.075 J0.0
G2 Y34.365 Z-2.2667 I0.0375 J0.065
G2 X46.875 Y34.3 Z-2.3 I0.0375 J-0.065
G2 X46.7625 Y34.235 Z-2.3333 I-0.075 J0.0
G2 Y34.365 Z-2.3667 I0.0375 J0.065
G2 X46.875 Y34.3 Z-2.4 I0.0375 J-0.065
G2 X46.7625 Y34.235 Z-2.4333 I-0.075 J0.0
G2 Y34.365 Z-2.4667 I0.0375 J0.065
G2 X46.875 Y34.3 Z-2.5 I0.0375 J-0.065
G2 X46.7625 Y34.235 Z-2.5333 I-0.075 J0.0
G2 Y34.365 Z-2.5667 I0.0375 J0.065
G2 X46.875 Y34.3 Z-2.6 I0.0375 J-0.065
G2 X46.7625 Y34.235 Z-2.6333 I-0.075 J0.0
G2 Y34.365 Z-2.6667 I0.0375 J0.065
G2 X46.875 Y34.3 Z-2.7 I0.0375 J-0.065
G2 X46.7625 Y34.235 Z-2.7333 I-0.075 J0.0
G2 Y34.365 Z-2.7667 I0.0375 J0.065
G2 X46.875 Y34.3 Z-2.8 I0.0375 J-0.065
G2 X46.7625 Y34.235 Z-2.8333 I-0.075 J0.0
G2 Y34.365 Z-2.8667 I0.0375 J0.065
G2 X46.875 Y34.3 Z-2.9 I0.0375 J-0.065
G2 X46.7625 Y34.235 Z-2.9333 I-0.075 J0.0
G2 Y34.365 Z-2.9667 I0.0375 J0.065
G2 X46.875 Y34.3 Z-3.0 I0.0375 J-0.065
G2 X46.7625 Y34.235 Z-3.0333 I-0.075 J0.0
G2 Y34.365 Z-3.0667 I0.0375 J0.065
G2 X46.875 Y34.3 Z-3.1 I0.0375 J-0.065
G2 X46.7625 Y34.235 Z-3.1333 I-0.075 J0.0
G2 Y34.365 Z-3.1667 I0.0375 J0.065
G2 X46.875 Y34.3 Z-3.2 I0.0375 J-0.065
G2 X46.7625 Y34.235 I-0.075 J0.0
G2 Y34.365 I0.0375 J0.065
G2 X46.875 Y34.3 I0.0375 J-0.065
G0 Z3.0
G0 X47.875 Y78.2
G0 Z0.01
G1 F1000.0 Z0.0
G2 F2000.0 X47.7625 Y78.135 Z-0.0333 I-0.075 J0.0
G2 Y78.265 Z-0.0667 I0.0375 J0.065
G2 X47.875 Y78.2 Z-0.1 I0.0375 J-0.065
G2 X47.7625 Y78.135 Z-0.1333 I-0.075 J0.0
G2 Y78.265 Z-0.1667 I0.0375 J0.065
G2 X47.875 Y78.2 Z-0.2 I0.0375 J-0.065
G2 X47.7625 Y78.135 Z-0.2333 I-0.075 J0.0
G2 Y78.265 Z-0.2667 I0.0375 J0.065
G2 X47.875 Y78.2 Z-0.3 I0.0375 J-0.065
G2 X47.7625 Y78.135 Z-0.3333 I-0.075 J0.0
G2 Y78.265 Z-0.3667 I0.0375 J0.065
G2 X47.875 Y78.2 Z-0.4 I0.0375 J-0.065
G2 X47.7625 Y78.135 Z-0.4333 I-0.075 J0.0
G2 Y78.265 Z-0.4667 I0.0375 J0.065
G2 X47.875 Y78.2 Z-0.5 I0.0375 J-0.065
G2 X47.7625 Y78.135 Z-0.5333 I-0.075 J0.0
G2 Y78.265 Z-0.5667 I0.0375 J0.065
G2 X47.875 Y78.2 Z-0.6 I0.0375 J-0.065
G2 X47.7625 Y78.135 Z-0.6333 I-0.075 J0.0
G2 Y78.265 Z-0.6667 I0.0375 J0.065
G2 X47.875 Y78.2 Z-0.7 I0.0375 J-0.065
G2 X47.7625 Y78.135 Z-0.7333 I-0.075 J0.0
G2 Y78.265 Z-0.7667 I0.0375 J0.065
G2 X47.875 Y78.2 Z-0.8 I0.0375 J-0.065
G2 X47.7625 Y78.135 Z-0.8333 I-0.075 J0.0
G2 Y78.265 Z-0.8667 I0.0375 J0.065
G2 X47.875 Y78.2 Z-0.9 I0.0375 J-0.065
G2 X47.7625 Y78.135 Z-0.9333 I-0.075 J0.0
G2 Y78.265 Z-0.9667 I0.0375 J0.065
G2 X47.875 Y78.2 Z-1.0 I0.0375 J-0.065
G2 X47.7625 Y78.135 Z-1.0333 I-0.075 J0.0
G2 Y78.265 Z-1.0667 I0.0375 J0.065
G2 X47.875 Y78.2 Z-1.1 I0.0375 J-0.065
G2 X47.7625 Y78.135 Z-1.1333 I-0.075 J0.0
G2 Y78.265 Z-1.1667 I0.0375 J0.065
G2 X47.875 Y78.2 Z-1.2 I0.0375 J-0.065
G2 X47.7625 Y78.135 Z-1.2333 I-0.075 J0.0
G2 Y78.265 Z-1.2667 I0.0375 J0.065
G2 X47.875 Y78.2 Z-1.3 I0.0375 J-0.065
G2 X47.7625 Y78.135 Z-1.3333 I-0.075 J0.0
G2 Y78.265 Z-1.3667 I0.0375 J0.065
G2 X47.875 Y78.2 Z-1.4 I0.0375 J-0.065
G2 X47.7625 Y78.135 Z-1.4333 I-0.075 J0.0
G2 Y78.265 Z-1.4667 I0.0375 J0.065
G2 X47.875 Y78.2 Z-1.5 I0.0375 J-0.065
G2 X47.7625 Y78.135 Z-1.5333 I-0.075 J0.0
G2 Y78.265 Z-1.5667 I0.0375 J0.065
G2 X47.875 Y78.2 Z-1.6 I0.0375 J-0.065
G2 X47.7625 Y78.135 Z-1.6333 I-0.075 J0.0
G2 Y78.265 Z-1.6667 I0.0375 J0.065
G2 X47.875 Y78.2 Z-1.7 I0.0375 J-0.065
G2 X47.7625 Y78.135 Z-1.7333 I-0.075 J0.0
G2 Y78.265 Z-1.7667 I0.0375 J0.065
G2 X47.875 Y78.2 Z-1.8 I0.0375 J-0.065
G2 X47.7625 Y78.135 Z-1.8333 I-0.075 J0.0
G2 Y78.265 Z-1.8667 I0.0375 J0.065
G2 X47.875 Y78.2 Z-1.9 I0.0375 J-0.065
G2 X47.7625 Y78.135 Z-1.9333 I-0.075 J0.0
G2 Y78.265 Z-1.9667 I0.0375 J0.065
G2 X47.875 Y78.2 Z-2.0 I0.0375 J-0.065
G2 X47.7625 Y78.135 Z-2.0333 I-0.075 J0.0
G2 Y78.265 Z-2.0667 I0.0375 J0.065
G2 X47.875 Y78.2 Z-2.1 I0.0375 J-0.065
G2 X47.7625 Y78.135 Z-2.1333 I-0.075 J0.0
G2 Y78.265 Z-2.1667 I0.0375 J0.065
G2 X47.875 Y78.2 Z-2.2 I0.0375 J-0.065
G2 X47.7625 Y78.135 Z-2.2333 I-0.075 J0.0
G2 Y78.265 Z-2.2667 I0.0375 J0.065
G2 X47.875 Y78.2 Z-2.3 I0.0375 J-0.065
G2 X47.7625 Y78.135 Z-2.3333 I-0.075 J0.0
G2 Y78.265 Z-2.3667 I0.0375 J0.065
G2 X47.875 Y78.2 Z-2.4 I0.0375 J-0.065
G2 X47.7625 Y78.135 Z-2.4333 I-0.075 J0.0
G2 Y78.265 Z-2.4667 I0.0375 J0.065
G2 X47.875 Y78.2 Z-2.5 I0.0375 J-0.065
G2 X47.7625 Y78.135 Z-2.5333 I-0.075 J0.0
G2 Y78.265 Z-2.5667 I0.0375 J0.065
G2 X47.875 Y78.2 Z-2.6 I0.0375 J-0.065
G2 X47.7625 Y78.135 Z-2.6333 I-0.075 J0.0
G2 Y78.265 Z-2.6667 I0.0375 J0.065
G2 X47.875 Y78.2 Z-2.7 I0.0375 J-0.065
G2 X47.7625 Y78.135 Z-2.7333 I-0.075 J0.0
G2 Y78.265 Z-2.7667 I0.0375 J0.065
G2 X47.875 Y78.2 Z-2.8 I0.0375 J-0.065
G2 X47.7625 Y78.135 Z-2.8333 I-0.075 J0.0
G2 Y78.265 Z-2.8667 I0.0375 J0.065
G2 X47.875 Y78.2 Z-2.9 I0.0375 J-0.065
G2 X47.7625 Y78.135 Z-2.9333 I-0.075 J0.0
G2 Y78.265 Z-2.9667 I0.0375 J0.065
G2 X47.875 Y78.2 Z-3.0 I0.0375 J-0.065
G2 X47.7625 Y78.135 Z-3.0333 I-0.075 J0.0
G2 Y78.265 Z-3.0667 I0.0375 J0.065
G2 X47.875 Y78.2 Z-3.1 I0.0375 J-0.065
G2 X47.7625 Y78.135 Z-3.1333 I-0.075 J0.0
G2 Y78.265 Z-3.1667 I0.0375 J0.065
G2 X47.875 Y78.2 Z-3.2 I0.0375 J-0.065
G2 X47.7625 Y78.135 I-0.075 J0.0
G2 Y78.265 I0.0375 J0.065
G2 X47.875 Y78.2 I0.0375 J-0.065
( mounting )
G0 Z3.0
( T3 : 3.175 )
T3 M6
M3 S1000
G0 X48.1 Y3.0
G0 Z3.0
G0 X48.1125 Y3.0
G0 Z0.01
G1 F1000.0 Z0.0
G2 F2000.0 X48.0937 Y2.9892 Z-0.0333 I-0.0125 J0.0
G2 Y3.0108 Z-0.0667 I0.0063 J0.0108
G2 X48.1125 Y3.0 Z-0.1 I0.0063 J-0.0108
G2 X48.0937 Y2.9892 Z-0.1333 I-0.0125 J0.0
G2 Y3.0108 Z-0.1667 I0.0063 J0.0108
G2 X48.1125 Y3.0 Z-0.2 I0.0063 J-0.0108
G2 X48.0937 Y2.9892 Z-0.2333 I-0.0125 J0.0
G2 Y3.0108 Z-0.2667 I0.0063 J0.0108
G2 X48.1125 Y3.0 Z-0.3 I0.0063 J-0.0108
G2 X48.0937 Y2.9892 Z-0.3333 I-0.0125 J0.0
G2 Y3.0108 Z-0.3667 I0.0063 J0.0108
G2 X48.1125 Y3.0 Z-0.4 I0.0063 J-0.0108
G2 X48.0937 Y2.9892 Z-0.4333 I-0.0125 J0.0
G2 Y3.0108 Z-0.4667 I0.0063 J0.0108
G2 X48.1125 Y3.0 Z-0.5 I0.0063 J-0.0108
G2 X48.0937 Y2.9892 Z-0.5333 I-0.0125 J0.0
G2 Y3.0108 Z-0.5667 I0.0063 J0.0108
G2 X48.1125 Y3.0 Z-0.6 I0.0063 J-0.0108
G2 X48.0937 Y2.9892 Z-0.6333 I-0.0125 J0.0
G2 Y3.0108 Z-0.6667 I0.0063 J0.0108
G2 X48.1125 Y3.0 Z-0.7 I0.0063 J-0.0108
