( Made using CamBam - http://www.cambam.co.uk )
( mfos_vco_VI_panel 5/24/2015 10:13:54 AM )
( T3 : 3.175 )
G21 G90 G64 G40
G0 Z3.0
( T3 : 3.175 )
T3 M6
( mounting )
G17
M3 S1000
G0 X48.1 Y3.0
G0 Z3.0
G0 X48.1125 Y3.0
G0 Z0.01
G1 F1000.0 Z0.0
G2 F2000.0 X48.0937 Y2.9892 Z-0.0333 I-0.0125 J0.0
G2 Y3.0108 Z-0.0667 I0.0063 J0.0108
G2 X48.1125 Y3.0 Z-0.1 I0.0063 J-0.0108
G2 X48.0937 Y2.9892 Z-0.1333 I-0.0125 J0.0
G2 Y3.0108 Z-0.1667 I0.0063 J0.0108
G2 X48.1125 Y3.0 Z-0.2 I0.0063 J-0.0108
G2 X48.0937 Y2.9892 Z-0.2333 I-0.0125 J0.0
G2 Y3.0108 Z-0.2667 I0.0063 J0.0108
G2 X48.1125 Y3.0 Z-0.3 I0.0063 J-0.0108
G2 X48.0937 Y2.9892 Z-0.3333 I-0.0125 J0.0
G2 Y3.0108 Z-0.3667 I0.0063 J0.0108
G2 X48.1125 Y3.0 Z-0.4 I0.0063 J-0.0108
G2 X48.0937 Y2.9892 Z-0.4333 I-0.0125 J0.0
G2 Y3.0108 Z-0.4667 I0.0063 J0.0108
G2 X48.1125 Y3.0 Z-0.5 I0.0063 J-0.0108
G2 X48.0937 Y2.9892 Z-0.5333 I-0.0125 J0.0
G2 Y3.0108 Z-0.5667 I0.0063 J0.0108
G2 X48.1125 Y3.0 Z-0.6 I0.0063 J-0.0108
G2 X48.0937 Y2.9892 Z-0.6333 I-0.0125 J0.0
G2 Y3.0108 Z-0.6667 I0.0063 J0.0108
G2 X48.1125 Y3.0 Z-0.7 I0.0063 J-0.0108
G2 X48.0937 Y2.9892 Z-0.7333 I-0.0125 J0.0
G2 Y3.0108 Z-0.7667 I0.0063 J0.0108
G2 X48.1125 Y3.0 Z-0.8 I0.0063 J-0.0108
G2 X48.0937 Y2.9892 Z-0.8333 I-0.0125 J0.0
G2 Y3.0108 Z-0.8667 I0.0063 J0.0108
G2 X48.1125 Y3.0 Z-0.9 I0.0063 J-0.0108
G2 X48.0937 Y2.9892 Z-0.9333 I-0.0125 J0.0
G2 Y3.0108 Z-0.9667 I0.0063 J0.0108
G2 X48.1125 Y3.0 Z-1.0 I0.0063 J-0.0108
G2 X48.0937 Y2.9892 Z-1.0333 I-0.0125 J0.0
G2 Y3.0108 Z-1.0667 I0.0063 J0.0108
G2 X48.1125 Y3.0 Z-1.1 I0.0063 J-0.0108
G2 X48.0937 Y2.9892 Z-1.1333 I-0.0125 J0.0
G2 Y3.0108 Z-1.1667 I0.0063 J0.0108
G2 X48.1125 Y3.0 Z-1.2 I0.0063 J-0.0108
G2 X48.0937 Y2.9892 Z-1.2333 I-0.0125 J0.0
G2 Y3.0108 Z-1.2667 I0.0063 J0.0108
G2 X48.1125 Y3.0 Z-1.3 I0.0063 J-0.0108
G2 X48.0937 Y2.9892 Z-1.3333 I-0.0125 J0.0
G2 Y3.0108 Z-1.3667 I0.0063 J0.0108
G2 X48.1125 Y3.0 Z-1.4 I0.0063 J-0.0108
G2 X48.0937 Y2.9892 Z-1.4333 I-0.0125 J0.0
G2 Y3.0108 Z-1.4667 I0.0063 J0.0108
G2 X48.1125 Y3.0 Z-1.5 I0.0063 J-0.0108
G2 X48.0937 Y2.9892 Z-1.5333 I-0.0125 J0.0
G2 Y3.0108 Z-1.5667 I0.0063 J0.0108
G2 X48.1125 Y3.0 Z-1.6 I0.0063 J-0.0108
G2 X48.0937 Y2.9892 Z-1.6333 I-0.0125 J0.0
G2 Y3.0108 Z-1.6667 I0.0063 J0.0108
G2 X48.1125 Y3.0 Z-1.7 I0.0063 J-0.0108
G2 X48.0937 Y2.9892 Z-1.7333 I-0.0125 J0.0
G2 Y3.0108 Z-1.7667 I0.0063 J0.0108
G2 X48.1125 Y3.0 Z-1.8 I0.0063 J-0.0108
G2 X48.0937 Y2.9892 Z-1.8333 I-0.0125 J0.0
G2 Y3.0108 Z-1.8667 I0.0063 J0.0108
G2 X48.1125 Y3.0 Z-1.9 I0.0063 J-0.0108
G2 X48.0937 Y2.9892 Z-1.9333 I-0.0125 J0.0
G2 Y3.0108 Z-1.9667 I0.0063 J0.0108
G2 X48.1125 Y3.0 Z-2.0 I0.0063 J-0.0108
G2 X48.0937 Y2.9892 Z-2.0333 I-0.0125 J0.0
G2 Y3.0108 Z-2.0667 I0.0063 J0.0108
G2 X48.1125 Y3.0 Z-2.1 I0.0063 J-0.0108
G2 X48.0937 Y2.9892 Z-2.1333 I-0.0125 J0.0
G2 Y3.0108 Z-2.1667 I0.0063 J0.0108
G2 X48.1125 Y3.0 Z-2.2 I0.0063 J-0.0108
G2 X48.0937 Y2.9892 Z-2.2333 I-0.0125 J0.0
G2 Y3.0108 Z-2.2667 I0.0063 J0.0108
G2 X48.1125 Y3.0 Z-2.3 I0.0063 J-0.0108
G2 X48.0937 Y2.9892 Z-2.3333 I-0.0125 J0.0
G2 Y3.0108 Z-2.3667 I0.0063 J0.0108
G2 X48.1125 Y3.0 Z-2.4 I0.0063 J-0.0108
G2 X48.0937 Y2.9892 Z-2.4333 I-0.0125 J0.0
G2 Y3.0108 Z-2.4667 I0.0063 J0.0108
G2 X48.1125 Y3.0 Z-2.5 I0.0063 J-0.0108
G2 X48.0937 Y2.9892 Z-2.5333 I-0.0125 J0.0
G2 Y3.0108 Z-2.5667 I0.0063 J0.0108
G2 X48.1125 Y3.0 Z-2.6 I0.0063 J-0.0108
G2 X48.0937 Y2.9892 Z-2.6333 I-0.0125 J0.0
G2 Y3.0108 Z-2.6667 I0.0063 J0.0108
G2 X48.1125 Y3.0 Z-2.7 I0.0063 J-0.0108
G2 X48.0937 Y2.9892 Z-2.7333 I-0.0125 J0.0
G2 Y3.0108 Z-2.7667 I0.0063 J0.0108
G2 X48.1125 Y3.0 Z-2.8 I0.0063 J-0.0108
G2 X48.0937 Y2.9892 Z-2.8333 I-0.0125 J0.0
G2 Y3.0108 Z-2.8667 I0.0063 J0.0108
G2 X48.1125 Y3.0 Z-2.9 I0.0063 J-0.0108
G2 X48.0937 Y2.9892 Z-2.9333 I-0.0125 J0.0
G2 Y3.0108 Z-2.9667 I0.0063 J0.0108
G2 X48.1125 Y3.0 Z-3.0 I0.0062 J-0.0108
G2 X48.0937 Y2.9892 Z-3.0333 I-0.0125 J0.0
G2 Y3.0108 Z-3.0667 I0.0063 J0.0108
G2 X48.1125 Y3.0 Z-3.1 I0.0062 J-0.0108
G2 X48.0937 Y2.9892 Z-3.1333 I-0.0125 J0.0
G2 Y3.0108 Z-3.1667 I0.0063 J0.0108
G2 X48.1125 Y3.0 Z-3.2 I0.0062 J-0.0108
G2 X48.0937 Y2.9892 I-0.0125 J0.0
G2 Y3.0108 I0.0063 J0.0108
G2 X48.1125 Y3.0 I0.0062 J-0.0108
G0 Z3.0
G0 X45.3125 Y21.0
G0 Z0.01
G1 F1000.0 Z0.0
G2 F2000.0 X45.2938 Y20.9892 Z-0.0333 I-0.0125 J0.0
G2 Y21.0108 Z-0.0667 I0.0063 J0.0108
G2 X45.3125 Y21.0 Z-0.1 I0.0063 J-0.0108
G2 X45.2938 Y20.9892 Z-0.1333 I-0.0125 J0.0
G2 Y21.0108 Z-0.1667 I0.0063 J0.0108
G2 X45.3125 Y21.0 Z-0.2 I0.0063 J-0.0108
G2 X45.2938 Y20.9892 Z-0.2333 I-0.0125 J0.0
G2 Y21.0108 Z-0.2667 I0.0063 J0.0108
G2 X45.3125 Y21.0 Z-0.3 I0.0063 J-0.0108
G2 X45.2938 Y20.9892 Z-0.3333 I-0.0125 J0.0
G2 Y21.0108 Z-0.3667 I0.0063 J0.0108
G2 X45.3125 Y21.0 Z-0.4 I0.0063 J-0.0108
G2 X45.2938 Y20.9892 Z-0.4333 I-0.0125 J0.0
G2 Y21.0108 Z-0.4667 I0.0063 J0.0108
G2 X45.3125 Y21.0 Z-0.5 I0.0063 J-0.0108
G2 X45.2938 Y20.9892 Z-0.5333 I-0.0125 J0.0
G2 Y21.0108 Z-0.5667 I0.0063 J0.0108
G2 X45.3125 Y21.0 Z-0.6 I0.0063 J-0.0108
G2 X45.2938 Y20.9892 Z-0.6333 I-0.0125 J0.0
G2 Y21.0108 Z-0.6667 I0.0063 J0.0108
G2 X45.3125 Y21.0 Z-0.7 I0.0063 J-0.0108
G2 X45.2938 Y20.9892 Z-0.7333 I-0.0125 J0.0
G2 Y21.0108 Z-0.7667 I0.0063 J0.0108
G2 X45.3125 Y21.0 Z-0.8 I0.0063 J-0.0108
G2 X45.2938 Y20.9892 Z-0.8333 I-0.0125 J0.0
G2 Y21.0108 Z-0.8667 I0.0063 J0.0108
G2 X45.3125 Y21.0 Z-0.9 I0.0063 J-0.0108
G2 X45.2938 Y20.9892 Z-0.9333 I-0.0125 J0.0
G2 Y21.0108 Z-0.9667 I0.0063 J0.0108
G2 X45.3125 Y21.0 Z-1.0 I0.0063 J-0.0108
G2 X45.2938 Y20.9892 Z-1.0333 I-0.0125 J0.0
G2 Y21.0108 Z-1.0667 I0.0063 J0.0108
G2 X45.3125 Y21.0 Z-1.1 I0.0063 J-0.0108
G2 X45.2938 Y20.9892 Z-1.1333 I-0.0125 J0.0
G2 Y21.0108 Z-1.1667 I0.0063 J0.0108
G2 X45.3125 Y21.0 Z-1.2 I0.0063 J-0.0108
G2 X45.2938 Y20.9892 Z-1.2333 I-0.0125 J0.0
G2 Y21.0108 Z-1.2667 I0.0063 J0.0108
G2 X45.3125 Y21.0 Z-1.3 I0.0063 J-0.0108
G2 X45.2938 Y20.9892 Z-1.3333 I-0.0125 J0.0
G2 Y21.0108 Z-1.3667 I0.0063 J0.0108
G2 X45.3125 Y21.0 Z-1.4 I0.0063 J-0.0108
G2 X45.2938 Y20.9892 Z-1.4333 I-0.0125 J0.0
G2 Y21.0108 Z-1.4667 I0.0063 J0.0108
G2 X45.3125 Y21.0 Z-1.5 I0.0063 J-0.0108
G2 X45.2938 Y20.9892 Z-1.5333 I-0.0125 J0.0
G2 Y21.0108 Z-1.5667 I0.0063 J0.0108
G2 X45.3125 Y21.0 Z-1.6 I0.0063 J-0.0108
G2 X45.2938 Y20.9892 Z-1.6333 I-0.0125 J0.0
G2 Y21.0108 Z-1.6667 I0.0063 J0.0108
G2 X45.3125 Y21.0 Z-1.7 I0.0063 J-0.0108
G2 X45.2938 Y20.9892 Z-1.7333 I-0.0125 J0.0
G2 Y21.0108 Z-1.7667 I0.0063 J0.0108
G2 X45.3125 Y21.0 Z-1.8 I0.0063 J-0.0108
G2 X45.2938 Y20.9892 Z-1.8333 I-0.0125 J0.0
G2 Y21.0108 Z-1.8667 I0.0063 J0.0108
G2 X45.3125 Y21.0 Z-1.9 I0.0063 J-0.0108
G2 X45.2938 Y20.9892 Z-1.9333 I-0.0125 J0.0
G2 Y21.0108 Z-1.9667 I0.0063 J0.0108
G2 X45.3125 Y21.0 Z-2.0 I0.0063 J-0.0108
G2 X45.2938 Y20.9892 Z-2.0333 I-0.0125 J0.0
G2 Y21.0108 Z-2.0667 I0.0063 J0.0108
G2 X45.3125 Y21.0 Z-2.1 I0.0063 J-0.0108
G2 X45.2938 Y20.9892 Z-2.1333 I-0.0125 J0.0
G2 Y21.0108 Z-2.1667 I0.0063 J0.0108
G2 X45.3125 Y21.0 Z-2.2 I0.0063 J-0.0108
G2 X45.2938 Y20.9892 Z-2.2333 I-0.0125 J0.0
G2 Y21.0108 Z-2.2667 I0.0063 J0.0108
G2 X45.3125 Y21.0 Z-2.3 I0.0063 J-0.0108
G2 X45.2938 Y20.9892 Z-2.3333 I-0.0125 J0.0
G2 Y21.0108 Z-2.3667 I0.0063 J0.0108
G2 X45.3125 Y21.0 Z-2.4 I0.0063 J-0.0108
G2 X45.2938 Y20.9892 Z-2.4333 I-0.0125 J0.0
G2 Y21.0108 Z-2.4667 I0.0063 J0.0108
G2 X45.3125 Y21.0 Z-2.5 I0.0063 J-0.0108
G2 X45.2938 Y20.9892 Z-2.5333 I-0.0125 J0.0
G2 Y21.0108 Z-2.5667 I0.0063 J0.0108
G2 X45.3125 Y21.0 Z-2.6 I0.0063 J-0.0108
G2 X45.2938 Y20.9892 Z-2.6333 I-0.0125 J0.0
G2 Y21.0108 Z-2.6667 I0.0063 J0.0108
G2 X45.3125 Y21.0 Z-2.7 I0.0063 J-0.0108
G2 X45.2938 Y20.9892 Z-2.7333 I-0.0125 J0.0
G2 Y21.0108 Z-2.7667 I0.0063 J0.0108
G2 X45.3125 Y21.0 Z-2.8 I0.0063 J-0.0108
G2 X45.2938 Y20.9892 Z-2.8333 I-0.0125 J0.0
G2 Y21.0108 Z-2.8667 I0.0063 J0.0108
G2 X45.3125 Y21.0 Z-2.9 I0.0063 J-0.0108
G2 X45.2938 Y20.9892 Z-2.9333 I-0.0125 J0.0
G2 Y21.0108 Z-2.9667 I0.0063 J0.0108
G2 X45.3125 Y21.0 Z-3.0 I0.0062 J-0.0108
G2 X45.2938 Y20.9892 Z-3.0333 I-0.0125 J0.0
G2 Y21.0108 Z-3.0667 I0.0063 J0.0108
G2 X45.3125 Y21.0 Z-3.1 I0.0062 J-0.0108
G2 X45.2938 Y20.9892 Z-3.1333 I-0.0125 J0.0
G2 Y21.0108 Z-3.1667 I0.0063 J0.0108
G2 X45.3125 Y21.0 Z-3.2 I0.0062 J-0.0108
G2 X45.2938 Y20.9892 I-0.0125 J0.0
G2 Y21.0108 I0.0063 J0.0108
G2 X45.3125 Y21.0 I0.0062 J-0.0108
G0 Z3.0
G0 X46.8125 Y34.3
G0 Z0.01
G1 F1000.0 Z0.0
G2 F2000.0 X46.7938 Y34.2892 Z-0.0333 I-0.0125 J0.0
G2 Y34.3108 Z-0.0667 I0.0063 J0.0108
G2 X46.8125 Y34.3 Z-0.1 I0.0063 J-0.0108
G2 X46.7938 Y34.2892 Z-0.1333 I-0.0125 J0.0
G2 Y34.3108 Z-0.1667 I0.0063 J0.0108
G2 X46.8125 Y34.3 Z-0.2 I0.0063 J-0.0108
G2 X46.7938 Y34.2892 Z-0.2333 I-0.0125 J0.0
G2 Y34.3108 Z-0.2667 I0.0063 J0.0108
G2 X46.8125 Y34.3 Z-0.3 I0.0063 J-0.0108
G2 X46.7938 Y34.2892 Z-0.3333 I-0.0125 J0.0
G2 Y34.3108 Z-0.3667 I0.0063 J0.0108
G2 X46.8125 Y34.3 Z-0.4 I0.0063 J-0.0108
G2 X46.7938 Y34.2892 Z-0.4333 I-0.0125 J0.0
G2 Y34.3108 Z-0.4667 I0.0063 J0.0108
G2 X46.8125 Y34.3 Z-0.5 I0.0063 J-0.0108
G2 X46.7938 Y34.2892 Z-0.5333 I-0.0125 J0.0
G2 Y34.3108 Z-0.5667 I0.0063 J0.0108
G2 X46.8125 Y34.3 Z-0.6 I0.0063 J-0.0108
G2 X46.7938 Y34.2892 Z-0.6333 I-0.0125 J0.0
G2 Y34.3108 Z-0.6667 I0.0063 J0.0108
G2 X46.8125 Y34.3 Z-0.7 I0.0063 J-0.0108
G2 X46.7938 Y34.2892 Z-0.7333 I-0.0125 J0.0
G2 Y34.3108 Z-0.7667 I0.0063 J0.0108
G2 X46.8125 Y34.3 Z-0.8 I0.0063 J-0.0108
G2 X46.7938 Y34.2892 Z-0.8333 I-0.0125 J0.0
G2 Y34.3108 Z-0.8667 I0.0063 J0.0108
G2 X46.8125 Y34.3 Z-0.9 I0.0063 J-0.0108
G2 X46.7938 Y34.2892 Z-0.9333 I-0.0125 J0.0
G2 Y34.3108 Z-0.9667 I0.0063 J0.0108
G2 X46.8125 Y34.3 Z-1.0 I0.0063 J-0.0108
G2 X46.7938 Y34.2892 Z-1.0333 I-0.0125 J0.0
G2 Y34.3108 Z-1.0667 I0.0063 J0.0108
G2 X46.8125 Y34.3 Z-1.1 I0.0063 J-0.0108
G2 X46.7938 Y34.2892 Z-1.1333 I-0.0125 J0.0
G2 Y34.3108 Z-1.1667 I0.0063 J0.0108
G2 X46.8125 Y34.3 Z-1.2 I0.0063 J-0.0108
G2 X46.7938 Y34.2892 Z-1.2333 I-0.0125 J0.0
G2 Y34.3108 Z-1.2667 I0.0063 J0.0108
G2 X46.8125 Y34.3 Z-1.3 I0.0063 J-0.0108
G2 X46.7938 Y34.2892 Z-1.3333 I-0.0125 J0.0
G2 Y34.3108 Z-1.3667 I0.0063 J0.0108
G2 X46.8125 Y34.3 Z-1.4 I0.0063 J-0.0108
G2 X46.7938 Y34.2892 Z-1.4333 I-0.0125 J0.0
G2 Y34.3108 Z-1.4667 I0.0063 J0.0108
G2 X46.8125 Y34.3 Z-1.5 I0.0063 J-0.0108
G2 X46.7938 Y34.2892 Z-1.5333 I-0.0125 J0.0
G2 Y34.3108 Z-1.5667 I0.0063 J0.0108
G2 X46.8125 Y34.3 Z-1.6 I0.0063 J-0.0108
G2 X46.7938 Y34.2892 Z-1.6333 I-0.0125 J0.0
G2 Y34.3108 Z-1.6667 I0.0063 J0.0108
G2 X46.8125 Y34.3 Z-1.7 I0.0063 J-0.0108
G2 X46.7938 Y34.2892 Z-1.7333 I-0.0125 J0.0
G2 Y34.3108 Z-1.7667 I0.0063 J0.0108
G2 X46.8125 Y34.3 Z-1.8 I0.0063 J-0.0108
G2 X46.7938 Y34.2892 Z-1.8333 I-0.0125 J0.0
G2 Y34.3108 Z-1.8667 I0.0063 J0.0108
G2 X46.8125 Y34.3 Z-1.9 I0.0063 J-0.0108
G2 X46.7938 Y34.2892 Z-1.9333 I-0.0125 J0.0
G2 Y34.3108 Z-1.9667 I0.0063 J0.0108
G2 X46.8125 Y34.3 Z-2.0 I0.0063 J-0.0108
G2 X46.7938 Y34.2892 Z-2.0333 I-0.0125 J0.0
G2 Y34.3108 Z-2.0667 I0.0063 J0.0108
G2 X46.8125 Y34.3 Z-2.1 I0.0063 J-0.0108
G2 X46.7938 Y34.2892 Z-2.1333 I-0.0125 J0.0
G2 Y34.3108 Z-2.1667 I0.0063 J0.0108
G2 X46.8125 Y34.3 Z-2.2 I0.0063 J-0.0108
G2 X46.7938 Y34.2892 Z-2.2333 I-0.0125 J0.0
G2 Y34.3108 Z-2.2667 I0.0063 J0.0108
G2 X46.8125 Y34.3 Z-2.3 I0.0063 J-0.0108
G2 X46.7938 Y34.2892 Z-2.3333 I-0.0125 J0.0
G2 Y34.3108 Z-2.3667 I0.0063 J0.0108
G2 X46.8125 Y34.3 Z-2.4 I0.0063 J-0.0108
G2 X46.7938 Y34.2892 Z-2.4333 I-0.0125 J0.0
G2 Y34.3108 Z-2.4667 I0.0063 J0.0108
G2 X46.8125 Y34.3 Z-2.5 I0.0063 J-0.0108
G2 X46.7938 Y34.2892 Z-2.5333 I-0.0125 J0.0
G2 Y34.3108 Z-2.5667 I0.0063 J0.0108
G2 X46.8125 Y34.3 Z-2.6 I0.0063 J-0.0108
G2 X46.7938 Y34.2892 Z-2.6333 I-0.0125 J0.0
G2 Y34.3108 Z-2.6667 I0.0063 J0.0108
G2 X46.8125 Y34.3 Z-2.7 I0.0063 J-0.0108
G2 X46.7938 Y34.2892 Z-2.7333 I-0.0125 J0.0
G2 Y34.3108 Z-2.7667 I0.0063 J0.0108
G2 X46.8125 Y34.3 Z-2.8 I0.0063 J-0.0108
G2 X46.7938 Y34.2892 Z-2.8333 I-0.0125 J0.0
G2 Y34.3108 Z-2.8667 I0.0063 J0.0108
G2 X46.8125 Y34.3 Z-2.9 I0.0063 J-0.0108
G2 X46.7938 Y34.2892 Z-2.9333 I-0.0125 J0.0
G2 Y34.3108 Z-2.9667 I0.0063 J0.0108
G2 X46.8125 Y34.3 Z-3.0 I0.0062 J-0.0108
G2 X46.7938 Y34.2892 Z-3.0333 I-0.0125 J0.0
G2 Y34.3108 Z-3.0667 I0.0063 J0.0108
G2 X46.8125 Y34.3 Z-3.1 I0.0062 J-0.0108
G2 X46.7938 Y34.2892 Z-3.1333 I-0.0125 J0.0
G2 Y34.3108 Z-3.1667 I0.0063 J0.0108
G2 X46.8125 Y34.3 Z-3.2 I0.0062 J-0.0108
G2 X46.7938 Y34.2892 I-0.0125 J0.0
G2 Y34.3108 I0.0063 J0.0108
G2 X46.8125 Y34.3 I0.0062 J-0.0108
G0 Z3.0
G0 X41.7125 Y55.4
G0 Z0.01
G1 F1000.0 Z0.0
G2 F2000.0 X41.6938 Y55.3892 Z-0.0333 I-0.0125 J0.0
G2 Y55.4108 Z-0.0667 I0.0063 J0.0108
G2 X41.7125 Y55.4 Z-0.1 I0.0063 J-0.0108
G2 X41.6938 Y55.3892 Z-0.1333 I-0.0125 J0.0
G2 Y55.4108 Z-0.1667 I0.0063 J0.0108
G2 X41.7125 Y55.4 Z-0.2 I0.0063 J-0.0108
G2 X41.6938 Y55.3892 Z-0.2333 I-0.0125 J0.0
G2 Y55.4108 Z-0.2667 I0.0063 J0.0108
G2 X41.7125 Y55.4 Z-0.3 I0.0063 J-0.0108
G2 X41.6938 Y55.3892 Z-0.3333 I-0.0125 J0.0
G2 Y55.4108 Z-0.3667 I0.0063 J0.0108
G2 X41.7125 Y55.4 Z-0.4 I0.0063 J-0.0108
G2 X41.6938 Y55.3892 Z-0.4333 I-0.0125 J0.0
G2 Y55.4108 Z-0.4667 I0.0063 J0.0108
G2 X41.7125 Y55.4 Z-0.5 I0.0063 J-0.0108
G2 X41.6938 Y55.3892 Z-0.5333 I-0.0125 J0.0
G2 Y55.4108 Z-0.5667 I0.0063 J0.0108
G2 X41.7125 Y55.4 Z-0.6 I0.0063 J-0.0108
G2 X41.6938 Y55.3892 Z-0.6333 I-0.0125 J0.0
G2 Y55.4108 Z-0.6667 I0.0063 J0.0108
G2 X41.7125 Y55.4 Z-0.7 I0.0063 J-0.0108
G2 X41.6938 Y55.3892 Z-0.7333 I-0.0125 J0.0
G2 Y55.4108 Z-0.7667 I0.0063 J0.0108
G2 X41.7125 Y55.4 Z-0.8 I0.0063 J-0.0108
G2 X41.6938 Y55.3892 Z-0.8333 I-0.0125 J0.0
G2 Y55.4108 Z-0.8667 I0.0063 J0.0108
G2 X41.7125 Y55.4 Z-0.9 I0.0063 J-0.0108
G2 X41.6938 Y55.3892 Z-0.9333 I-0.0125 J0.0
G2 Y55.4108 Z-0.9667 I0.0063 J0.0108
G2 X41.7125 Y55.4 Z-1.0 I0.0063 J-0.0108
G2 X41.6938 Y55.3892 Z-1.0333 I-0.0125 J0.0
G2 Y55.4108 Z-1.0667 I0.0063 J0.0108
G2 X41.7125 Y55.4 Z-1.1 I0.0063 J-0.0108
G2 X41.6938 Y55.3892 Z-1.1333 I-0.0125 J0.0
G2 Y55.4108 Z-1.1667 I0.0063 J0.0108
G2 X41.7125 Y55.4 Z-1.2 I0.0063 J-0.0108
G2 X41.6938 Y55.3892 Z-1.2333 I-0.0125 J0.0
G2 Y55.4108 Z-1.2667 I0.0063 J0.0108
G2 X41.7125 Y55.4 Z-1.3 I0.0063 J-0.0108
G2 X41.6938 Y55.3892 Z-1.3333 I-0.0125 J0.0
G2 Y55.4108 Z-1.3667 I0.0063 J0.0108
G2 X41.7125 Y55.4 Z-1.4 I0.0063 J-0.0108
G2 X41.6938 Y55.3892 Z-1.4333 I-0.0125 J0.0
G2 Y55.4108 Z-1.4667 I0.0063 J0.0108
G2 X41.7125 Y55.4 Z-1.5 I0.0063 J-0.0108
G2 X41.6938 Y55.3892 Z-1.5333 I-0.0125 J0.0
G2 Y55.4108 Z-1.5667 I0.0063 J0.0108
G2 X41.7125 Y55.4 Z-1.6 I0.0063 J-0.0108
G2 X41.6938 Y55.3892 Z-1.6333 I-0.0125 J0.0
G2 Y55.4108 Z-1.6667 I0.0063 J0.0108
G2 X41.7125 Y55.4 Z-1.7 I0.0063 J-0.0108
G2 X41.6938 Y55.3892 Z-1.7333 I-0.0125 J0.0
G2 Y55.4108 Z-1.7667 I0.0063 J0.0108
G2 X41.7125 Y55.4 Z-1.8 I0.0063 J-0.0108
G2 X41.6938 Y55.3892 Z-1.8333 I-0.0125 J0.0
G2 Y55.4108 Z-1.8667 I0.0063 J0.0108
G2 X41.7125 Y55.4 Z-1.9 I0.0063 J-0.0108
G2 X41.6938 Y55.3892 Z-1.9333 I-0.0125 J0.0
G2 Y55.4108 Z-1.9667 I0.0063 J0.0108
G2 X41.7125 Y55.4 Z-2.0 I0.0063 J-0.0108
G2 X41.6938 Y55.3892 Z-2.0333 I-0.0125 J0.0
G2 Y55.4108 Z-2.0667 I0.0063 J0.0108
G2 X41.7125 Y55.4 Z-2.1 I0.0063 J-0.0108
G2 X41.6938 Y55.3892 Z-2.1333 I-0.0125 J0.0
G2 Y55.4108 Z-2.1667 I0.0063 J0.0108
G2 X41.7125 Y55.4 Z-2.2 I0.0063 J-0.0108
G2 X41.6938 Y55.3892 Z-2.2333 I-0.0125 J0.0
G2 Y55.4108 Z-2.2667 I0.0063 J0.0108
G2 X41.7125 Y55.4 Z-2.3 I0.0063 J-0.0108
G2 X41.6938 Y55.3892 Z-2.3333 I-0.0125 J0.0
G2 Y55.4108 Z-2.3667 I0.0063 J0.0108
G2 X41.7125 Y55.4 Z-2.4 I0.0063 J-0.0108
G2 X41.6938 Y55.3892 Z-2.4333 I-0.0125 J0.0
G2 Y55.4108 Z-2.4667 I0.0063 J0.0108
G2 X41.7125 Y55.4 Z-2.5 I0.0063 J-0.0108
G2 X41.6938 Y55.3892 Z-2.5333 I-0.0125 J0.0
G2 Y55.4108 Z-2.5667 I0.0063 J0.0108
G2 X41.7125 Y55.4 Z-2.6 I0.0063 J-0.0108
G2 X41.6938 Y55.3892 Z-2.6333 I-0.0125 J0.0
G2 Y55.4108 Z-2.6667 I0.0063 J0.0108
G2 X41.7125 Y55.4 Z-2.7 I0.0063 J-0.0108
G2 X41.6938 Y55.3892 Z-2.7333 I-0.0125 J0.0
G2 Y55.4108 Z-2.7667 I0.0063 J0.0108
G2 X41.7125 Y55.4 Z-2.8 I0.0063 J-0.0108
G2 X41.6938 Y55.3892 Z-2.8333 I-0.0125 J0.0
G2 Y55.4108 Z-2.8667 I0.0063 J0.0108
G2 X41.7125 Y55.4 Z-2.9 I0.0063 J-0.0108
G2 X41.6938 Y55.3892 Z-2.9333 I-0.0125 J0.0
G2 Y55.4108 Z-2.9667 I0.0063 J0.0108
G2 X41.7125 Y55.4 Z-3.0 I0.0062 J-0.0108
G2 X41.6938 Y55.3892 Z-3.0333 I-0.0125 J0.0
G2 Y55.4108 Z-3.0667 I0.0063 J0.0108
G2 X41.7125 Y55.4 Z-3.1 I0.0062 J-0.0108
G2 X41.6938 Y55.3892 Z-3.1333 I-0.0125 J0.0
G2 Y55.4108 Z-3.1667 I0.0063 J0.0108
G2 X41.7125 Y55.4 Z-3.2 I0.0062 J-0.0108
G2 X41.6938 Y55.3892 I-0.0125 J0.0
G2 Y55.4108 I0.0063 J0.0108
G2 X41.7125 Y55.4 I0.0062 J-0.0108
G0 Z3.0
G0 X40.9125 Y67.0
G0 Z0.01
G1 F1000.0 Z0.0
G2 F2000.0 X40.8938 Y66.9892 Z-0.0333 I-0.0125 J0.0
G2 Y67.0108 Z-0.0667 I0.0062 J0.0108
G2 X40.9125 Y67.0 Z-0.1 I0.0063 J-0.0108
G2 X40.8938 Y66.9892 Z-0.1333 I-0.0125 J0.0
G2 Y67.0108 Z-0.1667 I0.0062 J0.0108
G2 X40.9125 Y67.0 Z-0.2 I0.0063 J-0.0108
G2 X40.8938 Y66.9892 Z-0.2333 I-0.0125 J0.0
G2 Y67.0108 Z-0.2667 I0.0062 J0.0108
G2 X40.9125 Y67.0 Z-0.3 I0.0063 J-0.0108
G2 X40.8938 Y66.9892 Z-0.3333 I-0.0125 J0.0
G2 Y67.0108 Z-0.3667 I0.0062 J0.0108
G2 X40.9125 Y67.0 Z-0.4 I0.0063 J-0.0108
G2 X40.8938 Y66.9892 Z-0.4333 I-0.0125 J0.0
G2 Y67.0108 Z-0.4667 I0.0062 J0.0108
G2 X40.9125 Y67.0 Z-0.5 I0.0063 J-0.0108
G2 X40.8938 Y66.9892 Z-0.5333 I-0.0125 J0.0
G2 Y67.0108 Z-0.5667 I0.0062 J0.0108
G2 X40.9125 Y67.0 Z-0.6 I0.0063 J-0.0108
G2 X40.8938 Y66.9892 Z-0.6333 I-0.0125 J0.0
G2 Y67.0108 Z-0.6667 I0.0062 J0.0108
G2 X40.9125 Y67.0 Z-0.7 I0.0063 J-0.0108
G2 X40.8938 Y66.9892 Z-0.7333 I-0.0125 J0.0
G2 Y67.0108 Z-0.7667 I0.0062 J0.0108
G2 X40.9125 Y67.0 Z-0.8 I0.0063 J-0.0108
G2 X40.8938 Y66.9892 Z-0.8333 I-0.0125 J0.0
G2 Y67.0108 Z-0.8667 I0.0062 J0.0108
G2 X40.9125 Y67.0 Z-0.9 I0.0063 J-0.0108
G2 X40.8938 Y66.9892 Z-0.9333 I-0.0125 J0.0
G2 Y67.0108 Z-0.9667 I0.0062 J0.0108
G2 X40.9125 Y67.0 Z-1.0 I0.0063 J-0.0108
G2 X40.8938 Y66.9892 Z-1.0333 I-0.0125 J0.0
G2 Y67.0108 Z-1.0667 I0.0062 J0.0108
G2 X40.9125 Y67.0 Z-1.1 I0.0063 J-0.0108
G2 X40.8938 Y66.9892 Z-1.1333 I-0.0125 J0.0
G2 Y67.0108 Z-1.1667 I0.0062 J0.0108
G2 X40.9125 Y67.0 Z-1.2 I0.0063 J-0.0108
G2 X40.8938 Y66.9892 Z-1.2333 I-0.0125 J0.0
G2 Y67.0108 Z-1.2667 I0.0062 J0.0108
G2 X40.9125 Y67.0 Z-1.3 I0.0063 J-0.0108
G2 X40.8938 Y66.9892 Z-1.3333 I-0.0125 J0.0
G2 Y67.0108 Z-1.3667 I0.0062 J0.0108
G2 X40.9125 Y67.0 Z-1.4 I0.0063 J-0.0108
G2 X40.8938 Y66.9892 Z-1.4333 I-0.0125 J0.0
G2 Y67.0108 Z-1.4667 I0.0062 J0.0108
G2 X40.9125 Y67.0 Z-1.5 I0.0063 J-0.0108
G2 X40.8938 Y66.9892 Z-1.5333 I-0.0125 J0.0
G2 Y67.0108 Z-1.5667 I0.0062 J0.0108
G2 X40.9125 Y67.0 Z-1.6 I0.0063 J-0.0108
G2 X40.8938 Y66.9892 Z-1.6333 I-0.0125 J0.0
G2 Y67.0108 Z-1.6667 I0.0062 J0.0108
G2 X40.9125 Y67.0 Z-1.7 I0.0063 J-0.0108
G2 X40.8938 Y66.9892 Z-1.7333 I-0.0125 J0.0
G2 Y67.0108 Z-1.7667 I0.0062 J0.0108
G2 X40.9125 Y67.0 Z-1.8 I0.0063 J-0.0108
G2 X40.8938 Y66.9892 Z-1.8333 I-0.0125 J0.0
G2 Y67.0108 Z-1.8667 I0.0062 J0.0108
G2 X40.9125 Y67.0 Z-1.9 I0.0063 J-0.0108
G2 X40.8938 Y66.9892 Z-1.9333 I-0.0125 J0.0
G2 Y67.0108 Z-1.9667 I0.0062 J0.0108
G2 X40.9125 Y67.0 Z-2.0 I0.0063 J-0.0108
G2 X40.8938 Y66.9892 Z-2.0333 I-0.0125 J0.0
G2 Y67.0108 Z-2.0667 I0.0062 J0.0108
G2 X40.9125 Y67.0 Z-2.1 I0.0063 J-0.0108
G2 X40.8938 Y66.9892 Z-2.1333 I-0.0125 J0.0
G2 Y67.0108 Z-2.1667 I0.0062 J0.0108
G2 X40.9125 Y67.0 Z-2.2 I0.0063 J-0.0108
G2 X40.8938 Y66.9892 Z-2.2333 I-0.0125 J0.0
G2 Y67.0108 Z-2.2667 I0.0062 J0.0108
G2 X40.9125 Y67.0 Z-2.3 I0.0063 J-0.0108
G2 X40.8938 Y66.9892 Z-2.3333 I-0.0125 J0.0
G2 Y67.0108 Z-2.3667 I0.0062 J0.0108
G2 X40.9125 Y67.0 Z-2.4 I0.0063 J-0.0108
G2 X40.8938 Y66.9892 Z-2.4333 I-0.0125 J0.0
G2 Y67.0108 Z-2.4667 I0.0062 J0.0108
G2 X40.9125 Y67.0 Z-2.5 I0.0063 J-0.0108
G2 X40.8938 Y66.9892 Z-2.5333 I-0.0125 J0.0
G2 Y67.0108 Z-2.5667 I0.0062 J0.0108
G2 X40.9125 Y67.0 Z-2.6 I0.0063 J-0.0108
G2 X40.8938 Y66.9892 Z-2.6333 I-0.0125 J0.0
G2 Y67.0108 Z-2.6667 I0.0062 J0.0108
G2 X40.9125 Y67.0 Z-2.7 I0.0063 J-0.0108
G2 X40.8938 Y66.9892 Z-2.7333 I-0.0125 J0.0
G2 Y67.0108 Z-2.7667 I0.0062 J0.0108
G2 X40.9125 Y67.0 Z-2.8 I0.0063 J-0.0108
G2 X40.8938 Y66.9892 Z-2.8333 I-0.0125 J0.0
G2 Y67.0108 Z-2.8667 I0.0062 J0.0108
G2 X40.9125 Y67.0 Z-2.9 I0.0063 J-0.0108
G2 X40.8938 Y66.9892 Z-2.9333 I-0.0125 J0.0
G2 Y67.0108 Z-2.9667 I0.0063 J0.0108
G2 X40.9125 Y67.0 Z-3.0 I0.0063 J-0.0108
G2 X40.8938 Y66.9892 Z-3.0333 I-0.0125 J0.0
G2 Y67.0108 Z-3.0667 I0.0063 J0.0108
G2 X40.9125 Y67.0 Z-3.1 I0.0063 J-0.0108
G2 X40.8938 Y66.9892 Z-3.1333 I-0.0125 J0.0
G2 Y67.0108 Z-3.1667 I0.0063 J0.0108
G2 X40.9125 Y67.0 Z-3.2 I0.0063 J-0.0108
G2 X40.8938 Y66.9892 I-0.0125 J0.0
G2 Y67.0108 I0.0063 J0.0108
G2 X40.9125 Y67.0 I0.0062 J-0.0108
G0 Z3.0
G0 X47.8125 Y78.2
G0 Z0.01
G1 F1000.0 Z0.0
G2 F2000.0 X47.7938 Y78.1892 Z-0.0333 I-0.0125 J0.0
G2 Y78.2108 Z-0.0667 I0.0062 J0.0108
G2 X47.8125 Y78.2 Z-0.1 I0.0063 J-0.0108
G2 X47.7938 Y78.1892 Z-0.1333 I-0.0125 J0.0
G2 Y78.2108 Z-0.1667 I0.0062 J0.0108
G2 X47.8125 Y78.2 Z-0.2 I0.0063 J-0.0108
G2 X47.7938 Y78.1892 Z-0.2333 I-0.0125 J0.0
G2 Y78.2108 Z-0.2667 I0.0062 J0.0108
G2 X47.8125 Y78.2 Z-0.3 I0.0063 J-0.0108
G2 X47.7938 Y78.1892 Z-0.3333 I-0.0125 J0.0
G2 Y78.2108 Z-0.3667 I0.0062 J0.0108
G2 X47.8125 Y78.2 Z-0.4 I0.0063 J-0.0108
G2 X47.7938 Y78.1892 Z-0.4333 I-0.0125 J0.0
G2 Y78.2108 Z-0.4667 I0.0062 J0.0108
G2 X47.8125 Y78.2 Z-0.5 I0.0063 J-0.0108
G2 X47.7938 Y78.1892 Z-0.5333 I-0.0125 J0.0
G2 Y78.2108 Z-0.5667 I0.0062 J0.0108
G2 X47.8125 Y78.2 Z-0.6 I0.0063 J-0.0108
G2 X47.7938 Y78.1892 Z-0.6333 I-0.0125 J0.0
G2 Y78.2108 Z-0.6667 I0.0062 J0.0108
G2 X47.8125 Y78.2 Z-0.7 I0.0063 J-0.0108
G2 X47.7938 Y78.1892 Z-0.7333 I-0.0125 J0.0
G2 Y78.2108 Z-0.7667 I0.0062 J0.0108
G2 X47.8125 Y78.2 Z-0.8 I0.0063 J-0.0108
G2 X47.7938 Y78.1892 Z-0.8333 I-0.0125 J0.0
G2 Y78.2108 Z-0.8667 I0.0062 J0.0108
G2 X47.8125 Y78.2 Z-0.9 I0.0063 J-0.0108
G2 X47.7938 Y78.1892 Z-0.9333 I-0.0125 J0.0
G2 Y78.2108 Z-0.9667 I0.0062 J0.0108
G2 X47.8125 Y78.2 Z-1.0 I0.0063 J-0.0108
G2 X47.7938 Y78.1892 Z-1.0333 I-0.0125 J0.0
G2 Y78.2108 Z-1.0667 I0.0062 J0.0108
G2 X47.8125 Y78.2 Z-1.1 I0.0063 J-0.0108
G2 X47.7938 Y78.1892 Z-1.1333 I-0.0125 J0.0
G2 Y78.2108 Z-1.1667 I0.0062 J0.0108
G2 X47.8125 Y78.2 Z-1.2 I0.0063 J-0.0108
G2 X47.7938 Y78.1892 Z-1.2333 I-0.0125 J0.0
G2 Y78.2108 Z-1.2667 I0.0062 J0.0108
G2 X47.8125 Y78.2 Z-1.3 I0.0063 J-0.0108
G2 X47.7938 Y78.1892 Z-1.3333 I-0.0125 J0.0
G2 Y78.2108 Z-1.3667 I0.0062 J0.0108
G2 X47.8125 Y78.2 Z-1.4 I0.0063 J-0.0108
G2 X47.7938 Y78.1892 Z-1.4333 I-0.0125 J0.0
G2 Y78.2108 Z-1.4667 I0.0062 J0.0108
G2 X47.8125 Y78.2 Z-1.5 I0.0063 J-0.0108
G2 X47.7938 Y78.1892 Z-1.5333 I-0.0125 J0.0
G2 Y78.2108 Z-1.5667 I0.0062 J0.0108
G2 X47.8125 Y78.2 Z-1.6 I0.0063 J-0.0108
G2 X47.7938 Y78.1892 Z-1.6333 I-0.0125 J0.0
G2 Y78.2108 Z-1.6667 I0.0062 J0.0108
G2 X47.8125 Y78.2 Z-1.7 I0.0063 J-0.0108
G2 X47.7938 Y78.1892 Z-1.7333 I-0.0125 J0.0
G2 Y78.2108 Z-1.7667 I0.0062 J0.0108
G2 X47.8125 Y78.2 Z-1.8 I0.0063 J-0.0108
G2 X47.7938 Y78.1892 Z-1.8333 I-0.0125 J0.0
G2 Y78.2108 Z-1.8667 I0.0062 J0.0108
G2 X47.8125 Y78.2 Z-1.9 I0.0063 J-0.0108
G2 X47.7938 Y78.1892 Z-1.9333 I-0.0125 J0.0
G2 Y78.2108 Z-1.9667 I0.0062 J0.0108
G2 X47.8125 Y78.2 Z-2.0 I0.0063 J-0.0108
G2 X47.7938 Y78.1892 Z-2.0333 I-0.0125 J0.0
G2 Y78.2108 Z-2.0667 I0.0062 J0.0108
G2 X47.8125 Y78.2 Z-2.1 I0.0063 J-0.0108
G2 X47.7938 Y78.1892 Z-2.1333 I-0.0125 J0.0
G2 Y78.2108 Z-2.1667 I0.0062 J0.0108
G2 X47.8125 Y78.2 Z-2.2 I0.0063 J-0.0108
G2 X47.7938 Y78.1892 Z-2.2333 I-0.0125 J0.0
G2 Y78.2108 Z-2.2667 I0.0062 J0.0108
G2 X47.8125 Y78.2 Z-2.3 I0.0063 J-0.0108
G2 X47.7938 Y78.1892 Z-2.3333 I-0.0125 J0.0
G2 Y78.2108 Z-2.3667 I0.0062 J0.0108
G2 X47.8125 Y78.2 Z-2.4 I0.0063 J-0.0108
G2 X47.7938 Y78.1892 Z-2.4333 I-0.0125 J0.0
G2 Y78.2108 Z-2.4667 I0.0062 J0.0108
G2 X47.8125 Y78.2 Z-2.5 I0.0063 J-0.0108
G2 X47.7938 Y78.1892 Z-2.5333 I-0.0125 J0.0
G2 Y78.2108 Z-2.5667 I0.0062 J0.0108
G2 X47.8125 Y78.2 Z-2.6 I0.0063 J-0.0108
G2 X47.7938 Y78.1892 Z-2.6333 I-0.0125 J0.0
G2 Y78.2108 Z-2.6667 I0.0062 J0.0108
G2 X47.8125 Y78.2 Z-2.7 I0.0063 J-0.0108
G2 X47.7938 Y78.1892 Z-2.7333 I-0.0125 J0.0
G2 Y78.2108 Z-2.7667 I0.0062 J0.0108
G2 X47.8125 Y78.2 Z-2.8 I0.0063 J-0.0108
G2 X47.7938 Y78.1892 Z-2.8333 I-0.0125 J0.0
G2 Y78.2108 Z-2.8667 I0.0062 J0.0108
G2 X47.8125 Y78.2 Z-2.9 I0.0063 J-0.0108
G2 X47.7938 Y78.1892 Z-2.9333 I-0.0125 J0.0
G2 Y78.2108 Z-2.9667 I0.0063 J0.0108
G2 X47.8125 Y78.2 Z-3.0 I0.0063 J-0.0108
G2 X47.7938 Y78.1892 Z-3.0333 I-0.0125 J0.0
G2 Y78.2108 Z-3.0667 I0.0063 J0.0108
G2 X47.8125 Y78.2 Z-3.1 I0.0063 J-0.0108
G2 X47.7938 Y78.1892 Z-3.1333 I-0.0125 J0.0
G2 Y78.2108 Z-3.1667 I0.0063 J0.0108
G2 X47.8125 Y78.2 Z-3.2 I0.0063 J-0.0108
G2 X47.7938 Y78.1892 I-0.0125 J0.0
G2 Y78.2108 I0.0063 J0.0108
G2 X47.8125 Y78.2 I0.0062 J-0.0108
G0 Z3.0
G0 X33.7125 Y78.3
G0 Z0.01
G1 F1000.0 Z0.0
G2 F2000.0 X33.6938 Y78.2892 Z-0.0333 I-0.0125 J0.0
G2 Y78.3108 Z-0.0667 I0.0062 J0.0108
G2 X33.7125 Y78.3 Z-0.1 I0.0063 J-0.0108
G2 X33.6938 Y78.2892 Z-0.1333 I-0.0125 J0.0
G2 Y78.3108 Z-0.1667 I0.0062 J0.0108
G2 X33.7125 Y78.3 Z-0.2 I0.0063 J-0.0108
G2 X33.6938 Y78.2892 Z-0.2333 I-0.0125 J0.0
G2 Y78.3108 Z-0.2667 I0.0062 J0.0108
G2 X33.7125 Y78.3 Z-0.3 I0.0063 J-0.0108
G2 X33.6938 Y78.2892 Z-0.3333 I-0.0125 J0.0
G2 Y78.3108 Z-0.3667 I0.0062 J0.0108
G2 X33.7125 Y78.3 Z-0.4 I0.0063 J-0.0108
G2 X33.6938 Y78.2892 Z-0.4333 I-0.0125 J0.0
G2 Y78.3108 Z-0.4667 I0.0062 J0.0108
G2 X33.7125 Y78.3 Z-0.5 I0.0063 J-0.0108
G2 X33.6938 Y78.2892 Z-0.5333 I-0.0125 J0.0
G2 Y78.3108 Z-0.5667 I0.0062 J0.0108
G2 X33.7125 Y78.3 Z-0.6 I0.0063 J-0.0108
G2 X33.6938 Y78.2892 Z-0.6333 I-0.0125 J0.0
G2 Y78.3108 Z-0.6667 I0.0062 J0.0108
G2 X33.7125 Y78.3 Z-0.7 I0.0063 J-0.0108
G2 X33.6938 Y78.2892 Z-0.7333 I-0.0125 J0.0
G2 Y78.3108 Z-0.7667 I0.0062 J0.0108
G2 X33.7125 Y78.3 Z-0.8 I0.0063 J-0.0108
G2 X33.6938 Y78.2892 Z-0.8333 I-0.0125 J0.0
G2 Y78.3108 Z-0.8667 I0.0062 J0.0108
G2 X33.7125 Y78.3 Z-0.9 I0.0063 J-0.0108
G2 X33.6938 Y78.2892 Z-0.9333 I-0.0125 J0.0
G2 Y78.3108 Z-0.9667 I0.0062 J0.0108
G2 X33.7125 Y78.3 Z-1.0 I0.0063 J-0.0108
G2 X33.6938 Y78.2892 Z-1.0333 I-0.0125 J0.0
G2 Y78.3108 Z-1.0667 I0.0062 J0.0108
G2 X33.7125 Y78.3 Z-1.1 I0.0063 J-0.0108
G2 X33.6938 Y78.2892 Z-1.1333 I-0.0125 J0.0
G2 Y78.3108 Z-1.1667 I0.0062 J0.0108
G2 X33.7125 Y78.3 Z-1.2 I0.0063 J-0.0108
G2 X33.6938 Y78.2892 Z-1.2333 I-0.0125 J0.0
G2 Y78.3108 Z-1.2667 I0.0062 J0.0108
G2 X33.7125 Y78.3 Z-1.3 I0.0063 J-0.0108
G2 X33.6938 Y78.2892 Z-1.3333 I-0.0125 J0.0
G2 Y78.3108 Z-1.3667 I0.0062 J0.0108
G2 X33.7125 Y78.3 Z-1.4 I0.0063 J-0.0108
G2 X33.6938 Y78.2892 Z-1.4333 I-0.0125 J0.0
G2 Y78.3108 Z-1.4667 I0.0062 J0.0108
G2 X33.7125 Y78.3 Z-1.5 I0.0063 J-0.0108
G2 X33.6938 Y78.2892 Z-1.5333 I-0.0125 J0.0
G2 Y78.3108 Z-1.5667 I0.0062 J0.0108
G2 X33.7125 Y78.3 Z-1.6 I0.0063 J-0.0108
G2 X33.6938 Y78.2892 Z-1.6333 I-0.0125 J0.0
G2 Y78.3108 Z-1.6667 I0.0062 J0.0108
G2 X33.7125 Y78.3 Z-1.7 I0.0063 J-0.0108
G2 X33.6938 Y78.2892 Z-1.7333 I-0.0125 J0.0
G2 Y78.3108 Z-1.7667 I0.0062 J0.0108
G2 X33.7125 Y78.3 Z-1.8 I0.0063 J-0.0108
G2 X33.6938 Y78.2892 Z-1.8333 I-0.0125 J0.0
G2 Y78.3108 Z-1.8667 I0.0062 J0.0108
G2 X33.7125 Y78.3 Z-1.9 I0.0063 J-0.0108
G2 X33.6938 Y78.2892 Z-1.9333 I-0.0125 J0.0
G2 Y78.3108 Z-1.9667 I0.0062 J0.0108
G2 X33.7125 Y78.3 Z-2.0 I0.0063 J-0.0108
G2 X33.6938 Y78.2892 Z-2.0333 I-0.0125 J0.0
G2 Y78.3108 Z-2.0667 I0.0062 J0.0108
G2 X33.7125 Y78.3 Z-2.1 I0.0063 J-0.0108
G2 X33.6938 Y78.2892 Z-2.1333 I-0.0125 J0.0
G2 Y78.3108 Z-2.1667 I0.0062 J0.0108
G2 X33.7125 Y78.3 Z-2.2 I0.0063 J-0.0108
G2 X33.6938 Y78.2892 Z-2.2333 I-0.0125 J0.0
G2 Y78.3108 Z-2.2667 I0.0062 J0.0108
G2 X33.7125 Y78.3 Z-2.3 I0.0063 J-0.0108
G2 X33.6938 Y78.2892 Z-2.3333 I-0.0125 J0.0
G2 Y78.3108 Z-2.3667 I0.0062 J0.0108
G2 X33.7125 Y78.3 Z-2.4 I0.0063 J-0.0108
G2 X33.6938 Y78.2892 Z-2.4333 I-0.0125 J0.0
G2 Y78.3108 Z-2.4667 I0.0062 J0.0108
G2 X33.7125 Y78.3 Z-2.5 I0.0063 J-0.0108
G2 X33.6938 Y78.2892 Z-2.5333 I-0.0125 J0.0
G2 Y78.3108 Z-2.5667 I0.0062 J0.0108
G2 X33.7125 Y78.3 Z-2.6 I0.0063 J-0.0108
G2 X33.6938 Y78.2892 Z-2.6333 I-0.0125 J0.0
G2 Y78.3108 Z-2.6667 I0.0062 J0.0108
G2 X33.7125 Y78.3 Z-2.7 I0.0063 J-0.0108
G2 X33.6938 Y78.2892 Z-2.7333 I-0.0125 J0.0
G2 Y78.3108 Z-2.7667 I0.0062 J0.0108
G2 X33.7125 Y78.3 Z-2.8 I0.0063 J-0.0108
G2 X33.6938 Y78.2892 Z-2.8333 I-0.0125 J0.0
G2 Y78.3108 Z-2.8667 I0.0062 J0.0108
G2 X33.7125 Y78.3 Z-2.9 I0.0063 J-0.0108
G2 X33.6938 Y78.2892 Z-2.9333 I-0.0125 J0.0
G2 Y78.3108 Z-2.9667 I0.0063 J0.0108
G2 X33.7125 Y78.3 Z-3.0 I0.0063 J-0.0108
G2 X33.6938 Y78.2892 Z-3.0333 I-0.0125 J0.0
G2 Y78.3108 Z-3.0667 I0.0063 J0.0108
G2 X33.7125 Y78.3 Z-3.1 I0.0063 J-0.0108
G2 X33.6938 Y78.2892 Z-3.1333 I-0.0125 J0.0
G2 Y78.3108 Z-3.1667 I0.0063 J0.0108
G2 X33.7125 Y78.3 Z-3.2 I0.0063 J-0.0108
G2 X33.6938 Y78.2892 I-0.0125 J0.0
G2 Y78.3108 I0.0063 J0.0108
G2 X33.7125 Y78.3 I0.0062 J-0.0108
G0 Z3.0
G0 X41.9825 Y103.86
G0 Z0.01
G1 F1000.0 Z0.0
G2 F2000.0 X41.9638 Y103.8492 Z-0.0333 I-0.0125 J0.0
G2 Y103.8708 Z-0.0667 I0.0062 J0.0108
G2 X41.9825 Y103.86 Z-0.1 I0.0063 J-0.0108
G2 X41.9638 Y103.8492 Z-0.1333 I-0.0125 J0.0
G2 Y103.8708 Z-0.1667 I0.0062 J0.0108
G2 X41.9825 Y103.86 Z-0.2 I0.0063 J-0.0108
G2 X41.9638 Y103.8492 Z-0.2333 I-0.0125 J0.0
G2 Y103.8708 Z-0.2667 I0.0062 J0.0108
G2 X41.9825 Y103.86 Z-0.3 I0.0063 J-0.0108
G2 X41.9638 Y103.8492 Z-0.3333 I-0.0125 J0.0
G2 Y103.8708 Z-0.3667 I0.0062 J0.0108
G2 X41.9825 Y103.86 Z-0.4 I0.0063 J-0.0108
G2 X41.9638 Y103.8492 Z-0.4333 I-0.0125 J0.0
G2 Y103.8708 Z-0.4667 I0.0062 J0.0108
G2 X41.9825 Y103.86 Z-0.5 I0.0063 J-0.0108
G2 X41.9638 Y103.8492 Z-0.5333 I-0.0125 J0.0
G2 Y103.8708 Z-0.5667 I0.0062 J0.0108
G2 X41.9825 Y103.86 Z-0.6 I0.0063 J-0.0108
G2 X41.9638 Y103.8492 Z-0.6333 I-0.0125 J0.0
G2 Y103.8708 Z-0.6667 I0.0062 J0.0108
G2 X41.9825 Y103.86 Z-0.7 I0.0063 J-0.0108
G2 X41.9638 Y103.8492 Z-0.7333 I-0.0125 J0.0
G2 Y103.8708 Z-0.7667 I0.0062 J0.0108
G2 X41.9825 Y103.86 Z-0.8 I0.0063 J-0.0108
G2 X41.9638 Y103.8492 Z-0.8333 I-0.0125 J0.0
G2 Y103.8708 Z-0.8667 I0.0062 J0.0108
G2 X41.9825 Y103.86 Z-0.9 I0.0063 J-0.0108
G2 X41.9638 Y103.8492 Z-0.9333 I-0.0125 J0.0
G2 Y103.8708 Z-0.9667 I0.0062 J0.0108
G2 X41.9825 Y103.86 Z-1.0 I0.0063 J-0.0108
G2 X41.9638 Y103.8492 Z-1.0333 I-0.0125 J0.0
G2 Y103.8708 Z-1.0667 I0.0062 J0.0108
G2 X41.9825 Y103.86 Z-1.1 I0.0063 J-0.0108
G2 X41.9638 Y103.8492 Z-1.1333 I-0.0125 J0.0
G2 Y103.8708 Z-1.1667 I0.0062 J0.0108
G2 X41.9825 Y103.86 Z-1.2 I0.0063 J-0.0108
G2 X41.9638 Y103.8492 Z-1.2333 I-0.0125 J0.0
G2 Y103.8708 Z-1.2667 I0.0062 J0.0108
G2 X41.9825 Y103.86 Z-1.3 I0.0063 J-0.0108
G2 X41.9638 Y103.8492 Z-1.3333 I-0.0125 J0.0
G2 Y103.8708 Z-1.3667 I0.0062 J0.0108
G2 X41.9825 Y103.86 Z-1.4 I0.0063 J-0.0108
G2 X41.9638 Y103.8492 Z-1.4333 I-0.0125 J0.0
G2 Y103.8708 Z-1.4667 I0.0062 J0.0108
G2 X41.9825 Y103.86 Z-1.5 I0.0063 J-0.0108
G2 X41.9638 Y103.8492 Z-1.5333 I-0.0125 J0.0
G2 Y103.8708 Z-1.5667 I0.0062 J0.0108
G2 X41.9825 Y103.86 Z-1.6 I0.0063 J-0.0108
G2 X41.9638 Y103.8492 Z-1.6333 I-0.0125 J0.0
G2 Y103.8708 Z-1.6667 I0.0062 J0.0108
G2 X41.9825 Y103.86 Z-1.7 I0.0063 J-0.0108
G2 X41.9638 Y103.8492 Z-1.7333 I-0.0125 J0.0
G2 Y103.8708 Z-1.7667 I0.0062 J0.0108
G2 X41.9825 Y103.86 Z-1.8 I0.0063 J-0.0108
G2 X41.9638 Y103.8492 Z-1.8333 I-0.0125 J0.0
G2 Y103.8708 Z-1.8667 I0.0062 J0.0108
G2 X41.9825 Y103.86 Z-1.9 I0.0063 J-0.0108
G2 X41.9638 Y103.8492 Z-1.9333 I-0.0125 J0.0
G2 Y103.8708 Z-1.9667 I0.0062 J0.0108
G2 X41.9825 Y103.86 Z-2.0 I0.0063 J-0.0108
G2 X41.9638 Y103.8492 Z-2.0333 I-0.0125 J0.0
G2 Y103.8708 Z-2.0667 I0.0062 J0.0108
G2 X41.9825 Y103.86 Z-2.1 I0.0063 J-0.0108
G2 X41.9638 Y103.8492 Z-2.1333 I-0.0125 J0.0
G2 Y103.8708 Z-2.1667 I0.0062 J0.0108
G2 X41.9825 Y103.86 Z-2.2 I0.0063 J-0.0108
G2 X41.9638 Y103.8492 Z-2.2333 I-0.0125 J0.0
G2 Y103.8708 Z-2.2667 I0.0062 J0.0108
G2 X41.9825 Y103.86 Z-2.3 I0.0063 J-0.0108
G2 X41.9638 Y103.8492 Z-2.3333 I-0.0125 J0.0
G2 Y103.8708 Z-2.3667 I0.0062 J0.0108
G2 X41.9825 Y103.86 Z-2.4 I0.0063 J-0.0108
G2 X41.9638 Y103.8492 Z-2.4333 I-0.0125 J0.0
G2 Y103.8708 Z-2.4667 I0.0062 J0.0108
G2 X41.9825 Y103.86 Z-2.5 I0.0063 J-0.0108
G2 X41.9638 Y103.8492 Z-2.5333 I-0.0125 J0.0
G2 Y103.8708 Z-2.5667 I0.0062 J0.0108
G2 X41.9825 Y103.86 Z-2.6 I0.0063 J-0.0108
G2 X41.9638 Y103.8492 Z-2.6333 I-0.0125 J0.0
G2 Y103.8708 Z-2.6667 I0.0062 J0.0108
G2 X41.9825 Y103.86 Z-2.7 I0.0063 J-0.0108
G2 X41.9638 Y103.8492 Z-2.7333 I-0.0125 J0.0
G2 Y103.8708 Z-2.7667 I0.0062 J0.0108
G2 X41.9825 Y103.86 Z-2.8 I0.0063 J-0.0108
G2 X41.9638 Y103.8492 Z-2.8333 I-0.0125 J0.0
G2 Y103.8708 Z-2.8667 I0.0062 J0.0108
G2 X41.9825 Y103.86 Z-2.9 I0.0063 J-0.0108
G2 X41.9638 Y103.8492 Z-2.9333 I-0.0125 J0.0
G2 Y103.8708 Z-2.9667 I0.0063 J0.0108
G2 X41.9825 Y103.86 Z-3.0 I0.0063 J-0.0108
G2 X41.9638 Y103.8492 Z-3.0333 I-0.0125 J0.0
G2 Y103.8708 Z-3.0667 I0.0063 J0.0108
G2 X41.9825 Y103.86 Z-3.1 I0.0063 J-0.0108
G2 X41.9638 Y103.8492 Z-3.1333 I-0.0125 J0.0
G2 Y103.8708 Z-3.1667 I0.0063 J0.0108
G2 X41.9825 Y103.86 Z-3.2 I0.0063 J-0.0108
G2 X41.9638 Y103.8492 I-0.0125 J0.0
G2 Y103.8708 I0.0063 J0.0108
G2 X41.9825 Y103.86 I0.0062 J-0.0108
G0 Z3.0
G0 X48.1125 Y125.5
G0 Z0.01
G1 F1000.0 Z0.0
G2 F2000.0 X48.0937 Y125.4892 Z-0.0333 I-0.0125 J0.0
G2 Y125.5108 Z-0.0667 I0.0062 J0.0108
G2 X48.1125 Y125.5 Z-0.1 I0.0063 J-0.0108
G2 X48.0937 Y125.4892 Z-0.1333 I-0.0125 J0.0
G2 Y125.5108 Z-0.1667 I0.0062 J0.0108
G2 X48.1125 Y125.5 Z-0.2 I0.0063 J-0.0108
G2 X48.0937 Y125.4892 Z-0.2333 I-0.0125 J0.0
G2 Y125.5108 Z-0.2667 I0.0062 J0.0108
G2 X48.1125 Y125.5 Z-0.3 I0.0063 J-0.0108
G2 X48.0937 Y125.4892 Z-0.3333 I-0.0125 J0.0
G2 Y125.5108 Z-0.3667 I0.0062 J0.0108
G2 X48.1125 Y125.5 Z-0.4 I0.0063 J-0.0108
G2 X48.0937 Y125.4892 Z-0.4333 I-0.0125 J0.0
G2 Y125.5108 Z-0.4667 I0.0062 J0.0108
G2 X48.1125 Y125.5 Z-0.5 I0.0063 J-0.0108
G2 X48.0937 Y125.4892 Z-0.5333 I-0.0125 J0.0
G2 Y125.5108 Z-0.5667 I0.0062 J0.0108
G2 X48.1125 Y125.5 Z-0.6 I0.0063 J-0.0108
G2 X48.0937 Y125.4892 Z-0.6333 I-0.0125 J0.0
G2 Y125.5108 Z-0.6667 I0.0062 J0.0108
G2 X48.1125 Y125.5 Z-0.7 I0.0063 J-0.0108
G2 X48.0937 Y125.4892 Z-0.7333 I-0.0125 J0.0
G2 Y125.5108 Z-0.7667 I0.0062 J0.0108
G2 X48.1125 Y125.5 Z-0.8 I0.0063 J-0.0108
G2 X48.0937 Y125.4892 Z-0.8333 I-0.0125 J0.0
G2 Y125.5108 Z-0.8667 I0.0062 J0.0108
G2 X48.1125 Y125.5 Z-0.9 I0.0063 J-0.0108
G2 X48.0937 Y125.4892 Z-0.9333 I-0.0125 J0.0
G2 Y125.5108 Z-0.9667 I0.0062 J0.0108
G2 X48.1125 Y125.5 Z-1.0 I0.0063 J-0.0108
G2 X48.0937 Y125.4892 Z-1.0333 I-0.0125 J0.0
G2 Y125.5108 Z-1.0667 I0.0062 J0.0108
G2 X48.1125 Y125.5 Z-1.1 I0.0063 J-0.0108
G2 X48.0937 Y125.4892 Z-1.1333 I-0.0125 J0.0
G2 Y125.5108 Z-1.1667 I0.0062 J0.0108
G2 X48.1125 Y125.5 Z-1.2 I0.0063 J-0.0108
G2 X48.0937 Y125.4892 Z-1.2333 I-0.0125 J0.0
G2 Y125.5108 Z-1.2667 I0.0062 J0.0108
G2 X48.1125 Y125.5 Z-1.3 I0.0063 J-0.0108
G2 X48.0937 Y125.4892 Z-1.3333 I-0.0125 J0.0
G2 Y125.5108 Z-1.3667 I0.0062 J0.0108
G2 X48.1125 Y125.5 Z-1.4 I0.0063 J-0.0108
G2 X48.0937 Y125.4892 Z-1.4333 I-0.0125 J0.0
G2 Y125.5108 Z-1.4667 I0.0062 J0.0108
G2 X48.1125 Y125.5 Z-1.5 I0.0063 J-0.0108
G2 X48.0937 Y125.4892 Z-1.5333 I-0.0125 J0.0
G2 Y125.5108 Z-1.5667 I0.0062 J0.0108
G2 X48.1125 Y125.5 Z-1.6 I0.0063 J-0.0108
G2 X48.0937 Y125.4892 Z-1.6333 I-0.0125 J0.0
G2 Y125.5108 Z-1.6667 I0.0062 J0.0108
G2 X48.1125 Y125.5 Z-1.7 I0.0063 J-0.0108
G2 X48.0937 Y125.4892 Z-1.7333 I-0.0125 J0.0
G2 Y125.5108 Z-1.7667 I0.0062 J0.0108
G2 X48.1125 Y125.5 Z-1.8 I0.0063 J-0.0108
G2 X48.0937 Y125.4892 Z-1.8333 I-0.0125 J0.0
G2 Y125.5108 Z-1.8667 I0.0062 J0.0108
G2 X48.1125 Y125.5 Z-1.9 I0.0063 J-0.0108
G2 X48.0937 Y125.4892 Z-1.9333 I-0.0125 J0.0
G2 Y125.5108 Z-1.9667 I0.0062 J0.0108
G2 X48.1125 Y125.5 Z-2.0 I0.0063 J-0.0108
G2 X48.0937 Y125.4892 Z-2.0333 I-0.0125 J0.0
G2 Y125.5108 Z-2.0667 I0.0062 J0.0108
G2 X48.1125 Y125.5 Z-2.1 I0.0063 J-0.0108
G2 X48.0937 Y125.4892 Z-2.1333 I-0.0125 J0.0
G2 Y125.5108 Z-2.1667 I0.0062 J0.0108
G2 X48.1125 Y125.5 Z-2.2 I0.0063 J-0.0108
G2 X48.0937 Y125.4892 Z-2.2333 I-0.0125 J0.0
G2 Y125.5108 Z-2.2667 I0.0062 J0.0108
G2 X48.1125 Y125.5 Z-2.3 I0.0063 J-0.0108
G2 X48.0937 Y125.4892 Z-2.3333 I-0.0125 J0.0
G2 Y125.5108 Z-2.3667 I0.0062 J0.0108
G2 X48.1125 Y125.5 Z-2.4 I0.0063 J-0.0108
G2 X48.0937 Y125.4892 Z-2.4333 I-0.0125 J0.0
G2 Y125.5108 Z-2.4667 I0.0062 J0.0108
G2 X48.1125 Y125.5 Z-2.5 I0.0063 J-0.0108
G2 X48.0937 Y125.4892 Z-2.5333 I-0.0125 J0.0
G2 Y125.5108 Z-2.5667 I0.0062 J0.0108
G2 X48.1125 Y125.5 Z-2.6 I0.0063 J-0.0108
G2 X48.0937 Y125.4892 Z-2.6333 I-0.0125 J0.0
G2 Y125.5108 Z-2.6667 I0.0062 J0.0108
G2 X48.1125 Y125.5 Z-2.7 I0.0063 J-0.0108
G2 X48.0937 Y125.4892 Z-2.7333 I-0.0125 J0.0
G2 Y125.5108 Z-2.7667 I0.0062 J0.0108
G2 X48.1125 Y125.5 Z-2.8 I0.0063 J-0.0108
G2 X48.0937 Y125.4892 Z-2.8333 I-0.0125 J0.0
G2 Y125.5108 Z-2.8667 I0.0062 J0.0108
G2 X48.1125 Y125.5 Z-2.9 I0.0063 J-0.0108
G2 X48.0937 Y125.4892 Z-2.9333 I-0.0125 J0.0
G2 Y125.5108 Z-2.9667 I0.0063 J0.0108
G2 X48.1125 Y125.5 Z-3.0 I0.0063 J-0.0108
G2 X48.0937 Y125.4892 Z-3.0333 I-0.0125 J0.0
G2 Y125.5108 Z-3.0667 I0.0063 J0.0108
G2 X48.1125 Y125.5 Z-3.1 I0.0063 J-0.0108
G2 X48.0937 Y125.4892 Z-3.1333 I-0.0125 J0.0
G2 Y125.5108 Z-3.1667 I0.0063 J0.0108
G2 X48.1125 Y125.5 Z-3.2 I0.0063 J-0.0108
G2 X48.0937 Y125.4892 I-0.0125 J0.0
G2 Y125.5108 I0.0063 J0.0108
G2 X48.1125 Y125.5 I0.0062 J-0.0108
G0 Z3.0
G0 X13.9125 Y103.8
G0 Z0.01
G1 F1000.0 Z0.0
G2 F2000.0 X13.8938 Y103.7892 Z-0.0333 I-0.0125 J0.0
G2 Y103.8108 Z-0.0667 I0.0062 J0.0108
G2 X13.9125 Y103.8 Z-0.1 I0.0063 J-0.0108
G2 X13.8938 Y103.7892 Z-0.1333 I-0.0125 J0.0
G2 Y103.8108 Z-0.1667 I0.0062 J0.0108
G2 X13.9125 Y103.8 Z-0.2 I0.0063 J-0.0108
G2 X13.8938 Y103.7892 Z-0.2333 I-0.0125 J0.0
G2 Y103.8108 Z-0.2667 I0.0062 J0.0108
G2 X13.9125 Y103.8 Z-0.3 I0.0063 J-0.0108
G2 X13.8938 Y103.7892 Z-0.3333 I-0.0125 J0.0
G2 Y103.8108 Z-0.3667 I0.0062 J0.0108
G2 X13.9125 Y103.8 Z-0.4 I0.0063 J-0.0108
G2 X13.8938 Y103.7892 Z-0.4333 I-0.0125 J0.0
G2 Y103.8108 Z-0.4667 I0.0062 J0.0108
G2 X13.9125 Y103.8 Z-0.5 I0.0063 J-0.0108
G2 X13.8938 Y103.7892 Z-0.5333 I-0.0125 J0.0
G2 Y103.8108 Z-0.5667 I0.0062 J0.0108
G2 X13.9125 Y103.8 Z-0.6 I0.0063 J-0.0108
G2 X13.8938 Y103.7892 Z-0.6333 I-0.0125 J0.0
G2 Y103.8108 Z-0.6667 I0.0062 J0.0108
G2 X13.9125 Y103.8 Z-0.7 I0.0063 J-0.0108
G2 X13.8938 Y103.7892 Z-0.7333 I-0.0125 J0.0
G2 Y103.8108 Z-0.7667 I0.0062 J0.0108
G2 X13.9125 Y103.8 Z-0.8 I0.0063 J-0.0108
G2 X13.8938 Y103.7892 Z-0.8333 I-0.0125 J0.0
G2 Y103.8108 Z-0.8667 I0.0062 J0.0108
G2 X13.9125 Y103.8 Z-0.9 I0.0063 J-0.0108
G2 X13.8938 Y103.7892 Z-0.9333 I-0.0125 J0.0
G2 Y103.8108 Z-0.9667 I0.0062 J0.0108
G2 X13.9125 Y103.8 Z-1.0 I0.0063 J-0.0108
G2 X13.8938 Y103.7892 Z-1.0333 I-0.0125 J0.0
G2 Y103.8108 Z-1.0667 I0.0062 J0.0108
G2 X13.9125 Y103.8 Z-1.1 I0.0063 J-0.0108
G2 X13.8938 Y103.7892 Z-1.1333 I-0.0125 J0.0
G2 Y103.8108 Z-1.1667 I0.0062 J0.0108
G2 X13.9125 Y103.8 Z-1.2 I0.0063 J-0.0108
G2 X13.8938 Y103.7892 Z-1.2333 I-0.0125 J0.0
G2 Y103.8108 Z-1.2667 I0.0062 J0.0108
G2 X13.9125 Y103.8 Z-1.3 I0.0063 J-0.0108
G2 X13.8938 Y103.7892 Z-1.3333 I-0.0125 J0.0
G2 Y103.8108 Z-1.3667 I0.0062 J0.0108
G2 X13.9125 Y103.8 Z-1.4 I0.0063 J-0.0108
G2 X13.8938 Y103.7892 Z-1.4333 I-0.0125 J0.0
G2 Y103.8108 Z-1.4667 I0.0062 J0.0108
G2 X13.9125 Y103.8 Z-1.5 I0.0063 J-0.0108
G2 X13.8938 Y103.7892 Z-1.5333 I-0.0125 J0.0
G2 Y103.8108 Z-1.5667 I0.0062 J0.0108
G2 X13.9125 Y103.8 Z-1.6 I0.0063 J-0.0108
G2 X13.8938 Y103.7892 Z-1.6333 I-0.0125 J0.0
G2 Y103.8108 Z-1.6667 I0.0062 J0.0108
G2 X13.9125 Y103.8 Z-1.7 I0.0063 J-0.0108
G2 X13.8938 Y103.7892 Z-1.7333 I-0.0125 J0.0
G2 Y103.8108 Z-1.7667 I0.0062 J0.0108
G2 X13.9125 Y103.8 Z-1.8 I0.0063 J-0.0108
G2 X13.8938 Y103.7892 Z-1.8333 I-0.0125 J0.0
G2 Y103.8108 Z-1.8667 I0.0062 J0.0108
G2 X13.9125 Y103.8 Z-1.9 I0.0063 J-0.0108
G2 X13.8938 Y103.7892 Z-1.9333 I-0.0125 J0.0
G2 Y103.8108 Z-1.9667 I0.0062 J0.0108
G2 X13.9125 Y103.8 Z-2.0 I0.0063 J-0.0108
G2 X13.8938 Y103.7892 Z-2.0333 I-0.0125 J0.0
G2 Y103.8108 Z-2.0667 I0.0062 J0.0108
G2 X13.9125 Y103.8 Z-2.1 I0.0063 J-0.0108
G2 X13.8938 Y103.7892 Z-2.1333 I-0.0125 J0.0
G2 Y103.8108 Z-2.1667 I0.0062 J0.0108
G2 X13.9125 Y103.8 Z-2.2 I0.0063 J-0.0108
G2 X13.8938 Y103.7892 Z-2.2333 I-0.0125 J0.0
G2 Y103.8108 Z-2.2667 I0.0062 J0.0108
G2 X13.9125 Y103.8 Z-2.3 I0.0063 J-0.0108
G2 X13.8938 Y103.7892 Z-2.3333 I-0.0125 J0.0
G2 Y103.8108 Z-2.3667 I0.0062 J0.0108
G2 X13.9125 Y103.8 Z-2.4 I0.0063 J-0.0108
G2 X13.8938 Y103.7892 Z-2.4333 I-0.0125 J0.0
G2 Y103.8108 Z-2.4667 I0.0062 J0.0108
G2 X13.9125 Y103.8 Z-2.5 I0.0063 J-0.0108
G2 X13.8938 Y103.7892 Z-2.5333 I-0.0125 J0.0
G2 Y103.8108 Z-2.5667 I0.0062 J0.0108
G2 X13.9125 Y103.8 Z-2.6 I0.0063 J-0.0108
G2 X13.8938 Y103.7892 Z-2.6333 I-0.0125 J0.0
G2 Y103.8108 Z-2.6667 I0.0062 J0.0108
G2 X13.9125 Y103.8 Z-2.7 I0.0063 J-0.0108
G2 X13.8938 Y103.7892 Z-2.7333 I-0.0125 J0.0
G2 Y103.8108 Z-2.7667 I0.0062 J0.0108
G2 X13.9125 Y103.8 Z-2.8 I0.0063 J-0.0108
G2 X13.8938 Y103.7892 Z-2.8333 I-0.0125 J0.0
G2 Y103.8108 Z-2.8667 I0.0062 J0.0108
G2 X13.9125 Y103.8 Z-2.9 I0.0063 J-0.0108
G2 X13.8938 Y103.7892 Z-2.9333 I-0.0125 J0.0
G2 Y103.8108 Z-2.9667 I0.0062 J0.0108
G2 X13.9125 Y103.8 Z-3.0 I0.0063 J-0.0108
G2 X13.8938 Y103.7892 Z-3.0333 I-0.0125 J0.0
G2 Y103.8108 Z-3.0667 I0.0062 J0.0108
G2 X13.9125 Y103.8 Z-3.1 I0.0063 J-0.0108
G2 X13.8938 Y103.7892 Z-3.1333 I-0.0125 J0.0
G2 Y103.8108 Z-3.1667 I0.0063 J0.0108
G2 X13.9125 Y103.8 Z-3.2 I0.0062 J-0.0108
G2 X13.8938 Y103.7892 I-0.0125 J0.0
G2 Y103.8108 I0.0063 J0.0108
G2 X13.9125 Y103.8 I0.0062 J-0.0108
G0 Z3.0
G0 X7.5125 Y125.5
G0 Z0.01
G1 F1000.0 Z0.0
G2 F2000.0 X7.4938 Y125.4892 Z-0.0333 I-0.0125 J0.0
G2 Y125.5108 Z-0.0667 I0.0062 J0.0108
G2 X7.5125 Y125.5 Z-0.1 I0.0063 J-0.0108
G2 X7.4938 Y125.4892 Z-0.1333 I-0.0125 J0.0
G2 Y125.5108 Z-0.1667 I0.0062 J0.0108
G2 X7.5125 Y125.5 Z-0.2 I0.0063 J-0.0108
G2 X7.4938 Y125.4892 Z-0.2333 I-0.0125 J0.0
G2 Y125.5108 Z-0.2667 I0.0062 J0.0108
G2 X7.5125 Y125.5 Z-0.3 I0.0063 J-0.0108
G2 X7.4938 Y125.4892 Z-0.3333 I-0.0125 J0.0
G2 Y125.5108 Z-0.3667 I0.0062 J0.0108
G2 X7.5125 Y125.5 Z-0.4 I0.0063 J-0.0108
G2 X7.4938 Y125.4892 Z-0.4333 I-0.0125 J0.0
G2 Y125.5108 Z-0.4667 I0.0062 J0.0108
G2 X7.5125 Y125.5 Z-0.5 I0.0063 J-0.0108
G2 X7.4938 Y125.4892 Z-0.5333 I-0.0125 J0.0
G2 Y125.5108 Z-0.5667 I0.0062 J0.0108
G2 X7.5125 Y125.5 Z-0.6 I0.0063 J-0.0108
G2 X7.4938 Y125.4892 Z-0.6333 I-0.0125 J0.0
G2 Y125.5108 Z-0.6667 I0.0062 J0.0108
G2 X7.5125 Y125.5 Z-0.7 I0.0063 J-0.0108
G2 X7.4938 Y125.4892 Z-0.7333 I-0.0125 J0.0
G2 Y125.5108 Z-0.7667 I0.0062 J0.0108
G2 X7.5125 Y125.5 Z-0.8 I0.0063 J-0.0108
G2 X7.4938 Y125.4892 Z-0.8333 I-0.0125 J0.0
G2 Y125.5108 Z-0.8667 I0.0062 J0.0108
G2 X7.5125 Y125.5 Z-0.9 I0.0063 J-0.0108
G2 X7.4938 Y125.4892 Z-0.9333 I-0.0125 J0.0
G2 Y125.5108 Z-0.9667 I0.0062 J0.0108
G2 X7.5125 Y125.5 Z-1.0 I0.0063 J-0.0108
G2 X7.4938 Y125.4892 Z-1.0333 I-0.0125 J0.0
G2 Y125.5108 Z-1.0667 I0.0062 J0.0108
G2 X7.5125 Y125.5 Z-1.1 I0.0063 J-0.0108
G2 X7.4938 Y125.4892 Z-1.1333 I-0.0125 J0.0
G2 Y125.5108 Z-1.1667 I0.0062 J0.0108
G2 X7.5125 Y125.5 Z-1.2 I0.0063 J-0.0108
G2 X7.4938 Y125.4892 Z-1.2333 I-0.0125 J0.0
G2 Y125.5108 Z-1.2667 I0.0062 J0.0108
G2 X7.5125 Y125.5 Z-1.3 I0.0063 J-0.0108
G2 X7.4938 Y125.4892 Z-1.3333 I-0.0125 J0.0
G2 Y125.5108 Z-1.3667 I0.0062 J0.0108
G2 X7.5125 Y125.5 Z-1.4 I0.0063 J-0.0108
G2 X7.4938 Y125.4892 Z-1.4333 I-0.0125 J0.0
G2 Y125.5108 Z-1.4667 I0.0062 J0.0108
G2 X7.5125 Y125.5 Z-1.5 I0.0063 J-0.0108
G2 X7.4938 Y125.4892 Z-1.5333 I-0.0125 J0.0
G2 Y125.5108 Z-1.5667 I0.0062 J0.0108
G2 X7.5125 Y125.5 Z-1.6 I0.0063 J-0.0108
G2 X7.4938 Y125.4892 Z-1.6333 I-0.0125 J0.0
G2 Y125.5108 Z-1.6667 I0.0062 J0.0108
G2 X7.5125 Y125.5 Z-1.7 I0.0063 J-0.0108
G2 X7.4938 Y125.4892 Z-1.7333 I-0.0125 J0.0
G2 Y125.5108 Z-1.7667 I0.0062 J0.0108
G2 X7.5125 Y125.5 Z-1.8 I0.0063 J-0.0108
G2 X7.4938 Y125.4892 Z-1.8333 I-0.0125 J0.0
G2 Y125.5108 Z-1.8667 I0.0062 J0.0108
G2 X7.5125 Y125.5 Z-1.9 I0.0063 J-0.0108
G2 X7.4938 Y125.4892 Z-1.9333 I-0.0125 J0.0
G2 Y125.5108 Z-1.9667 I0.0062 J0.0108
G2 X7.5125 Y125.5 Z-2.0 I0.0063 J-0.0108
G2 X7.4938 Y125.4892 Z-2.0333 I-0.0125 J0.0
G2 Y125.5108 Z-2.0667 I0.0062 J0.0108
G2 X7.5125 Y125.5 Z-2.1 I0.0063 J-0.0108
G2 X7.4938 Y125.4892 Z-2.1333 I-0.0125 J0.0
G2 Y125.5108 Z-2.1667 I0.0062 J0.0108
G2 X7.5125 Y125.5 Z-2.2 I0.0063 J-0.0108
G2 X7.4938 Y125.4892 Z-2.2333 I-0.0125 J0.0
G2 Y125.5108 Z-2.2667 I0.0062 J0.0108
G2 X7.5125 Y125.5 Z-2.3 I0.0063 J-0.0108
G2 X7.4938 Y125.4892 Z-2.3333 I-0.0125 J0.0
G2 Y125.5108 Z-2.3667 I0.0062 J0.0108
G2 X7.5125 Y125.5 Z-2.4 I0.0063 J-0.0108
G2 X7.4938 Y125.4892 Z-2.4333 I-0.0125 J0.0
G2 Y125.5108 Z-2.4667 I0.0062 J0.0108
G2 X7.5125 Y125.5 Z-2.5 I0.0063 J-0.0108
G2 X7.4938 Y125.4892 Z-2.5333 I-0.0125 J0.0
G2 Y125.5108 Z-2.5667 I0.0062 J0.0108
G2 X7.5125 Y125.5 Z-2.6 I0.0063 J-0.0108
G2 X7.4938 Y125.4892 Z-2.6333 I-0.0125 J0.0
G2 Y125.5108 Z-2.6667 I0.0062 J0.0108
G2 X7.5125 Y125.5 Z-2.7 I0.0063 J-0.0108
G2 X7.4938 Y125.4892 Z-2.7333 I-0.0125 J0.0
G2 Y125.5108 Z-2.7667 I0.0062 J0.0108
G2 X7.5125 Y125.5 Z-2.8 I0.0063 J-0.0108
G2 X7.4938 Y125.4892 Z-2.8333 I-0.0125 J0.0
G2 Y125.5108 Z-2.8667 I0.0062 J0.0108
G2 X7.5125 Y125.5 Z-2.9 I0.0063 J-0.0108
G2 X7.4938 Y125.4892 Z-2.9333 I-0.0125 J0.0
G2 Y125.5108 Z-2.9667 I0.0062 J0.0108
G2 X7.5125 Y125.5 Z-3.0 I0.0063 J-0.0108
G2 X7.4938 Y125.4892 Z-3.0333 I-0.0125 J0.0
G2 Y125.5108 Z-3.0667 I0.0062 J0.0108
G2 X7.5125 Y125.5 Z-3.1 I0.0062 J-0.0108
G2 X7.4938 Y125.4892 Z-3.1333 I-0.0125 J0.0
G2 Y125.5108 Z-3.1667 I0.0063 J0.0108
G2 X7.5125 Y125.5 Z-3.2 I0.0062 J-0.0108
G2 X7.4938 Y125.4892 I-0.0125 J0.0
G2 Y125.5108 I0.0063 J0.0108
G2 X7.5125 Y125.5 I0.0062 J-0.0108
G0 Z3.0
G0 X14.7125 Y55.3
G0 Z0.01
G1 F1000.0 Z0.0
G2 F2000.0 X14.6937 Y55.2892 Z-0.0333 I-0.0125 J0.0
G2 Y55.3108 Z-0.0667 I0.0063 J0.0108
G2 X14.7125 Y55.3 Z-0.1 I0.0062 J-0.0108
G2 X14.6937 Y55.2892 Z-0.1333 I-0.0125 J0.0
G2 Y55.3108 Z-0.1667 I0.0063 J0.0108
G2 X14.7125 Y55.3 Z-0.2 I0.0062 J-0.0108
G2 X14.6937 Y55.2892 Z-0.2333 I-0.0125 J0.0
G2 Y55.3108 Z-0.2667 I0.0063 J0.0108
G2 X14.7125 Y55.3 Z-0.3 I0.0062 J-0.0108
G2 X14.6937 Y55.2892 Z-0.3333 I-0.0125 J0.0
G2 Y55.3108 Z-0.3667 I0.0063 J0.0108
G2 X14.7125 Y55.3 Z-0.4 I0.0062 J-0.0108
G2 X14.6937 Y55.2892 Z-0.4333 I-0.0125 J0.0
G2 Y55.3108 Z-0.4667 I0.0063 J0.0108
G2 X14.7125 Y55.3 Z-0.5 I0.0062 J-0.0108
G2 X14.6937 Y55.2892 Z-0.5333 I-0.0125 J0.0
G2 Y55.3108 Z-0.5667 I0.0063 J0.0108
G2 X14.7125 Y55.3 Z-0.6 I0.0062 J-0.0108
G2 X14.6937 Y55.2892 Z-0.6333 I-0.0125 J0.0
G2 Y55.3108 Z-0.6667 I0.0063 J0.0108
G2 X14.7125 Y55.3 Z-0.7 I0.0062 J-0.0108
G2 X14.6937 Y55.2892 Z-0.7333 I-0.0125 J0.0
G2 Y55.3108 Z-0.7667 I0.0063 J0.0108
G2 X14.7125 Y55.3 Z-0.8 I0.0062 J-0.0108
G2 X14.6937 Y55.2892 Z-0.8333 I-0.0125 J0.0
G2 Y55.3108 Z-0.8667 I0.0063 J0.0108
G2 X14.7125 Y55.3 Z-0.9 I0.0062 J-0.0108
G2 X14.6937 Y55.2892 Z-0.9333 I-0.0125 J0.0
G2 Y55.3108 Z-0.9667 I0.0063 J0.0108
G2 X14.7125 Y55.3 Z-1.0 I0.0062 J-0.0108
G2 X14.6937 Y55.2892 Z-1.0333 I-0.0125 J0.0
G2 Y55.3108 Z-1.0667 I0.0063 J0.0108
G2 X14.7125 Y55.3 Z-1.1 I0.0062 J-0.0108
G2 X14.6937 Y55.2892 Z-1.1333 I-0.0125 J0.0
G2 Y55.3108 Z-1.1667 I0.0063 J0.0108
G2 X14.7125 Y55.3 Z-1.2 I0.0062 J-0.0108
G2 X14.6937 Y55.2892 Z-1.2333 I-0.0125 J0.0
G2 Y55.3108 Z-1.2667 I0.0063 J0.0108
G2 X14.7125 Y55.3 Z-1.3 I0.0062 J-0.0108
G2 X14.6937 Y55.2892 Z-1.3333 I-0.0125 J0.0
G2 Y55.3108 Z-1.3667 I0.0063 J0.0108
G2 X14.7125 Y55.3 Z-1.4 I0.0062 J-0.0108
G2 X14.6937 Y55.2892 Z-1.4333 I-0.0125 J0.0
G2 Y55.3108 Z-1.4667 I0.0063 J0.0108
G2 X14.7125 Y55.3 Z-1.5 I0.0062 J-0.0108
G2 X14.6937 Y55.2892 Z-1.5333 I-0.0125 J0.0
G2 Y55.3108 Z-1.5667 I0.0063 J0.0108
G2 X14.7125 Y55.3 Z-1.6 I0.0062 J-0.0108
G2 X14.6937 Y55.2892 Z-1.6333 I-0.0125 J0.0
G2 Y55.3108 Z-1.6667 I0.0063 J0.0108
G2 X14.7125 Y55.3 Z-1.7 I0.0062 J-0.0108
G2 X14.6937 Y55.2892 Z-1.7333 I-0.0125 J0.0
G2 Y55.3108 Z-1.7667 I0.0063 J0.0108
G2 X14.7125 Y55.3 Z-1.8 I0.0062 J-0.0108
G2 X14.6937 Y55.2892 Z-1.8333 I-0.0125 J0.0
G2 Y55.3108 Z-1.8667 I0.0063 J0.0108
G2 X14.7125 Y55.3 Z-1.9 I0.0062 J-0.0108
G2 X14.6937 Y55.2892 Z-1.9333 I-0.0125 J0.0
G2 Y55.3108 Z-1.9667 I0.0063 J0.0108
G2 X14.7125 Y55.3 Z-2.0 I0.0062 J-0.0108
G2 X14.6937 Y55.2892 Z-2.0333 I-0.0125 J0.0
G2 Y55.3108 Z-2.0667 I0.0063 J0.0108
G2 X14.7125 Y55.3 Z-2.1 I0.0062 J-0.0108
G2 X14.6937 Y55.2892 Z-2.1333 I-0.0125 J0.0
G2 Y55.3108 Z-2.1667 I0.0063 J0.0108
G2 X14.7125 Y55.3 Z-2.2 I0.0062 J-0.0108
G2 X14.6937 Y55.2892 Z-2.2333 I-0.0125 J0.0
G2 Y55.3108 Z-2.2667 I0.0063 J0.0108
G2 X14.7125 Y55.3 Z-2.3 I0.0062 J-0.0108
G2 X14.6937 Y55.2892 Z-2.3333 I-0.0125 J0.0
G2 Y55.3108 Z-2.3667 I0.0063 J0.0108
G2 X14.7125 Y55.3 Z-2.4 I0.0062 J-0.0108
G2 X14.6937 Y55.2892 Z-2.4333 I-0.0125 J0.0
G2 Y55.3108 Z-2.4667 I0.0063 J0.0108
G2 X14.7125 Y55.3 Z-2.5 I0.0062 J-0.0108
G2 X14.6937 Y55.2892 Z-2.5333 I-0.0125 J0.0
G2 Y55.3108 Z-2.5667 I0.0063 J0.0108
G2 X14.7125 Y55.3 Z-2.6 I0.0062 J-0.0108
G2 X14.6937 Y55.2892 Z-2.6333 I-0.0125 J0.0
G2 Y55.3108 Z-2.6667 I0.0063 J0.0108
G2 X14.7125 Y55.3 Z-2.7 I0.0062 J-0.0108
G2 X14.6937 Y55.2892 Z-2.7333 I-0.0125 J0.0
G2 Y55.3108 Z-2.7667 I0.0063 J0.0108
G2 X14.7125 Y55.3 Z-2.8 I0.0062 J-0.0108
G2 X14.6937 Y55.2892 Z-2.8333 I-0.0125 J0.0
G2 Y55.3108 Z-2.8667 I0.0063 J0.0108
G2 X14.7125 Y55.3 Z-2.9 I0.0062 J-0.0108
G2 X14.6937 Y55.2892 Z-2.9333 I-0.0125 J0.0
G2 Y55.3108 Z-2.9667 I0.0063 J0.0108
G2 X14.7125 Y55.3 Z-3.0 I0.0062 J-0.0108
G2 X14.6937 Y55.2892 Z-3.0333 I-0.0125 J0.0
G2 Y55.3108 Z-3.0667 I0.0063 J0.0108
G2 X14.7125 Y55.3 Z-3.1 I0.0062 J-0.0108
G2 X14.6937 Y55.2892 Z-3.1333 I-0.0125 J0.0
G2 Y55.3108 Z-3.1667 I0.0063 J0.0108
G2 X14.7125 Y55.3 Z-3.2 I0.0062 J-0.0108
G2 X14.6937 Y55.2892 I-0.0125 J0.0
G2 Y55.3108 I0.0063 J0.0108
G2 X14.7125 Y55.3 I0.0062 J-0.0108
G0 Z3.0
G0 X26.2125 Y43.4
G0 Z0.01
G1 F1000.0 Z0.0
G2 F2000.0 X26.1937 Y43.3892 Z-0.0333 I-0.0125 J0.0
G2 Y43.4108 Z-0.0667 I0.0063 J0.0108
G2 X26.2125 Y43.4 Z-0.1 I0.0062 J-0.0108
G2 X26.1937 Y43.3892 Z-0.1333 I-0.0125 J0.0
G2 Y43.4108 Z-0.1667 I0.0063 J0.0108
G2 X26.2125 Y43.4 Z-0.2 I0.0062 J-0.0108
G2 X26.1937 Y43.3892 Z-0.2333 I-0.0125 J0.0
G2 Y43.4108 Z-0.2667 I0.0063 J0.0108
G2 X26.2125 Y43.4 Z-0.3 I0.0062 J-0.0108
G2 X26.1937 Y43.3892 Z-0.3333 I-0.0125 J0.0
G2 Y43.4108 Z-0.3667 I0.0063 J0.0108
G2 X26.2125 Y43.4 Z-0.4 I0.0062 J-0.0108
G2 X26.1937 Y43.3892 Z-0.4333 I-0.0125 J0.0
G2 Y43.4108 Z-0.4667 I0.0063 J0.0108
G2 X26.2125 Y43.4 Z-0.5 I0.0062 J-0.0108
G2 X26.1937 Y43.3892 Z-0.5333 I-0.0125 J0.0
G2 Y43.4108 Z-0.5667 I0.0063 J0.0108
G2 X26.2125 Y43.4 Z-0.6 I0.0062 J-0.0108
G2 X26.1937 Y43.3892 Z-0.6333 I-0.0125 J0.0
G2 Y43.4108 Z-0.6667 I0.0063 J0.0108
G2 X26.2125 Y43.4 Z-0.7 I0.0062 J-0.0108
G2 X26.1937 Y43.3892 Z-0.7333 I-0.0125 J0.0
G2 Y43.4108 Z-0.7667 I0.0063 J0.0108
G2 X26.2125 Y43.4 Z-0.8 I0.0062 J-0.0108
G2 X26.1937 Y43.3892 Z-0.8333 I-0.0125 J0.0
G2 Y43.4108 Z-0.8667 I0.0063 J0.0108
G2 X26.2125 Y43.4 Z-0.9 I0.0062 J-0.0108
G2 X26.1937 Y43.3892 Z-0.9333 I-0.0125 J0.0
G2 Y43.4108 Z-0.9667 I0.0063 J0.0108
G2 X26.2125 Y43.4 Z-1.0 I0.0062 J-0.0108
G2 X26.1937 Y43.3892 Z-1.0333 I-0.0125 J0.0
G2 Y43.4108 Z-1.0667 I0.0063 J0.0108
G2 X26.2125 Y43.4 Z-1.1 I0.0062 J-0.0108
G2 X26.1937 Y43.3892 Z-1.1333 I-0.0125 J0.0
G2 Y43.4108 Z-1.1667 I0.0063 J0.0108
G2 X26.2125 Y43.4 Z-1.2 I0.0062 J-0.0108
G2 X26.1937 Y43.3892 Z-1.2333 I-0.0125 J0.0
G2 Y43.4108 Z-1.2667 I0.0063 J0.0108
G2 X26.2125 Y43.4 Z-1.3 I0.0062 J-0.0108
G2 X26.1937 Y43.3892 Z-1.3333 I-0.0125 J0.0
G2 Y43.4108 Z-1.3667 I0.0063 J0.0108
G2 X26.2125 Y43.4 Z-1.4 I0.0062 J-0.0108
G2 X26.1937 Y43.3892 Z-1.4333 I-0.0125 J0.0
G2 Y43.4108 Z-1.4667 I0.0063 J0.0108
G2 X26.2125 Y43.4 Z-1.5 I0.0062 J-0.0108
G2 X26.1937 Y43.3892 Z-1.5333 I-0.0125 J0.0
G2 Y43.4108 Z-1.5667 I0.0063 J0.0108
G2 X26.2125 Y43.4 Z-1.6 I0.0062 J-0.0108
G2 X26.1937 Y43.3892 Z-1.6333 I-0.0125 J0.0
G2 Y43.4108 Z-1.6667 I0.0063 J0.0108
G2 X26.2125 Y43.4 Z-1.7 I0.0062 J-0.0108
G2 X26.1937 Y43.3892 Z-1.7333 I-0.0125 J0.0
G2 Y43.4108 Z-1.7667 I0.0063 J0.0108
G2 X26.2125 Y43.4 Z-1.8 I0.0062 J-0.0108
G2 X26.1937 Y43.3892 Z-1.8333 I-0.0125 J0.0
G2 Y43.4108 Z-1.8667 I0.0063 J0.0108
G2 X26.2125 Y43.4 Z-1.9 I0.0062 J-0.0108
G2 X26.1937 Y43.3892 Z-1.9333 I-0.0125 J0.0
G2 Y43.4108 Z-1.9667 I0.0063 J0.0108
G2 X26.2125 Y43.4 Z-2.0 I0.0062 J-0.0108
G2 X26.1937 Y43.3892 Z-2.0333 I-0.0125 J0.0
G2 Y43.4108 Z-2.0667 I0.0063 J0.0108
G2 X26.2125 Y43.4 Z-2.1 I0.0062 J-0.0108
G2 X26.1937 Y43.3892 Z-2.1333 I-0.0125 J0.0
G2 Y43.4108 Z-2.1667 I0.0063 J0.0108
G2 X26.2125 Y43.4 Z-2.2 I0.0062 J-0.0108
G2 X26.1937 Y43.3892 Z-2.2333 I-0.0125 J0.0
G2 Y43.4108 Z-2.2667 I0.0063 J0.0108
G2 X26.2125 Y43.4 Z-2.3 I0.0062 J-0.0108
G2 X26.1937 Y43.3892 Z-2.3333 I-0.0125 J0.0
G2 Y43.4108 Z-2.3667 I0.0063 J0.0108
G2 X26.2125 Y43.4 Z-2.4 I0.0062 J-0.0108
G2 X26.1937 Y43.3892 Z-2.4333 I-0.0125 J0.0
G2 Y43.4108 Z-2.4667 I0.0063 J0.0108
G2 X26.2125 Y43.4 Z-2.5 I0.0062 J-0.0108
G2 X26.1937 Y43.3892 Z-2.5333 I-0.0125 J0.0
G2 Y43.4108 Z-2.5667 I0.0063 J0.0108
G2 X26.2125 Y43.4 Z-2.6 I0.0062 J-0.0108
G2 X26.1937 Y43.3892 Z-2.6333 I-0.0125 J0.0
G2 Y43.4108 Z-2.6667 I0.0063 J0.0108
G2 X26.2125 Y43.4 Z-2.7 I0.0062 J-0.0108
G2 X26.1937 Y43.3892 Z-2.7333 I-0.0125 J0.0
G2 Y43.4108 Z-2.7667 I0.0063 J0.0108
G2 X26.2125 Y43.4 Z-2.8 I0.0062 J-0.0108
G2 X26.1937 Y43.3892 Z-2.8333 I-0.0125 J0.0
G2 Y43.4108 Z-2.8667 I0.0063 J0.0108
G2 X26.2125 Y43.4 Z-2.9 I0.0062 J-0.0108
G2 X26.1937 Y43.3892 Z-2.9333 I-0.0125 J0.0
G2 Y43.4108 Z-2.9667 I0.0063 J0.0108
G2 X26.2125 Y43.4 Z-3.0 I0.0062 J-0.0108
G2 X26.1937 Y43.3892 Z-3.0333 I-0.0125 J0.0
G2 Y43.4108 Z-3.0667 I0.0063 J0.0108
G2 X26.2125 Y43.4 Z-3.1 I0.0062 J-0.0108
G2 X26.1937 Y43.3892 Z-3.1333 I-0.0125 J0.0
G2 Y43.4108 Z-3.1667 I0.0063 J0.0108
G2 X26.2125 Y43.4 Z-3.2 I0.0062 J-0.0108
G2 X26.1937 Y43.3892 I-0.0125 J0.0
G2 Y43.4108 I0.0063 J0.0108
G2 X26.2125 Y43.4 I0.0062 J-0.0108
G0 Z3.0
G0 X27.1125 Y21.0
G0 Z0.01
G1 F1000.0 Z0.0
G2 F2000.0 X27.0938 Y20.9892 Z-0.0333 I-0.0125 J0.0
G2 Y21.0108 Z-0.0667 I0.0062 J0.0108
G2 X27.1125 Y21.0 Z-0.1 I0.0063 J-0.0108
G2 X27.0938 Y20.9892 Z-0.1333 I-0.0125 J0.0
G2 Y21.0108 Z-0.1667 I0.0062 J0.0108
G2 X27.1125 Y21.0 Z-0.2 I0.0063 J-0.0108
G2 X27.0938 Y20.9892 Z-0.2333 I-0.0125 J0.0
G2 Y21.0108 Z-0.2667 I0.0062 J0.0108
G2 X27.1125 Y21.0 Z-0.3 I0.0063 J-0.0108
G2 X27.0938 Y20.9892 Z-0.3333 I-0.0125 J0.0
G2 Y21.0108 Z-0.3667 I0.0062 J0.0108
G2 X27.1125 Y21.0 Z-0.4 I0.0063 J-0.0108
G2 X27.0938 Y20.9892 Z-0.4333 I-0.0125 J0.0
G2 Y21.0108 Z-0.4667 I0.0062 J0.0108
G2 X27.1125 Y21.0 Z-0.5 I0.0063 J-0.0108
G2 X27.0938 Y20.9892 Z-0.5333 I-0.0125 J0.0
G2 Y21.0108 Z-0.5667 I0.0062 J0.0108
G2 X27.1125 Y21.0 Z-0.6 I0.0063 J-0.0108
G2 X27.0938 Y20.9892 Z-0.6333 I-0.0125 J0.0
G2 Y21.0108 Z-0.6667 I0.0062 J0.0108
G2 X27.1125 Y21.0 Z-0.7 I0.0063 J-0.0108
G2 X27.0938 Y20.9892 Z-0.7333 I-0.0125 J0.0
G2 Y21.0108 Z-0.7667 I0.0062 J0.0108
G2 X27.1125 Y21.0 Z-0.8 I0.0063 J-0.0108
G2 X27.0938 Y20.9892 Z-0.8333 I-0.0125 J0.0
G2 Y21.0108 Z-0.8667 I0.0062 J0.0108
G2 X27.1125 Y21.0 Z-0.9 I0.0063 J-0.0108
G2 X27.0938 Y20.9892 Z-0.9333 I-0.0125 J0.0
G2 Y21.0108 Z-0.9667 I0.0062 J0.0108
G2 X27.1125 Y21.0 Z-1.0 I0.0063 J-0.0108
G2 X27.0938 Y20.9892 Z-1.0333 I-0.0125 J0.0
G2 Y21.0108 Z-1.0667 I0.0062 J0.0108
G2 X27.1125 Y21.0 Z-1.1 I0.0063 J-0.0108
G2 X27.0938 Y20.9892 Z-1.1333 I-0.0125 J0.0
G2 Y21.0108 Z-1.1667 I0.0062 J0.0108
G2 X27.1125 Y21.0 Z-1.2 I0.0063 J-0.0108
G2 X27.0938 Y20.9892 Z-1.2333 I-0.0125 J0.0
G2 Y21.0108 Z-1.2667 I0.0062 J0.0108
G2 X27.1125 Y21.0 Z-1.3 I0.0063 J-0.0108
G2 X27.0938 Y20.9892 Z-1.3333 I-0.0125 J0.0
G2 Y21.0108 Z-1.3667 I0.0062 J0.0108
G2 X27.1125 Y21.0 Z-1.4 I0.0063 J-0.0108
G2 X27.0938 Y20.9892 Z-1.4333 I-0.0125 J0.0
G2 Y21.0108 Z-1.4667 I0.0062 J0.0108
G2 X27.1125 Y21.0 Z-1.5 I0.0063 J-0.0108
G2 X27.0938 Y20.9892 Z-1.5333 I-0.0125 J0.0
G2 Y21.0108 Z-1.5667 I0.0062 J0.0108
G2 X27.1125 Y21.0 Z-1.6 I0.0063 J-0.0108
G2 X27.0938 Y20.9892 Z-1.6333 I-0.0125 J0.0
G2 Y21.0108 Z-1.6667 I0.0062 J0.0108
G2 X27.1125 Y21.0 Z-1.7 I0.0063 J-0.0108
G2 X27.0938 Y20.9892 Z-1.7333 I-0.0125 J0.0
G2 Y21.0108 Z-1.7667 I0.0062 J0.0108
G2 X27.1125 Y21.0 Z-1.8 I0.0063 J-0.0108
G2 X27.0938 Y20.9892 Z-1.8333 I-0.0125 J0.0
G2 Y21.0108 Z-1.8667 I0.0062 J0.0108
G2 X27.1125 Y21.0 Z-1.9 I0.0063 J-0.0108
G2 X27.0938 Y20.9892 Z-1.9333 I-0.0125 J0.0
G2 Y21.0108 Z-1.9667 I0.0062 J0.0108
G2 X27.1125 Y21.0 Z-2.0 I0.0063 J-0.0108
G2 X27.0938 Y20.9892 Z-2.0333 I-0.0125 J0.0
G2 Y21.0108 Z-2.0667 I0.0062 J0.0108
G2 X27.1125 Y21.0 Z-2.1 I0.0063 J-0.0108
G2 X27.0938 Y20.9892 Z-2.1333 I-0.0125 J0.0
G2 Y21.0108 Z-2.1667 I0.0062 J0.0108
G2 X27.1125 Y21.0 Z-2.2 I0.0063 J-0.0108
G2 X27.0938 Y20.9892 Z-2.2333 I-0.0125 J0.0
G2 Y21.0108 Z-2.2667 I0.0062 J0.0108
G2 X27.1125 Y21.0 Z-2.3 I0.0063 J-0.0108
G2 X27.0938 Y20.9892 Z-2.3333 I-0.0125 J0.0
G2 Y21.0108 Z-2.3667 I0.0062 J0.0108
G2 X27.1125 Y21.0 Z-2.4 I0.0063 J-0.0108
G2 X27.0938 Y20.9892 Z-2.4333 I-0.0125 J0.0
G2 Y21.0108 Z-2.4667 I0.0063 J0.0108
G2 X27.1125 Y21.0 Z-2.5 I0.0062 J-0.0108
G2 X27.0938 Y20.9892 Z-2.5333 I-0.0125 J0.0
G2 Y21.0108 Z-2.5667 I0.0063 J0.0108
G2 X27.1125 Y21.0 Z-2.6 I0.0062 J-0.0108
G2 X27.0938 Y20.9892 Z-2.6333 I-0.0125 J0.0
G2 Y21.0108 Z-2.6667 I0.0063 J0.0108
G2 X27.1125 Y21.0 Z-2.7 I0.0062 J-0.0108
G2 X27.0938 Y20.9892 Z-2.7333 I-0.0125 J0.0
G2 Y21.0108 Z-2.7667 I0.0063 J0.0108
G2 X27.1125 Y21.0 Z-2.8 I0.0062 J-0.0108
G2 X27.0938 Y20.9892 Z-2.8333 I-0.0125 J0.0
G2 Y21.0108 Z-2.8667 I0.0063 J0.0108
G2 X27.1125 Y21.0 Z-2.9 I0.0062 J-0.0108
G2 X27.0938 Y20.9892 Z-2.9333 I-0.0125 J0.0
G2 Y21.0108 Z-2.9667 I0.0063 J0.0108
G2 X27.1125 Y21.0 Z-3.0 I0.0062 J-0.0108
G2 X27.0938 Y20.9892 Z-3.0333 I-0.0125 J0.0
G2 Y21.0108 Z-3.0667 I0.0063 J0.0108
G2 X27.1125 Y21.0 Z-3.1 I0.0062 J-0.0108
G2 X27.0938 Y20.9892 Z-3.1333 I-0.0125 J0.0
G2 Y21.0108 Z-3.1667 I0.0063 J0.0108
G2 X27.1125 Y21.0 Z-3.2 I0.0062 J-0.0108
G2 X27.0938 Y20.9892 I-0.0125 J0.0
G2 Y21.0108 I0.0063 J0.0108
G2 X27.1125 Y21.0 I0.0062 J-0.0108
G0 Z3.0
G0 X9.1125
G0 Z0.01
G1 F1000.0 Z0.0
G2 F2000.0 X9.0938 Y20.9892 Z-0.0333 I-0.0125 J0.0
G2 Y21.0108 Z-0.0667 I0.0062 J0.0108
G2 X9.1125 Y21.0 Z-0.1 I0.0063 J-0.0108
G2 X9.0938 Y20.9892 Z-0.1333 I-0.0125 J0.0
G2 Y21.0108 Z-0.1667 I0.0062 J0.0108
G2 X9.1125 Y21.0 Z-0.2 I0.0063 J-0.0108
G2 X9.0938 Y20.9892 Z-0.2333 I-0.0125 J0.0
G2 Y21.0108 Z-0.2667 I0.0062 J0.0108
G2 X9.1125 Y21.0 Z-0.3 I0.0063 J-0.0108
G2 X9.0938 Y20.9892 Z-0.3333 I-0.0125 J0.0
G2 Y21.0108 Z-0.3667 I0.0062 J0.0108
G2 X9.1125 Y21.0 Z-0.4 I0.0063 J-0.0108
G2 X9.0938 Y20.9892 Z-0.4333 I-0.0125 J0.0
G2 Y21.0108 Z-0.4667 I0.0062 J0.0108
G2 X9.1125 Y21.0 Z-0.5 I0.0063 J-0.0108
G2 X9.0938 Y20.9892 Z-0.5333 I-0.0125 J0.0
G2 Y21.0108 Z-0.5667 I0.0062 J0.0108
G2 X9.1125 Y21.0 Z-0.6 I0.0063 J-0.0108
G2 X9.0938 Y20.9892 Z-0.6333 I-0.0125 J0.0
G2 Y21.0108 Z-0.6667 I0.0062 J0.0108
G2 X9.1125 Y21.0 Z-0.7 I0.0063 J-0.0108
G2 X9.0938 Y20.9892 Z-0.7333 I-0.0125 J0.0
G2 Y21.0108 Z-0.7667 I0.0062 J0.0108
G2 X9.1125 Y21.0 Z-0.8 I0.0063 J-0.0108
G2 X9.0938 Y20.9892 Z-0.8333 I-0.0125 J0.0
G2 Y21.0108 Z-0.8667 I0.0062 J0.0108
G2 X9.1125 Y21.0 Z-0.9 I0.0063 J-0.0108
G2 X9.0938 Y20.9892 Z-0.9333 I-0.0125 J0.0
G2 Y21.0108 Z-0.9667 I0.0062 J0.0108
G2 X9.1125 Y21.0 Z-1.0 I0.0063 J-0.0108
G2 X9.0938 Y20.9892 Z-1.0333 I-0.0125 J0.0
G2 Y21.0108 Z-1.0667 I0.0062 J0.0108
G2 X9.1125 Y21.0 Z-1.1 I0.0063 J-0.0108
G2 X9.0938 Y20.9892 Z-1.1333 I-0.0125 J0.0
G2 Y21.0108 Z-1.1667 I0.0062 J0.0108
G2 X9.1125 Y21.0 Z-1.2 I0.0063 J-0.0108
G2 X9.0938 Y20.9892 Z-1.2333 I-0.0125 J0.0
G2 Y21.0108 Z-1.2667 I0.0062 J0.0108
G2 X9.1125 Y21.0 Z-1.3 I0.0063 J-0.0108
G2 X9.0938 Y20.9892 Z-1.3333 I-0.0125 J0.0
G2 Y21.0108 Z-1.3667 I0.0062 J0.0108
G2 X9.1125 Y21.0 Z-1.4 I0.0063 J-0.0108
G2 X9.0938 Y20.9892 Z-1.4333 I-0.0125 J0.0
G2 Y21.0108 Z-1.4667 I0.0062 J0.0108
G2 X9.1125 Y21.0 Z-1.5 I0.0063 J-0.0108
G2 X9.0938 Y20.9892 Z-1.5333 I-0.0125 J0.0
G2 Y21.0108 Z-1.5667 I0.0062 J0.0108
G2 X9.1125 Y21.0 Z-1.6 I0.0063 J-0.0108
G2 X9.0938 Y20.9892 Z-1.6333 I-0.0125 J0.0
G2 Y21.0108 Z-1.6667 I0.0062 J0.0108
G2 X9.1125 Y21.0 Z-1.7 I0.0063 J-0.0108
G2 X9.0938 Y20.9892 Z-1.7333 I-0.0125 J0.0
G2 Y21.0108 Z-1.7667 I0.0062 J0.0108
G2 X9.1125 Y21.0 Z-1.8 I0.0063 J-0.0108
G2 X9.0938 Y20.9892 Z-1.8333 I-0.0125 J0.0
G2 Y21.0108 Z-1.8667 I0.0062 J0.0108
G2 X9.1125 Y21.0 Z-1.9 I0.0063 J-0.0108
G2 X9.0938 Y20.9892 Z-1.9333 I-0.0125 J0.0
G2 Y21.0108 Z-1.9667 I0.0062 J0.0108
G2 X9.1125 Y21.0 Z-2.0 I0.0063 J-0.0108
G2 X9.0938 Y20.9892 Z-2.0333 I-0.0125 J0.0
G2 Y21.0108 Z-2.0667 I0.0062 J0.0108
G2 X9.1125 Y21.0 Z-2.1 I0.0063 J-0.0108
G2 X9.0938 Y20.9892 Z-2.1333 I-0.0125 J0.0
G2 Y21.0108 Z-2.1667 I0.0062 J0.0108
G2 X9.1125 Y21.0 Z-2.2 I0.0063 J-0.0108
G2 X9.0938 Y20.9892 Z-2.2333 I-0.0125 J0.0
G2 Y21.0108 Z-2.2667 I0.0062 J0.0108
G2 X9.1125 Y21.0 Z-2.3 I0.0063 J-0.0108
G2 X9.0938 Y20.9892 Z-2.3333 I-0.0125 J0.0
G2 Y21.0108 Z-2.3667 I0.0062 J0.0108
G2 X9.1125 Y21.0 Z-2.4 I0.0063 J-0.0108
G2 X9.0938 Y20.9892 Z-2.4333 I-0.0125 J0.0
G2 Y21.0108 Z-2.4667 I0.0062 J0.0108
G2 X9.1125 Y21.0 Z-2.5 I0.0063 J-0.0108
G2 X9.0938 Y20.9892 Z-2.5333 I-0.0125 J0.0
G2 Y21.0108 Z-2.5667 I0.0062 J0.0108
G2 X9.1125 Y21.0 Z-2.6 I0.0063 J-0.0108
G2 X9.0938 Y20.9892 Z-2.6333 I-0.0125 J0.0
G2 Y21.0108 Z-2.6667 I0.0063 J0.0108
G2 X9.1125 Y21.0 Z-2.7 I0.0062 J-0.0108
G2 X9.0938 Y20.9892 Z-2.7333 I-0.0125 J0.0
G2 Y21.0108 Z-2.7667 I0.0063 J0.0108
G2 X9.1125 Y21.0 Z-2.8 I0.0062 J-0.0108
G2 X9.0938 Y20.9892 Z-2.8333 I-0.0125 J0.0
G2 Y21.0108 Z-2.8667 I0.0063 J0.0108
G2 X9.1125 Y21.0 Z-2.9 I0.0062 J-0.0108
G2 X9.0938 Y20.9892 Z-2.9333 I-0.0125 J0.0
G2 Y21.0108 Z-2.9667 I0.0063 J0.0108
G2 X9.1125 Y21.0 Z-3.0 I0.0062 J-0.0108
G2 X9.0938 Y20.9892 Z-3.0333 I-0.0125 J0.0
G2 Y21.0108 Z-3.0667 I0.0063 J0.0108
G2 X9.1125 Y21.0 Z-3.1 I0.0062 J-0.0108
G2 X9.0938 Y20.9892 Z-3.1333 I-0.0125 J0.0
G2 Y21.0108 Z-3.1667 I0.0063 J0.0108
G2 X9.1125 Y21.0 Z-3.2 I0.0062 J-0.0108
G2 X9.0937 Y20.9892 I-0.0125 J0.0
G2 X9.0938 Y21.0108 I0.0063 J0.0108
G2 X9.1125 Y21.0 I0.0062 J-0.0108
G0 Z3.0
G0 X7.5125 Y3.0
G0 Z0.01
G1 F1000.0 Z0.0
G2 F2000.0 X7.4938 Y2.9892 Z-0.0333 I-0.0125 J0.0
G2 Y3.0108 Z-0.0667 I0.0062 J0.0108
G2 X7.5125 Y3.0 Z-0.1 I0.0063 J-0.0108
G2 X7.4938 Y2.9892 Z-0.1333 I-0.0125 J0.0
G2 Y3.0108 Z-0.1667 I0.0062 J0.0108
G2 X7.5125 Y3.0 Z-0.2 I0.0063 J-0.0108
G2 X7.4938 Y2.9892 Z-0.2333 I-0.0125 J0.0
G2 Y3.0108 Z-0.2667 I0.0062 J0.0108
G2 X7.5125 Y3.0 Z-0.3 I0.0063 J-0.0108
G2 X7.4938 Y2.9892 Z-0.3333 I-0.0125 J0.0
G2 Y3.0108 Z-0.3667 I0.0063 J0.0108
G2 X7.5125 Y3.0 Z-0.4 I0.0062 J-0.0108
G2 X7.4938 Y2.9892 Z-0.4333 I-0.0125 J0.0
G2 Y3.0108 Z-0.4667 I0.0063 J0.0108
G2 X7.5125 Y3.0 Z-0.5 I0.0062 J-0.0108
G2 X7.4938 Y2.9892 Z-0.5333 I-0.0125 J0.0
G2 Y3.0108 Z-0.5667 I0.0063 J0.0108
G2 X7.5125 Y3.0 Z-0.6 I0.0062 J-0.0108
G2 X7.4938 Y2.9892 Z-0.6333 I-0.0125 J0.0
G2 Y3.0108 Z-0.6667 I0.0062 J0.0108
G2 X7.5125 Y3.0 Z-0.7 I0.0063 J-0.0108
G2 X7.4938 Y2.9892 Z-0.7333 I-0.0125 J0.0
G2 Y3.0108 Z-0.7667 I0.0062 J0.0108
G2 X7.5125 Y3.0 Z-0.8 I0.0063 J-0.0108
G2 X7.4938 Y2.9892 Z-0.8333 I-0.0125 J0.0
G2 Y3.0108 Z-0.8667 I0.0062 J0.0108
G2 X7.5125 Y3.0 Z-0.9 I0.0063 J-0.0108
G2 X7.4938 Y2.9892 Z-0.9333 I-0.0125 J0.0
G2 Y3.0108 Z-0.9667 I0.0062 J0.0108
G2 X7.5125 Y3.0 Z-1.0 I0.0063 J-0.0108
G2 X7.4938 Y2.9892 Z-1.0333 I-0.0125 J0.0
G2 Y3.0108 Z-1.0667 I0.0062 J0.0108
G2 X7.5125 Y3.0 Z-1.1 I0.0063 J-0.0108
G2 X7.4938 Y2.9892 Z-1.1333 I-0.0125 J0.0
G2 Y3.0108 Z-1.1667 I0.0062 J0.0108
G2 X7.5125 Y3.0 Z-1.2 I0.0063 J-0.0108
G2 X7.4938 Y2.9892 Z-1.2333 I-0.0125 J0.0
G2 Y3.0108 Z-1.2667 I0.0062 J0.0108
G2 X7.5125 Y3.0 Z-1.3 I0.0063 J-0.0108
G2 X7.4938 Y2.9892 Z-1.3333 I-0.0125 J0.0
G2 Y3.0108 Z-1.3667 I0.0062 J0.0108
G2 X7.5125 Y3.0 Z-1.4 I0.0063 J-0.0108
G2 X7.4938 Y2.9892 Z-1.4333 I-0.0125 J0.0
G2 Y3.0108 Z-1.4667 I0.0062 J0.0108
G2 X7.5125 Y3.0 Z-1.5 I0.0063 J-0.0108
G2 X7.4938 Y2.9892 Z-1.5333 I-0.0125 J0.0
G2 Y3.0108 Z-1.5667 I0.0062 J0.0108
G2 X7.5125 Y3.0 Z-1.6 I0.0063 J-0.0108
G2 X7.4938 Y2.9892 Z-1.6333 I-0.0125 J0.0
G2 Y3.0108 Z-1.6667 I0.0062 J0.0108
G2 X7.5125 Y3.0 Z-1.7 I0.0063 J-0.0108
G2 X7.4938 Y2.9892 Z-1.7333 I-0.0125 J0.0
G2 Y3.0108 Z-1.7667 I0.0062 J0.0108
G2 X7.5125 Y3.0 Z-1.8 I0.0063 J-0.0108
G2 X7.4938 Y2.9892 Z-1.8333 I-0.0125 J0.0
G2 Y3.0108 Z-1.8667 I0.0062 J0.0108
G2 X7.5125 Y3.0 Z-1.9 I0.0063 J-0.0108
G2 X7.4938 Y2.9892 Z-1.9333 I-0.0125 J0.0
G2 Y3.0108 Z-1.9667 I0.0062 J0.0108
G2 X7.5125 Y3.0 Z-2.0 I0.0063 J-0.0108
G2 X7.4938 Y2.9892 Z-2.0333 I-0.0125 J0.0
G2 Y3.0108 Z-2.0667 I0.0062 J0.0108
G2 X7.5125 Y3.0 Z-2.1 I0.0063 J-0.0108
G2 X7.4938 Y2.9892 Z-2.1333 I-0.0125 J0.0
G2 Y3.0108 Z-2.1667 I0.0062 J0.0108
G2 X7.5125 Y3.0 Z-2.2 I0.0063 J-0.0108
G2 X7.4938 Y2.9892 Z-2.2333 I-0.0125 J0.0
G2 Y3.0108 Z-2.2667 I0.0062 J0.0108
G2 X7.5125 Y3.0 Z-2.3 I0.0063 J-0.0108
G2 X7.4938 Y2.9892 Z-2.3333 I-0.0125 J0.0
G2 Y3.0108 Z-2.3667 I0.0063 J0.0108
G2 X7.5125 Y3.0 Z-2.4 I0.0062 J-0.0108
G2 X7.4938 Y2.9892 Z-2.4333 I-0.0125 J0.0
G2 Y3.0108 Z-2.4667 I0.0063 J0.0108
G2 X7.5125 Y3.0 Z-2.5 I0.0062 J-0.0108
G2 X7.4938 Y2.9892 Z-2.5333 I-0.0125 J0.0
G2 Y3.0108 Z-2.5667 I0.0063 J0.0108
G2 X7.5125 Y3.0 Z-2.6 I0.0062 J-0.0108
G2 X7.4938 Y2.9892 Z-2.6333 I-0.0125 J0.0
G2 Y3.0108 Z-2.6667 I0.0063 J0.0108
G2 X7.5125 Y3.0 Z-2.7 I0.0062 J-0.0108
G2 X7.4938 Y2.9892 Z-2.7333 I-0.0125 J0.0
G2 Y3.0108 Z-2.7667 I0.0063 J0.0108
G2 X7.5125 Y3.0 Z-2.8 I0.0062 J-0.0108
G2 X7.4938 Y2.9892 Z-2.8333 I-0.0125 J0.0
G2 Y3.0108 Z-2.8667 I0.0063 J0.0108
G2 X7.5125 Y3.0 Z-2.9 I0.0062 J-0.0108
G2 X7.4938 Y2.9892 Z-2.9333 I-0.0125 J0.0
G2 Y3.0108 Z-2.9667 I0.0063 J0.0108
G2 X7.5125 Y3.0 Z-3.0 I0.0062 J-0.0108
G2 X7.4938 Y2.9892 Z-3.0333 I-0.0125 J0.0
G2 Y3.0108 Z-3.0667 I0.0063 J0.0108
G2 X7.5125 Y3.0 Z-3.1 I0.0062 J-0.0108
G2 X7.4938 Y2.9892 Z-3.1333 I-0.0125 J0.0
G2 Y3.0108 Z-3.1667 I0.0063 J0.0108
G2 X7.5125 Y3.0 Z-3.2 I0.0062 J-0.0108
G2 X7.4938 Y2.9892 I-0.0125 J0.0
G2 Y3.0108 I0.0063 J0.0108
G2 X7.5125 Y3.0 I0.0062 J-0.0108
( Profile2 )
S1000
G0 Z3.0
G0 X20.08 Y-1.5875
G0 Z0.01
G1 F1000.0 Z-0.1
G1 F2000.0 X0.0
G2 X-1.5875 Y0.0 I0.0 J1.5875
G1 Y128.5
G2 X0.0 Y130.0875 I1.5875 J0.0
G1 X55.6
G2 X57.1875 Y128.5 I0.0 J-1.5875
G1 Y0.0
G2 X55.6 Y-1.5875 I-1.5875 J0.0
G1 X20.08
G1 F1000.0 Z-0.2
G1 F2000.0 X0.0
G2 X-1.5875 Y0.0 I0.0 J1.5875
G1 Y128.5
G2 X0.0 Y130.0875 I1.5875 J0.0
G1 X55.6
G2 X57.1875 Y128.5 I0.0 J-1.5875
G1 Y0.0
G2 X55.6 Y-1.5875 I-1.5875 J0.0
G1 X20.08
G1 F1000.0 Z-0.3
G1 F2000.0 X0.0
G2 X-1.5875 Y0.0 I0.0 J1.5875
G1 Y128.5
G2 X0.0 Y130.0875 I1.5875 J0.0
G1 X55.6
G2 X57.1875 Y128.5 I0.0 J-1.5875
G1 Y0.0
G2 X55.6 Y-1.5875 I-1.5875 J0.0
G1 X20.08
G1 F1000.0 Z-0.4
G1 F2000.0 X0.0
G2 X-1.5875 Y0.0 I0.0 J1.5875
G1 Y128.5
G2 X0.0 Y130.0875 I1.5875 J0.0
G1 X55.6
G2 X57.1875 Y128.5 I0.0 J-1.5875
G1 Y0.0
G2 X55.6 Y-1.5875 I-1.5875 J0.0
G1 X20.08
G1 F1000.0 Z-0.5
G1 F2000.0 X0.0
G2 X-1.5875 Y0.0 I0.0 J1.5875
G1 Y128.5
G2 X0.0 Y130.0875 I1.5875 J0.0
G1 X55.6
G2 X57.1875 Y128.5 I0.0 J-1.5875
G1 Y0.0
G2 X55.6 Y-1.5875 I-1.5875 J0.0
G1 X20.08
G1 F1000.0 Z-0.6
G1 F2000.0 X0.0
G2 X-1.5875 Y0.0 I0.0 J1.5875
G1 Y128.5
G2 X0.0 Y130.0875 I1.5875 J0.0
G1 X55.6
G2 X57.1875 Y128.5 I0.0 J-1.5875
G1 Y0.0
G2 X55.6 Y-1.5875 I-1.5875 J0.0
G1 X20.08
G1 F1000.0 Z-0.7
G1 F2000.0 X0.0
G2 X-1.5875 Y0.0 I0.0 J1.5875
G1 Y128.5
G2 X0.0 Y130.0875 I1.5875 J0.0
G1 X55.6
G2 X57.1875 Y128.5 I0.0 J-1.5875
G1 Y0.0
G2 X55.6 Y-1.5875 I-1.5875 J0.0
G1 X20.08
G1 F1000.0 Z-0.8
G1 F2000.0 X0.0
G2 X-1.5875 Y0.0 I0.0 J1.5875
G1 Y128.5
G2 X0.0 Y130.0875 I1.5875 J0.0
G1 X55.6
G2 X57.1875 Y128.5 I0.0 J-1.5875
G1 Y0.0
G2 X55.6 Y-1.5875 I-1.5875 J0.0
G1 X20.08
G1 F1000.0 Z-0.9
G1 F2000.0 X0.0
G2 X-1.5875 Y0.0 I0.0 J1.5875
G1 Y128.5
G2 X0.0 Y130.0875 I1.5875 J0.0
G1 X55.6
G2 X57.1875 Y128.5 I0.0 J-1.5875
G1 Y0.0
G2 X55.6 Y-1.5875 I-1.5875 J0.0
G1 X20.08
G1 F1000.0 Z-1.0
G1 F2000.0 X0.0
G2 X-1.5875 Y0.0 I0.0 J1.5875
G1 Y128.5
G2 X0.0 Y130.0875 I1.5875 J0.0
G1 X55.6
G2 X57.1875 Y128.5 I0.0 J-1.5875
G1 Y0.0
G2 X55.6 Y-1.5875 I-1.5875 J0.0
G1 X20.08
G1 F1000.0 Z-1.1
G1 F2000.0 X0.0
G2 X-1.5875 Y0.0 I0.0 J1.5875
G1 Y128.5
G2 X0.0 Y130.0875 I1.5875 J0.0
G1 X55.6
G2 X57.1875 Y128.5 I0.0 J-1.5875
G1 Y0.0
G2 X55.6 Y-1.5875 I-1.5875 J0.0
G1 X20.08
G1 F1000.0 Z-1.2
G1 F2000.0 X0.0
G2 X-1.5875 Y0.0 I0.0 J1.5875
G1 Y128.5
G2 X0.0 Y130.0875 I1.5875 J0.0
G1 X55.6
G2 X57.1875 Y128.5 I0.0 J-1.5875
G1 Y0.0
G2 X55.6 Y-1.5875 I-1.5875 J0.0
G1 X20.08
G1 F1000.0 Z-1.3
G1 F2000.0 X0.0
G2 X-1.5875 Y0.0 I0.0 J1.5875
G1 Y25.8675
G1 Y26.8675 Z-1.2
G1 Y30.0425
G1 Y31.0425 Z-1.3
G1 Y117.7125
G1 Y118.7125 Z-1.2
G1 Y121.8875
G1 Y122.8875 Z-1.3
G1 Y128.5
G2 X0.0 Y130.0875 I1.5875 J0.0
G1 X55.6
G2 X57.1875 Y128.5 I0.0 J-1.5875
G1 Y92.5925
G1 Y91.5925 Z-1.2
G1 Y88.4175
G1 Y87.4175 Z-1.3
G1 Y10.5875
G1 Y9.5875 Z-1.2
G1 Y6.4125
G1 Y5.4125 Z-1.3
G1 Y0.0
G2 X55.6 Y-1.5875 I-1.5875 J0.0
G1 X20.08
G1 F1000.0 Z-1.4
G1 F2000.0 X0.0
G2 X-1.5875 Y0.0 I0.0 J1.5875
G1 Y25.8675
G1 Y26.8675 Z-1.2
G1 Y30.0425
G1 Y31.0425 Z-1.4
G1 Y117.7125
G1 Y118.7125 Z-1.2
G1 Y121.8875
G1 Y122.8875 Z-1.4
G1 Y128.5
G2 X0.0 Y130.0875 I1.5875 J0.0
G1 X55.6
G2 X57.1875 Y128.5 I0.0 J-1.5875
G1 Y92.5925
G1 Y91.5925 Z-1.2
G1 Y88.4175
G1 Y87.4175 Z-1.4
G1 Y10.5875
G1 Y9.5875 Z-1.2
G1 Y6.4125
G1 Y5.4125 Z-1.4
G1 Y0.0
G2 X55.6 Y-1.5875 I-1.5875 J0.0
G1 X20.08
G1 F1000.0 Z-1.5
G1 F2000.0 X0.0
G2 X-1.5875 Y0.0 I0.0 J1.5875
G1 Y25.8675
G1 Y26.8675 Z-1.2
G1 Y30.0425
G1 Y31.0425 Z-1.5
G1 Y117.7125
G1 Y118.7125 Z-1.2
G1 Y121.8875
G1 Y122.8875 Z-1.5
G1 Y128.5
G2 X0.0 Y130.0875 I1.5875 J0.0
G1 X55.6
G2 X57.1875 Y128.5 I0.0 J-1.5875
G1 Y92.5925
G1 Y91.5925 Z-1.2
G1 Y88.4175
G1 Y87.4175 Z-1.5
G1 Y10.5875
G1 Y9.5875 Z-1.2
G1 Y6.4125
G1 Y5.4125 Z-1.5
G1 Y0.0
G2 X55.6 Y-1.5875 I-1.5875 J0.0
G1 X20.08
G1 F1000.0 Z-1.6
G1 F2000.0 X0.0
G2 X-1.5875 Y0.0 I0.0 J1.5875
G1 Y25.8675
G1 Y26.8675 Z-1.2
G1 Y30.0425
G1 Y31.0425 Z-1.6
G1 Y117.7125
G1 Y118.7125 Z-1.2
G1 Y121.8875
G1 Y122.8875 Z-1.6
G1 Y128.5
G2 X0.0 Y130.0875 I1.5875 J0.0
G1 X55.6
G2 X57.1875 Y128.5 I0.0 J-1.5875
G1 Y92.5925
G1 Y91.5925 Z-1.2
G1 Y88.4175
G1 Y87.4175 Z-1.6
G1 Y10.5875
G1 Y9.5875 Z-1.2
G1 Y6.4125
G1 Y5.4125 Z-1.6
G1 Y0.0
G2 X55.6 Y-1.5875 I-1.5875 J0.0
G1 X20.08
G1 F1000.0 Z-1.7
G1 F2000.0 X0.0
G2 X-1.5875 Y0.0 I0.0 J1.5875
G1 Y25.8675
G1 Y26.8675 Z-1.2
G1 Y30.0425
G1 Y31.0425 Z-1.7
G1 Y117.7125
G1 Y118.7125 Z-1.2
G1 Y121.8875
G1 Y122.8875 Z-1.7
G1 Y128.5
G2 X0.0 Y130.0875 I1.5875 J0.0
G1 X55.6
G2 X57.1875 Y128.5 I0.0 J-1.5875
G1 Y92.5925
G1 Y91.5925 Z-1.2
G1 Y88.4175
G1 Y87.4175 Z-1.7
G1 Y10.5875
G1 Y9.5875 Z-1.2
G1 Y6.4125
G1 Y5.4125 Z-1.7
G1 Y0.0
G2 X55.6 Y-1.5875 I-1.5875 J0.0
G1 X20.08
G1 F1000.0 Z-1.8
G1 F2000.0 X0.0
G2 X-1.5875 Y0.0 I0.0 J1.5875
G1 Y25.8675
G1 Y26.8675 Z-1.2
G1 Y30.0425
G1 Y31.0425 Z-1.8
G1 Y117.7125
G1 Y118.7125 Z-1.2
G1 Y121.8875
G1 Y122.8875 Z-1.8
G1 Y128.5
G2 X0.0 Y130.0875 I1.5875 J0.0
G1 X55.6
G2 X57.1875 Y128.5 I0.0 J-1.5875
G1 Y92.5925
G1 Y91.5925 Z-1.2
G1 Y88.4175
G1 Y87.4175 Z-1.8
G1 Y10.5875
G1 Y9.5875 Z-1.2
G1 Y6.4125
G1 Y5.4125 Z-1.8
G1 Y0.0
G2 X55.6 Y-1.5875 I-1.5875 J0.0
G1 X20.08
G1 F1000.0 Z-1.9
G1 F2000.0 X0.0
G2 X-1.5875 Y0.0 I0.0 J1.5875
G1 Y25.8675
G1 Y26.8675 Z-1.2
G1 Y30.0425
G1 Y31.0425 Z-1.9
G1 Y117.7125
G1 Y118.7125 Z-1.2
G1 Y121.8875
G1 Y122.8875 Z-1.9
G1 Y128.5
G2 X0.0 Y130.0875 I1.5875 J0.0
G1 X55.6
G2 X57.1875 Y128.5 I0.0 J-1.5875
G1 Y92.5925
G1 Y91.5925 Z-1.2
G1 Y88.4175
G1 Y87.4175 Z-1.9
G1 Y10.5875
G1 Y9.5875 Z-1.2
G1 Y6.4125
G1 Y5.4125 Z-1.9
G1 Y0.0
G2 X55.6 Y-1.5875 I-1.5875 J0.0
G1 X20.08
G1 F1000.0 Z-2.0
G1 F2000.0 X0.0
G2 X-1.5875 Y0.0 I0.0 J1.5875
G1 Y25.8675
G1 Y26.8675 Z-1.2
G1 Y30.0425
G1 Y31.0425 Z-2.0
G1 Y117.7125
G1 Y118.7125 Z-1.2
G1 Y121.8875
G1 Y122.8875 Z-2.0
G1 Y128.5
G2 X0.0 Y130.0875 I1.5875 J0.0
G1 X55.6
G2 X57.1875 Y128.5 I0.0 J-1.5875
G1 Y92.5925
G1 Y91.5925 Z-1.2
G1 Y88.4175
G1 Y87.4175 Z-2.0
G1 Y10.5875
G1 Y9.5875 Z-1.2
G1 Y6.4125
G1 Y5.4125 Z-2.0
G1 Y0.0
G2 X55.6 Y-1.5875 I-1.5875 J0.0
G1 X20.08
G1 F1000.0 Z-2.1
G1 F2000.0 X0.0
G2 X-1.5875 Y0.0 I0.0 J1.5875
G1 Y25.8675
G1 Y26.8675 Z-1.2
G1 Y30.0425
G1 Y31.0425 Z-2.1
G1 Y117.7125
G1 Y118.7125 Z-1.2
G1 Y121.8875
G1 Y122.8875 Z-2.1
G1 Y128.5
G2 X0.0 Y130.0875 I1.5875 J0.0
G1 X55.6
G2 X57.1875 Y128.5 I0.0 J-1.5875
G1 Y92.5925
G1 Y91.5925 Z-1.2
G1 Y88.4175
G1 Y87.4175 Z-2.1
G1 Y10.5875
G1 Y9.5875 Z-1.2
G1 Y6.4125
G1 Y5.4125 Z-2.1
G1 Y0.0
G2 X55.6 Y-1.5875 I-1.5875 J0.0
G1 X20.08
G1 F1000.0 Z-2.2
G1 F2000.0 X0.0
G2 X-1.5875 Y0.0 I0.0 J1.5875
G1 Y25.8675
G1 Y26.8675 Z-1.2
G1 Y30.0425
G1 Y31.0425 Z-2.2
G1 Y117.7125
G1 Y118.7125 Z-1.2
G1 Y121.8875
G1 Y122.8875 Z-2.2
G1 Y128.5
G2 X0.0 Y130.0875 I1.5875 J0.0
G1 X55.6
G2 X57.1875 Y128.5 I0.0 J-1.5875
G1 Y92.5925
G1 Y91.5925 Z-1.2
G1 Y88.4175
G1 Y87.4175 Z-2.2
G1 Y10.5875
G1 Y9.5875 Z-1.2
G1 Y6.4125
G1 Y5.4125 Z-2.2
G1 Y0.0
G2 X55.6 Y-1.5875 I-1.5875 J0.0
G1 X20.08
G1 F1000.0 Z-2.3
G1 F2000.0 X0.0
G2 X-1.5875 Y0.0 I0.0 J1.5875
G1 Y25.8675
G1 Y26.8675 Z-1.2
G1 Y30.0425
G1 Y31.0425 Z-2.3
G1 Y117.7125
G1 Y118.7125 Z-1.2
G1 Y121.8875
G1 Y122.8875 Z-2.3
G1 Y128.5
G2 X0.0 Y130.0875 I1.5875 J0.0
G1 X55.6
G2 X57.1875 Y128.5 I0.0 J-1.5875
G1 Y92.5925
G1 Y91.5925 Z-1.2
G1 Y88.4175
G1 Y87.4175 Z-2.3
G1 Y10.5875
G1 Y9.5875 Z-1.2
G1 Y6.4125
G1 Y5.4125 Z-2.3
G1 Y0.0
G2 X55.6 Y-1.5875 I-1.5875 J0.0
G1 X20.08
G1 F1000.0 Z-2.4
G1 F2000.0 X0.0
G2 X-1.5875 Y0.0 I0.0 J1.5875
G1 Y25.8675
G1 Y26.8675 Z-1.2
G1 Y30.0425
G1 Y31.0425 Z-2.4
G1 Y117.7125
G1 Y118.7125 Z-1.2
G1 Y121.8875
G1 Y122.8875 Z-2.4
G1 Y128.5
G2 X0.0 Y130.0875 I1.5875 J0.0
G1 X55.6
G2 X57.1875 Y128.5 I0.0 J-1.5875
G1 Y92.5925
G1 Y91.5925 Z-1.2
G1 Y88.4175
G1 Y87.4175 Z-2.4
G1 Y10.5875
G1 Y9.5875 Z-1.2
G1 Y6.4125
G1 Y5.4125 Z-2.4
G1 Y0.0
G2 X55.6 Y-1.5875 I-1.5875 J0.0
G1 X20.08
G1 F1000.0 Z-2.5
G1 F2000.0 X0.0
G2 X-1.5875 Y0.0 I0.0 J1.5875
G1 Y25.8675
G1 Y26.8675 Z-1.2
G1 Y30.0425
G1 Y31.0425 Z-2.5
G1 Y117.7125
G1 Y118.7125 Z-1.2
G1 Y121.8875
G1 Y122.8875 Z-2.5
G1 Y128.5
G2 X0.0 Y130.0875 I1.5875 J0.0
G1 X55.6
G2 X57.1875 Y128.5 I0.0 J-1.5875
G1 Y92.5925
G1 Y91.5925 Z-1.2
G1 Y88.4175
G1 Y87.4175 Z-2.5
G1 Y10.5875
G1 Y9.5875 Z-1.2
G1 Y6.4125
G1 Y5.4125 Z-2.5
G1 Y0.0
G2 X55.6 Y-1.5875 I-1.5875 J0.0
G1 X20.08
G1 F1000.0 Z-2.6
G1 F2000.0 X0.0
G2 X-1.5875 Y0.0 I0.0 J1.5875
G1 Y25.8675
G1 Y26.8675 Z-1.2
G1 Y30.0425
G1 Y31.0425 Z-2.6
G1 Y117.7125
G1 Y118.7125 Z-1.2
G1 Y121.8875
G1 Y122.8875 Z-2.6
G1 Y128.5
G2 X0.0 Y130.0875 I1.5875 J0.0
G1 X55.6
G2 X57.1875 Y128.5 I0.0 J-1.5875
G1 Y92.5925
G1 Y91.5925 Z-1.2
G1 Y88.4175
G1 Y87.4175 Z-2.6
G1 Y10.5875
G1 Y9.5875 Z-1.2
G1 Y6.4125
G1 Y5.4125 Z-2.6
G1 Y0.0
G2 X55.6 Y-1.5875 I-1.5875 J0.0
G1 X20.08
G1 F1000.0 Z-2.7
G1 F2000.0 X0.0
G2 X-1.5875 Y0.0 I0.0 J1.5875
G1 Y25.8675
G1 Y26.8675 Z-1.2
G1 Y30.0425
G1 Y31.0425 Z-2.7
G1 Y117.7125
G1 Y118.7125 Z-1.2
G1 Y121.8875
G1 Y122.8875 Z-2.7
G1 Y128.5
G2 X0.0 Y130.0875 I1.5875 J0.0
G1 X55.6
G2 X57.1875 Y128.5 I0.0 J-1.5875
G1 Y92.5925
G1 Y91.5925 Z-1.2
G1 Y88.4175
G1 Y87.4175 Z-2.7
G1 Y10.5875
G1 Y9.5875 Z-1.2
G1 Y6.4125
G1 Y5.4125 Z-2.7
G1 Y0.0
G2 X55.6 Y-1.5875 I-1.5875 J0.0
G1 X20.08
G1 F1000.0 Z-2.8
G1 F2000.0 X0.0
G2 X-1.5875 Y0.0 I0.0 J1.5875
G1 Y25.8675
G1 Y26.8675 Z-1.2
G1 Y30.0425
G1 Y31.0425 Z-2.8
G1 Y117.7125
G1 Y118.7125 Z-1.2
G1 Y121.8875
G1 Y122.8875 Z-2.8
G1 Y128.5
G2 X0.0 Y130.0875 I1.5875 J0.0
G1 X55.6
G2 X57.1875 Y128.5 I0.0 J-1.5875
G1 Y92.5925
G1 Y91.5925 Z-1.2
G1 Y88.4175
G1 Y87.4175 Z-2.8
G1 Y10.5875
G1 Y9.5875 Z-1.2
G1 Y6.4125
G1 Y5.4125 Z-2.8
G1 Y0.0
G2 X55.6 Y-1.5875 I-1.5875 J0.0
G1 X20.08
G1 F1000.0 Z-2.9
G1 F2000.0 X0.0
G2 X-1.5875 Y0.0 I0.0 J1.5875
G1 Y25.8675
G1 Y26.8675 Z-1.2
G1 Y30.0425
G1 Y31.0425 Z-2.9
G1 Y117.7125
G1 Y118.7125 Z-1.2
G1 Y121.8875
G1 Y122.8875 Z-2.9
G1 Y128.5
G2 X0.0 Y130.0875 I1.5875 J0.0
G1 X55.6
G2 X57.1875 Y128.5 I0.0 J-1.5875
G1 Y92.5925
G1 Y91.5925 Z-1.2
G1 Y88.4175
G1 Y87.4175 Z-2.9
G1 Y10.5875
G1 Y9.5875 Z-1.2
G1 Y6.4125
G1 Y5.4125 Z-2.9
G1 Y0.0
G2 X55.6 Y-1.5875 I-1.5875 J0.0
G1 X20.08
G1 F1000.0 Z-3.0
G1 F2000.0 X0.0
G2 X-1.5875 Y0.0 I0.0 J1.5875
G1 Y25.8675
G1 Y26.8675 Z-1.2
G1 Y30.0425
G1 Y31.0425 Z-3.0
G1 Y117.7125
G1 Y118.7125 Z-1.2
G1 Y121.8875
G1 Y122.8875 Z-3.0
G1 Y128.5
G2 X0.0 Y130.0875 I1.5875 J0.0
G1 X55.6
G2 X57.1875 Y128.5 I0.0 J-1.5875
G1 Y92.5925
G1 Y91.5925 Z-1.2
G1 Y88.4175
G1 Y87.4175 Z-3.0
G1 Y10.5875
G1 Y9.5875 Z-1.2
G1 Y6.4125
G1 Y5.4125 Z-3.0
G1 Y0.0
G2 X55.6 Y-1.5875 I-1.5875 J0.0
G1 X20.08
G1 F1000.0 Z-3.1
G1 F2000.0 X0.0
G2 X-1.5875 Y0.0 I0.0 J1.5875
G1 Y25.8675
G1 Y26.8675 Z-1.2
G1 Y30.0425
G1 Y31.0425 Z-3.1
G1 Y117.7125
G1 Y118.7125 Z-1.2
G1 Y121.8875
G1 Y122.8875 Z-3.1
G1 Y128.5
G2 X0.0 Y130.0875 I1.5875 J0.0
G1 X55.6
G2 X57.1875 Y128.5 I0.0 J-1.5875
G1 Y92.5925
G1 Y91.5925 Z-1.2
G1 Y88.4175
G1 Y87.4175 Z-3.1
G1 Y10.5875
G1 Y9.5875 Z-1.2
G1 Y6.4125
G1 Y5.4125 Z-3.1
G1 Y0.0
G2 X55.6 Y-1.5875 I-1.5875 J0.0
G1 X20.08
G1 F1000.0 Z-3.2
G1 F2000.0 X0.0
G2 X-1.5875 Y0.0 I0.0 J1.5875
G1 Y25.8675
G1 Y26.8675 Z-1.2
G1 Y30.0425
G1 Y31.0425 Z-3.2
G1 Y117.7125
G1 Y118.7125 Z-1.2
G1 Y121.8875
G1 Y122.8875 Z-3.2
G1 Y128.5
G2 X0.0 Y130.0875 I1.5875 J0.0
G1 X55.6
G2 X57.1875 Y128.5 I0.0 J-1.5875
G1 Y92.5925
G1 Y91.5925 Z-1.2
G1 Y88.4175
G1 Y87.4175 Z-3.2
G1 Y10.5875
G1 Y9.5875 Z-1.2
G1 Y6.4125
G1 Y5.4125 Z-3.2
G1 Y0.0
G2 X55.6 Y-1.5875 I-1.5875 J0.0
G1 X20.08
G0 Z3.0
M5
M30
