( Made using CamBam - http://www.cambam.co.uk )
( vcobrd_Y_cut 11/14/2014 7:25:56 PM )
( T1 : 0.04 )
( T2 : 0.031 )
( T3 : 0.0039 )
G20 G90 G64 G40
G0 Z0.125
( T1 : 0.04 )
T1 M6
( Drill1 )
G17
M3 S1000
G0 X2.8561 Y0.682
G98
G81 X2.8561 Y0.682 Z-0.064 R0.125 F20.0
G81 X2.666 Y0.684 Z-0.064
G81 X2.5011 Y0.682 Z-0.064
G81 X2.6563 Y0.1718 Z-0.064
G81 X2.8231 Y0.1738 Z-0.064
G81 X2.9783 Y0.1718 Z-0.064
G81 X2.1247 Z-0.064
G81 X2.0019 Y0.1736 Z-0.064
G81 X1.8798 Y0.1712 Z-0.064
G81 X1.6126 Y0.6027 Z-0.064
G81 X1.0791 Y1.0615 Z-0.064
G81 X0.0791 Y1.538 Z-0.064
G81 X0.2575 Y3.261 Z-0.064
G81 X1.0888 Y3.2618 Z-0.064
G81 X3.1151 Y3.1949 Z-0.064
G81 X3.1125 Y2.96 Z-0.064
G81 X2.702 Y5.0282 Z-0.064
G80
( Drill2 )
G0 Z0.125
( T2 : 0.031 )
T2 M6
M3 S1000
G0 X0.3373 Y3.3267
G98
G81 X0.3373 Y3.3267 Z-0.064 R0.125 F20.0
G81 X0.4688 Y3.4065 Z-0.064
G81 X0.6036 Y3.5517 Z-0.064
G81 X0.5992 Y3.6945 Z-0.064
G81 X0.4666 Y3.7834 Z-0.064
G81 X0.4593 Y3.8811 Z-0.064
G81 X0.6109 Y3.884 Z-0.064
G81 X0.6123 Y3.9948 Z-0.064
G81 X0.6109 Y4.1012 Z-0.064
G81 Y4.2061 Z-0.064
G81 X0.4564 Y4.1055 Z-0.064
G81 X0.3339 Y3.9962 Z-0.064
G81 Y3.6931 Z-0.064
G81 X0.933 Y3.6916 Z-0.064
G81 X0.9315 Y3.5517 Z-0.064
G81 X0.9383 Y3.4065 Z-0.064
G81 X1.0924 Y3.4064 Z-0.064
G81 X0.9359 Y3.0708 Z-0.064
G81 X0.9336 Y2.9276 Z-0.064
G81 X0.9312 Y2.822 Z-0.064
G81 X0.9336 Y2.7187 Z-0.064
G81 X0.9312 Y2.606 Z-0.064
G81 X1.112 Y2.484 Z-0.064
G81 X1.0016 Y2.315 Z-0.064
G81 X0.8913 Y2.0614 Z-0.064
G81 X0.9336 Y1.815 Z-0.064
G81 X0.9359 Y1.7117 Z-0.064
G81 X0.9336 Y1.6084 Z-0.064
G81 X0.9359 Y1.4957 Z-0.064
G81 X1.112 Y1.5051 Z-0.064
G81 Y1.606 Z-0.064
G81 Y1.9394 Z-0.064
G81 X0.612 Y1.8173 Z-0.064
G81 X0.6126 Y1.7 Z-0.064
G81 X0.612 Y1.6084 Z-0.064
G81 X0.6143 Y1.4934 Z-0.064
G81 X0.5275 Y1.3291 Z-0.064
G81 X0.4148 Y1.4065 Z-0.064
G81 X0.415 Y1.5068 Z-0.064
G81 X0.4148 Y1.2375 Z-0.064
G81 X0.4125 Y1.0943 Z-0.064
G81 X0.5251 Y0.9957 Z-0.064
G81 X0.6143 Y1.16 Z-0.064
G81 X0.9453 Z-0.064
G81 X1.112 Y1.1741 Z-0.064
G81 X0.9453 Y0.815 Z-0.064
G81 X0.612 Y0.8173 Z-0.064
G81 X0.0815 Y1.4042 Z-0.064
G81 X0.4125 Y1.8384 Z-0.064
G81 X0.5556 Y2.0614 Z-0.064
G81 X0.3256 Y2.2492 Z-0.064
G81 X0.4312 Y2.3619 Z-0.064
G81 X0.2153 Z-0.064
G81 X0.0885 Y2.6835 Z-0.064
G81 X0.0909 Y2.829 Z-0.064
G81 X0.4242 Y2.8267 Z-0.064
G81 Y2.6811 Z-0.064
G81 X0.6143 Y2.7164 Z-0.064
G81 X0.6167 Y2.822 Z-0.064
G81 Y2.9276 Z-0.064
G81 X0.6143 Y2.606 Z-0.064
G81 X1.1118 Y2.8173 Z-0.064
G81 X1.8031 Y2.9619 Z-0.064
G81 X1.9354 Y2.9602 Z-0.064
G81 Y2.8385 Z-0.064
G81 X1.9347 Y2.727 Z-0.064
G81 Y2.6164 Z-0.064
G81 X2.0666 Z-0.064
G81 Y2.4845 Z-0.064
G81 X2.0685 Y2.3409 Z-0.064
G81 X2.0549 Y2.1605 Z-0.064
G81 X1.9579 Z-0.064
G81 X1.7562 Y2.0519 Z-0.064
G81 X1.6262 Y2.1625 Z-0.064
G81 X1.6243 Y2.3157 Z-0.064
G81 X1.892 Y1.9394 Z-0.064
G81 X1.7581 Y1.8191 Z-0.064
G81 X2.0472 Y1.8171 Z-0.064
G81 X2.0511 Y1.7104 Z-0.064
G81 X2.0452 Y1.6057 Z-0.064
G81 X2.0472 Y1.4951 Z-0.064
G81 X2.0006 Y1.2158 Z-0.064
G81 X2.1267 Y0.9944 Z-0.064
G81 X2.1247 Y0.8819 Z-0.064
G81 Y0.7713 Z-0.064
G81 X2.1267 Y0.6064 Z-0.064
G81 X2.247 Y0.6083 Z-0.064
G81 X2.3653 Z-0.064
G81 X2.5011 Y0.6044 Z-0.064
G81 X2.503 Y0.8275 Z-0.064
G81 X2.5884 Y0.9827 Z-0.064
G81 X2.4138 Y0.9847 Z-0.064
G81 X2.7455 Y0.8605 Z-0.064
G81 X2.7902 Y0.5501 Z-0.064
G81 X3.1219 Z-0.064
G81 X3.1258 Y0.8605 Z-0.064
G81 X3.1238 Y0.9614 Z-0.064
G81 Y1.297 Z-0.064
G81 Y1.4619 Z-0.064
G81 X3.1219 Y1.5744 Z-0.064
G81 X3.1238 Y1.6831 Z-0.064
G81 Y1.8616 Z-0.064
G81 X3.1025 Y2.0497 Z-0.064
G81 X3.0996 Y2.1625 Z-0.064
G81 Y2.2673 Z-0.064
G81 Y2.3712 Z-0.064
G81 X3.1022 Y2.4823 Z-0.064
G81 Y2.5881 Z-0.064
G81 X3.0996 Y2.694 Z-0.064
G81 X3.1125 Y2.8593 Z-0.064
G81 X3.1151 Y3.0942 Z-0.064
G81 X2.8698 Y2.8618 Z-0.064
G81 X2.7794 Y2.694 Z-0.064
G81 Y2.5881 Z-0.064
G81 Y2.4823 Z-0.064
G81 X2.7768 Y2.3712 Z-0.064
G81 X2.7776 Y2.2654 Z-0.064
G81 X2.8785 Y2.2751 Z-0.064
G81 X2.7756 Y2.1606 Z-0.064
G81 X2.7805 Y2.0517 Z-0.064
G81 X2.6233 Y2.0614 Z-0.064
G81 X2.5118 Y2.1606 Z-0.064
G81 X2.5011 Y1.9392 Z-0.064
G81 X2.3692 Y1.9372 Z-0.064
G81 Y1.8189 Z-0.064
G81 X2.3653 Y1.7102 Z-0.064
G81 X2.3672 Y1.6074 Z-0.064
G81 X2.3692 Y1.4949 Z-0.064
G81 X2.5011 Y1.6055 Z-0.064
G81 X2.6194 Y1.6094 Z-0.064
G81 X2.7455 Y1.5822 Z-0.064
G81 Y1.4037 Z-0.064
G81 X2.6214 Y1.7956 Z-0.064
G81 X2.8231 Y1.8635 Z-0.064
G81 X2.2664 Y2.0614 Z-0.064
G81 X2.3585 Y2.3403 Z-0.064
G81 X2.4231 Y2.4848 Z-0.064
G81 Y2.6165 Z-0.064
G81 Y2.8386 Z-0.064
G81 X2.3675 Y3.0836 Z-0.064
G81 X2.3692 Y3.1947 Z-0.064
G81 Y3.2988 Z-0.064
G81 Y3.4064 Z-0.064
G81 X2.5006 Y3.306 Z-0.064
G81 X2.5703 Y3.1949 Z-0.064
G81 X2.6452 Y3.0942 Z-0.064
G81 X2.7459 Y3.1949 Z-0.064
G81 X2.6348 Y3.306 Z-0.064
G81 X2.64 Y3.6391 Z-0.064
G81 X2.5031 Z-0.064
G81 X2.3657 Y3.7503 Z-0.064
G81 X2.3675 Y3.9831 Z-0.064
G81 X2.3692 Y4.14 Z-0.064
G81 Y4.2494 Z-0.064
G81 Y4.357 Z-0.064
G81 X2.3675 Y4.4593 Z-0.064
G81 X2.5367 Y4.5841 Z-0.064
G81 X2.702 Y4.5273 Z-0.064
G81 X2.5367 Y4.251 Z-0.064
G81 X2.5341 Y4.1168 Z-0.064
G81 X2.7691 Y4.1193 Z-0.064
G81 X2.7665 Y3.9825 Z-0.064
G81 X2.7691 Y3.7501 Z-0.064
G81 X3.0351 Y3.7527 Z-0.064
G81 Y3.9283 Z-0.064
G81 X3.0376 Y4.14 Z-0.064
G81 X2.9266 Y4.251 Z-0.064
G81 X3.0351 Y4.3621 Z-0.064
G81 Y4.5738 Z-0.064
G81 Y4.8501 Z-0.064
G81 X2.702 Y4.8707 Z-0.064
G81 X2.4696 Y4.8501 Z-0.064
G81 X2.3251 Y4.7062 Z-0.064
G81 X2.1012 Y4.8508 Z-0.064
G81 X1.99 Y4.7062 Z-0.064
G81 X2.0465 Y4.461 Z-0.064
G81 Y4.3552 Z-0.064
G81 Y4.2494 Z-0.064
G81 Y4.14 Z-0.064
G81 X2.0341 Y3.9831 Z-0.064
G81 X1.8491 Y3.9157 Z-0.064
G81 X2.0341 Y3.7503 Z-0.064
G81 X2.0447 Y3.4064 Z-0.064
G81 X2.0465 Y3.2988 Z-0.064
G81 Y3.1947 Z-0.064
G81 Y3.0836 Z-0.064
G81 X1.8454 Y3.0942 Z-0.064
G81 X2.0694 Y2.8385 Z-0.064
G81 X1.8472 Y3.4381 Z-0.064
G81 X1.8491 Y4.25 Z-0.064
G81 X1.5015 Y4.5051 Z-0.064
G81 Y4.6268 Z-0.064
G81 X1.3904 Y4.8173 Z-0.064
G81 Y4.9495 Z-0.064
G81 X1.6232 Y5.006 Z-0.064
G81 X1.7343 Y4.8949 Z-0.064
G81 X1.8454 Y5.006 Z-0.064
G81 X1.1365 Y4.6268 Z-0.064
G81 X1.1347 Y4.5051 Z-0.064
G81 X1.0888 Y4.3058 Z-0.064
G81 X0.9345 Y4.2047 Z-0.064
G81 X0.933 Y4.1012 Z-0.064
G81 X0.9345 Y3.9962 Z-0.064
G81 Y3.8825 Z-0.064
G81 X1.0906 Y3.9284 Z-0.064
G81 Y3.8279 Z-0.064
G81 X0.3325 Y4.3737 Z-0.064
G81 X1.0236 Y4.8137 Z-0.064
G81 Y4.9478 Z-0.064
G81 X2.0006 Y0.8821 Z-0.064
G81 X1.9987 Y0.6066 Z-0.064
G81 X1.8784 Y0.6027 Z-0.064
G81 Y0.271 Z-0.064
G81 X2.0006 Y0.2729 Z-0.064
G81 X2.1247 Y0.2727 Z-0.064
G81 X2.245 Z-0.064
G81 X2.3672 Y0.2708 Z-0.064
G81 X2.4992 Z-0.064
G80
( Engrave1 )
G0 Z0.125
( T3 : 0.0039 )
T3 M6
M3 S1000
G0 X0.1606 Y0.1049
G0 Z0.0754
G1 F20.0 Z-0.0021
G1 F40.0 Y0.0444
G3 X0.1626 Y0.0424 I0.002 J0.0
G1 X0.1737
G1 X0.1849
G3 X0.1869 Y0.0444 I0.0 J0.002
G1 Y0.0654
G1 Y0.0842
G1 X0.2026 Y0.0829
G1 X0.2205 Y0.0813
G3 X0.2223 Y0.0822 I0.0002 J0.002
G1 X0.2349 Y0.1017
G1 X0.2475 Y0.1211
G3 Y0.1233 I-0.0017 J0.0011
G1 X0.2354 Y0.1426
G1 X0.2232 Y0.1618
G3 X0.2217 Y0.1628 I-0.0017 J-0.0011
G1 X0.1922 Y0.165
G1 X0.1628 Y0.1673
G3 X0.1606 Y0.1653 I-0.0002 J-0.002
G1 Y0.1049
G0 Z0.125
G0 X0.1847 Y0.1154
G0 Z0.0754
G1 F20.0 Z-0.0021
G2 F40.0 X0.1829 Y0.1219 I0.023 J0.01
G2 Y0.1224 I0.002 J0.0003
G2 X0.1942 Y0.1401 I0.0236 J-0.0026
G1 X0.2045 Y0.1465
G2 X0.2072 Y0.1458 I0.0011 J-0.0017
G1 X0.2142 Y0.1345
G1 X0.2212 Y0.1232
G2 Y0.1211 I-0.0017 J-0.0011
G1 X0.2142 Y0.1098
G1 X0.2072 Y0.0986
G2 X0.2045 Y0.0979 I-0.0017 J0.0011
G1 X0.1941 Y0.1043
G2 X0.1847 Y0.1154 I0.0136 J0.0211
G0 Z0.125
G0 X0.2606 Y0.1179
G0 Z0.0754
G1 F20.0 Z-0.0021
G3 F40.0 X0.2607 Y0.1177 I0.002 J0.0001
G3 X0.279 Y0.0865 I0.0509 J0.009
G1 X0.2966 Y0.0719
G3 X0.2989 Y0.0718 I0.0013 J0.0015
G1 X0.3174 Y0.0835
G1 X0.3359 Y0.0951
G3 X0.3369 Y0.0968 I-0.0011 J0.0017
G1 Y0.1222
G1 Y0.1475
G3 X0.3359 Y0.1492 I-0.002 J0.0
G1 X0.318 Y0.1606
G1 X0.3001 Y0.1719
G3 X0.2982 Y0.172 I-0.0011 J-0.0017
G1 X0.2772 Y0.1629
G1 X0.2563 Y0.1539
G3 X0.2566 Y0.1501 I0.0008 J-0.0018
G1 X0.2899 Y0.142
G1 X0.3095 Y0.1373
G1 X0.2931 Y0.1366
G1 X0.2625 Y0.1353
G3 X0.2606 Y0.1333 I0.0001 J-0.002
G1 Y0.118
G1 Y0.1179
G0 Z0.125
G0 X0.2778 Y0.103
G0 Z0.0754
G1 F20.0 Z-0.0021
G2 F40.0 X0.2786 Y0.1036 I0.0015 J-0.0013
G1 X0.2931 Y0.1094
G1 X0.3077 Y0.1153
G2 X0.3099 Y0.1148 I0.0007 J-0.0019
G1 X0.3166 Y0.1081
G1 X0.3233 Y0.1014
G2 X0.3218 Y0.098 I-0.0014 J-0.0014
G1 X0.3005 Y0.0989
G1 X0.2792 Y0.0997
G2 X0.2778 Y0.103 I0.0001 J0.002
G0 Z0.125
G0 X0.3606
G0 Z0.0754
G1 F20.0 Z-0.0021
G1 F40.0 Y0.0444
G3 X0.3626 Y0.0424 I0.002 J0.0
G1 X0.3737
G1 X0.3849
G3 X0.3869 Y0.0444 I0.0 J0.002
G1 Y0.1055
G1 Y0.1666
G3 X0.3849 Y0.1686 I-0.002 J0.0
G1 X0.3737
G1 X0.3626
G3 X0.3606 Y0.1666 I0.0 J-0.002
G1 Y0.1055
G1 Y0.103
G0 Z0.125
G0 X0.4051
G0 Z0.0754
G1 F20.0 Z-0.0021
G1 F40.0 Y0.0444
G3 X0.4071 Y0.0424 I0.002 J0.0
G1 X0.4182
G1 X0.4293
G3 X0.4313 Y0.0444 I0.0 J0.002
G1 Y0.1055
G1 Y0.1666
G3 X0.4293 Y0.1686 I-0.002 J0.0
G1 X0.4182
G1 X0.4071
G3 X0.4051 Y0.1666 I0.0 J-0.002
G1 Y0.1055
G1 Y0.103
G0 Z0.125
G0 X0.4495
G0 Z0.0754
G1 F20.0 Z-0.0021
G1 F40.0 Y0.1027
G3 X0.4502 Y0.1012 I0.002 J0.0
G1 X0.4678 Y0.0865
G1 X0.4854 Y0.0719
G3 X0.4878 Y0.0718 I0.0013 J0.0015
G1 X0.5063 Y0.0835
G1 X0.5248 Y0.0951
G3 X0.5257 Y0.0968 I-0.0011 J0.0017
G1 Y0.1222
G1 Y0.1475
G3 X0.5248 Y0.1492 I-0.002 J0.0
G1 X0.5063 Y0.1609
G1 X0.4878 Y0.1726
G3 X0.4854 Y0.1724 I-0.0011 J-0.0017
G1 X0.4678 Y0.1578
G1 X0.4502 Y0.1432
G3 X0.4495 Y0.1417 I0.0013 J-0.0015
G1 Y0.1222
G1 Y0.103
G0 Z0.125
G0 X0.4739 Y0.1146
G0 Z0.0754
G1 F20.0 Z-0.0021
G2 F40.0 X0.4718 Y0.1219 I0.0227 J0.0108
G2 Y0.1224 I0.002 J0.0003
G2 X0.483 Y0.1401 I0.0236 J-0.0026
G1 X0.4934 Y0.1465
G2 X0.4961 Y0.1458 I0.0011 J-0.0017
G1 X0.5031 Y0.1345
G1 X0.5101 Y0.1232
G2 Y0.1211 I-0.0017 J-0.0011
G1 X0.5031 Y0.1098
G1 X0.4961 Y0.0986
G2 X0.4934 Y0.0979 I-0.0017 J0.0011
G1 X0.483 Y0.1043
G2 X0.4739 Y0.1146 I0.0136 J0.0211
G0 Z0.125
G0 X0.5385 Y0.0898
G0 Z0.0754
G1 F20.0 Z-0.0021
G3 F40.0 X0.5384 Y0.0891 I0.0019 J-0.0007
G1 Y0.0805
G3 X0.5404 Y0.0785 I0.002 J0.0
G1 X0.5682
G1 X0.596
G3 X0.598 Y0.0805 I0.0 J0.002
G1 Y0.1236
G1 Y0.1666
G3 X0.596 Y0.1686 I-0.002 J0.0
G1 X0.5849
G1 X0.5737
G3 X0.5717 Y0.1666 I0.0 J-0.002
G1 Y0.1385
G1 Y0.1118
G1 X0.5564 Y0.1059
G3 X0.5386 Y0.0898 I0.0075 J-0.0264
G1 X0.5385
G0 Z0.125
G0 X0.6055 Y0.0916
G0 Z0.0754
G1 F20.0 Z-0.0021
G3 F40.0 X0.6056 Y0.0909 I0.002 J0.0001
G3 X0.6219 Y0.0684 I0.0499 J0.0188
G1 X0.6372 Y0.055
G3 X0.64 Y0.0552 I0.0013 J0.0015
G1 X0.6512 Y0.0687
G1 X0.6625 Y0.0822
G3 X0.6629 Y0.0839 I-0.0015 J0.0013
G1 X0.655 Y0.1226
G1 X0.647 Y0.1613
G3 X0.6455 Y0.1629 I-0.002 J-0.0004
G1 X0.6265 Y0.1666
G1 X0.6075 Y0.1702
G3 X0.6051 Y0.1683 I-0.0004 J-0.002
G1 Y0.1563
G3 X0.6181 Y0.1424 I0.0138 J-0.0001
G3 X0.6182 I0.0001 J0.002
G1 X0.6273
G1 Y0.1222
G1 Y0.102
G1 X0.6183
G3 X0.6055 Y0.0919 I-0.0013 J-0.0115
G3 Y0.0916 I0.002 J-0.0003
G0 Z0.125
G0 X0.6717
G0 Z0.0754
G1 F20.0 Z-0.0021
G1 F40.0 Y0.0902
G3 X0.6727 Y0.0885 I0.002 J0.0
G1 X0.6811 Y0.0835
G3 X0.6816 Y0.0833 I0.001 J0.0017
G3 X0.721 Y0.0784 I0.0371 J0.1375
G1 X0.7515 Y0.0785
G3 X0.7535 Y0.0805 I0.0 J0.002
G1 Y0.1236
G1 Y0.1666
G3 X0.7515 Y0.1686 I-0.002 J0.0
G1 X0.7412
G1 X0.7308
G3 X0.7288 Y0.1669 I0.0 J-0.002
G1 X0.7253 Y0.1372
G1 X0.7219 Y0.1087
G1 X0.7092 Y0.1046
G1 X0.698 Y0.1009
G1 Y0.1324
G1 Y0.1666
G3 X0.696 Y0.1686 I-0.002 J0.0
G1 X0.6849
G1 X0.6737
G3 X0.6717 Y0.1666 I0.0 J-0.002
G1 Y0.1284
G1 Y0.0916
G0 Z0.125
G0 X0.7718 Y0.1025
G0 Z0.0754
G1 F20.0 Z-0.0021
G3 F40.0 X0.7725 Y0.1012 I0.002 J0.0002
G1 X0.7901 Y0.0865
G1 X0.8077 Y0.0719
G3 X0.81 Y0.0718 I0.0013 J0.0015
G1 X0.8285 Y0.0835
G1 X0.847 Y0.0951
G3 X0.848 Y0.0968 I-0.0011 J0.0017
G1 Y0.1222
G1 Y0.1475
G3 X0.847 Y0.1492 I-0.002 J0.0
G1 X0.8285 Y0.1609
G1 X0.81 Y0.1726
G3 X0.8077 Y0.1724 I-0.0011 J-0.0017
G1 X0.7901 Y0.1578
G1 X0.7725 Y0.1432
G3 X0.7717 Y0.1417 I0.0013 J-0.0015
G1 Y0.1222
G1 Y0.1027
G3 X0.7718 Y0.1025 I0.002 J0.0
G0 Z0.125
G0 X0.7963 Y0.1144
G0 Z0.0754
G1 F20.0 Z-0.0021
G2 F40.0 X0.794 Y0.1219 I0.0225 J0.011
G2 Y0.1224 I0.002 J0.0003
G2 X0.8053 Y0.1401 I0.0236 J-0.0026
G1 X0.8156 Y0.1465
G2 X0.8184 Y0.1458 I0.0011 J-0.0017
G1 X0.8253 Y0.1345
G1 X0.8323 Y0.1232
G2 Y0.1211 I-0.0017 J-0.0011
G1 X0.8253 Y0.1098
G1 X0.8184 Y0.0986
G2 X0.8156 Y0.0979 I-0.0017 J0.0011
G1 X0.8053 Y0.1043
G1 X0.8052
G2 X0.7963 Y0.1144 I0.0136 J0.0211
G0 Z0.125
G0 X0.8721 Y0.1412
G0 Z0.0754
G1 F20.0 Z-0.0021
G3 F40.0 X0.8723 Y0.1408 I0.0019 J0.0007
G1 X0.8787 Y0.1305
G1 X0.8851 Y0.1201
G3 X0.8881 Y0.1196 I0.0017 J0.0011
G1 X0.9036 Y0.1325
G1 X0.9183 Y0.1446
G1 X0.934 Y0.1386
G1 X0.9495 Y0.1326
G1 Y0.1055
G1 Y0.0784
G1 X0.934 Y0.0725
G1 X0.9183 Y0.0664
G1 X0.9036 Y0.0786
G1 X0.8881 Y0.0915
G3 X0.8851 Y0.091 I-0.0013 J-0.0015
G1 X0.8787 Y0.0806
G1 X0.8723 Y0.0702
G3 X0.8727 Y0.0676 I0.0017 J-0.0011
G1 X0.8891 Y0.054
G1 X0.9055 Y0.0404
G3 X0.9073 Y0.04 I0.0013 J0.0015
G1 X0.9345 Y0.0468
G1 X0.9616 Y0.0536
G3 X0.9631 Y0.055 I-0.0005 J0.0019
G1 X0.9704 Y0.078
G1 X0.9777 Y0.101
G3 Y0.1021 I-0.0019 J0.0006
G1 X0.971 Y0.1289
G1 X0.9642 Y0.1557
G3 X0.9628 Y0.1571 I-0.0019 J-0.0005
G1 X0.935 Y0.1641
G1 X0.9073 Y0.1711
G3 X0.9055 Y0.1707 I-0.0005 J-0.0019
G1 X0.8891 Y0.157
G1 X0.8727 Y0.1434
G3 X0.8721 Y0.1412 I0.0013 J-0.0015
G0 Z0.125
G0 X0.8865 Y0.2715
G0 Z0.0754
G1 F20.0 Z-0.0021
G3 F40.0 X0.8878 Y0.2718 I0.0002 J0.002
G1 X0.9063 Y0.2835
G1 X0.9248 Y0.2951
G3 X0.9257 Y0.2968 I-0.0011 J0.0017
G1 Y0.3222
G1 Y0.3475
G3 X0.9248 Y0.3492 I-0.002 J0.0
G1 X0.9063 Y0.3609
G1 X0.8878 Y0.3726
G3 X0.8854 Y0.3724 I-0.0011 J-0.0017
G1 X0.8678 Y0.3578
G1 X0.8502 Y0.3432
G3 X0.8495 Y0.3417 I0.0013 J-0.0015
G1 Y0.3222
G1 Y0.3027
G3 X0.8502 Y0.3012 I0.002 J0.0
G1 X0.8678 Y0.2865
G1 X0.8854 Y0.2719
G3 X0.8865 Y0.2715 I0.0013 J0.0015
G0 Z0.125
G0 X0.8939 Y0.2977
G0 Z0.0754
G1 F20.0 Z-0.0021
G2 F40.0 X0.8934 Y0.2979 I0.0005 J0.0019
G1 X0.883 Y0.3043
G2 X0.8718 Y0.3219 I0.0136 J0.0211
G2 Y0.3224 I0.002 J0.0003
G2 X0.883 Y0.3401 I0.0236 J-0.0026
G1 X0.8934 Y0.3465
G2 X0.8961 Y0.3458 I0.0011 J-0.0017
G1 X0.9031 Y0.3345
G1 X0.9101 Y0.3232
G2 Y0.3211 I-0.0017 J-0.0011
G1 X0.9031 Y0.3098
G1 X0.8961 Y0.2986
G2 X0.8939 Y0.2977 I-0.0017 J0.0011
G0 Z0.125
G0 X0.9389 Y0.2919
G0 Z0.0754
G1 F20.0 Z-0.0021
G3 F40.0 X0.939 Y0.2909 I0.002 J-0.0003
G3 X0.9552 Y0.2684 I0.0499 J0.0188
G1 X0.9705 Y0.255
G3 X0.9733 Y0.2552 I0.0013 J0.0015
G1 X0.9846 Y0.2687
G1 X0.9958 Y0.2822
G3 X0.9962 Y0.2839 I-0.0015 J0.0013
G1 X0.9883 Y0.3226
G1 X0.9804 Y0.3613
G3 X0.9788 Y0.3629 I-0.002 J-0.0004
G1 X0.9598 Y0.3666
G1 X0.9408 Y0.3702
G3 X0.9384 Y0.3683 I-0.0004 J-0.002
G1 Y0.3563
G3 X0.9514 Y0.3424 I0.0138 J-0.0001
G3 X0.9515 I0.0001 J0.002
G1 X0.9606
G1 Y0.3222
G1 Y0.302
G1 X0.9516
G3 X0.9389 Y0.2919 I-0.0013 J-0.0115
G0 Z0.125
G0 X1.007 Y0.304
G0 Z0.0754
G1 F20.0 Z-0.0021
G1 F40.0 X1.0107 Y0.2832
G3 X1.0123 Y0.2816 I0.002 J0.0003
G1 X1.0329 Y0.2776
G1 X1.0535 Y0.2737
G3 X1.0553 Y0.2743 I0.0004 J0.002
G1 X1.0675 Y0.2864
G1 X1.0796 Y0.2986
G3 X1.0782 Y0.302 I-0.0014 J0.0014
G1 X1.0525
G1 X1.0325
G1 X1.0533 Y0.3188
G1 X1.0785 Y0.3393
G3 X1.079 Y0.3419 I-0.0013 J0.0016
G1 X1.0715 Y0.354
G1 X1.0639 Y0.3662
G3 X1.0622 Y0.3671 I-0.0017 J-0.0011
G1 X1.0291 Y0.3662
G1 X1.029
G1 X0.9973 Y0.3642
G3 X0.9955 Y0.3617 I0.0001 J-0.002
G2 X1.0038 Y0.322 I-0.3882 J-0.1019
G1 X1.007 Y0.304
G0 Z0.125
G0 X1.0302 Y0.3231
G0 Z0.0754
G1 F20.0 Z-0.0021
G2 F40.0 X1.0273 Y0.3335 I0.0104 J0.0085
G2 X1.0411 Y0.3464 I0.0138 J-0.0009
G1 X1.0528
G2 X1.0545 Y0.3434 I0.0 J-0.002
G1 X1.0477 Y0.3323
G2 X1.035 Y0.3204 I-0.0233 J0.0121
G2 X1.0331 Y0.3205 I-0.0008 J0.0018
G2 X1.0302 Y0.3231 I0.0075 J0.0111
G0 Z0.125
G0 X1.094
G0 Z0.0754
G1 F20.0 Z-0.0021
G1 F40.0 Y0.3055
G1 Y0.2444
G3 X1.096 Y0.2424 I0.002 J0.0
G1 X1.1071
G1 X1.1182
G3 X1.1202 Y0.2444 I0.0 J0.002
G1 Y0.3055
G1 Y0.3666
G3 X1.1182 Y0.3686 I-0.002 J0.0
G1 X1.1071
G1 X1.096
G3 X1.094 Y0.3666 I0.0 J-0.002
G1 Y0.3231
G0 Z0.125
G0 X1.1384
G0 Z0.0754
G1 F20.0 Z-0.0021
G1 F40.0 Y0.3055
G1 Y0.2444
G3 X1.1404 Y0.2424 I0.002 J0.0
G1 X1.1515
G1 X1.1626
G3 X1.1646 Y0.2444 I0.0 J0.002
G1 Y0.3055
G1 Y0.3666
G3 X1.1626 Y0.3686 I-0.002 J0.0
G1 X1.1515
G1 X1.1404
G3 X1.1384 Y0.3666 I0.0 J-0.002
G1 Y0.3231
G0 Z0.125
G0 X1.1829
G0 Z0.0754
G1 F20.0 Z-0.0021
G1 F40.0 Y0.3222
G1 Y0.2777
G3 X1.1849 Y0.2757 I0.002 J0.0
G1 X1.196
G1 X1.2071
G3 X1.2091 Y0.2777 I0.0 J0.002
G1 Y0.3222
G1 Y0.3666
G3 X1.2071 Y0.3686 I-0.002 J0.0
G1 X1.196
G1 X1.1849
G3 X1.1829 Y0.3666 I0.0 J-0.002
G1 Y0.3231
G0 Z0.125
G0 X1.2273 Y0.3314
G0 Z0.0754
G1 F20.0 Z-0.0021
G3 F40.0 X1.2299 Y0.3299 I0.002 J0.0004
G1 X1.2521 Y0.337
G1 X1.2717 Y0.3432
G1 Y0.3222
G1 Y0.3012
G1 X1.2521 Y0.3074
G1 X1.2299 Y0.3145
G3 X1.2273 Y0.3126 I-0.0006 J-0.0019
G1 Y0.3004
G3 X1.2274 Y0.2999 I0.002 J0.0
G3 X1.2454 Y0.2798 I0.0275 J0.0066
G1 X1.2622 Y0.2734
G3 X1.2642 Y0.2737 I0.0007 J0.0019
G1 X1.2807 Y0.2874
G1 X1.2972 Y0.3012
G3 X1.298 Y0.3027 I-0.0013 J0.0015
G1 Y0.3222
G1 Y0.3417
G3 X1.2972 Y0.3432 I-0.002 J0.0
G1 X1.2807 Y0.3569
G1 X1.2642 Y0.3707
G3 X1.2622 Y0.371 I-0.0013 J-0.0015
G1 X1.2455 Y0.3646
G3 X1.2273 Y0.3444 I0.0078 J-0.0253
G3 Y0.344 I0.002 J-0.0004
G1 Y0.3318
G3 Y0.3314 I0.002 J0.0
G0 Z0.125
G0 X1.201 Y0.2676
G0 Z0.0754
G1 F20.0 Z-0.0021
G3 F40.0 X1.196 Y0.2686 I-0.005 J-0.0121
G3 X1.1829 Y0.2555 I0.0 J-0.0131
G3 X1.196 Y0.2424 I0.0131 J0.0
G3 X1.2091 Y0.2555 I0.0 J0.0131
G3 X1.201 Y0.2676 I-0.0131 J0.0
G0 Z0.125
G0 Y0.1964
G0 Z0.0754
G1 F20.0 Z-0.0021
G1 F40.0 X1.1788
G1 X1.146
G3 X1.144 Y0.1945 I0.0 J-0.002
G1 X1.1407 Y0.1376
G1 X1.1374 Y0.0806
G3 X1.1393 Y0.0785 I0.002 J-0.0001
G1 X1.1674
G1 X1.1956
G3 X1.1971 Y0.0792 I0.0 J0.002
G1 X1.2079 Y0.0923
G1 X1.2188 Y0.1053
G3 X1.2192 Y0.1068 I-0.0015 J0.0013
G1 X1.2164 Y0.1506
G1 X1.2136 Y0.1945
G3 X1.2116 Y0.1964 I-0.002 J-0.0001
G1 X1.201
G0 Z0.125
G0 X1.1927 Y0.1775
G0 Z0.0754
G1 F20.0 Z-0.0021
G2 F40.0 X1.1971 Y0.175 I-0.0114 J-0.026
G2 X1.1974 Y0.172 I-0.0011 J-0.0017
G2 X1.18 Y0.1608 I-0.0352 J0.0355
G1 X1.1634 Y0.1544
G2 X1.1606 Y0.1562 I-0.0007 J0.0019
G1 Y0.167
G1 Y0.1777
G2 X1.1626 Y0.1797 I0.002 J0.0
G1 X1.1792
G2 X1.1927 Y0.1775 I0.0021 J-0.0283
G0 Z0.125
G0 X1.1839 Y0.1467
G0 Z0.0754
G1 F20.0 Z-0.0021
G2 F40.0 X1.185 Y0.1458 I-0.0006 J-0.0019
G1 X1.192 Y0.1345
G1 X1.199 Y0.1232
G2 Y0.1211 I-0.0017 J-0.0011
G1 X1.192 Y0.1098
G1 X1.185 Y0.0986
G2 X1.1823 Y0.0979 I-0.0017 J0.0011
G1 X1.1719 Y0.1043
G2 X1.1607 Y0.1219 I0.0136 J0.0211
G2 X1.1606 Y0.1224 I0.002 J0.0003
G2 X1.1719 Y0.1401 I0.0236 J-0.0026
G1 X1.1823 Y0.1465
G2 X1.1839 Y0.1467 I0.0011 J-0.0017
G0 Z0.125
G0 X1.2297 Y0.1583
G0 Z0.0754
G1 F20.0 Z-0.0021
G2 F40.0 X1.2371 Y0.122 I-0.3926 J-0.0992
G1 X1.244 Y0.0832
G3 X1.2456 Y0.0816 I0.002 J0.0003
G1 X1.2662 Y0.0776
G1 X1.2868 Y0.0737
G3 X1.2886 Y0.0743 I0.0004 J0.002
G1 X1.3008 Y0.0864
G1 X1.3129 Y0.0986
G3 X1.3115 Y0.102 I-0.0014 J0.0014
G1 X1.2858
G1 X1.2658
G1 X1.2867 Y0.1188
G1 X1.3119 Y0.1393
G3 X1.3123 Y0.1419 I-0.0013 J0.0016
G1 X1.3048 Y0.154
G1 X1.2973 Y0.1662
G3 X1.2955 Y0.1671 I-0.0017 J-0.0011
G1 X1.2624 Y0.1662
G1 X1.2623
G1 X1.2306 Y0.1642
G3 X1.2288 Y0.1617 I0.0001 J-0.002
G2 X1.2297 Y0.1583 I-0.3917 J-0.1026
G0 Z0.125
G0 X1.2625 Y0.1395
G0 Z0.0754
G1 F20.0 Z-0.0021
G2 F40.0 X1.2744 Y0.1464 I0.012 J-0.0069
G1 X1.2862
G2 X1.2879 Y0.1434 I0.0 J-0.002
G1 X1.281 Y0.1323
G2 X1.2683 Y0.1204 I-0.0233 J0.0121
G2 X1.2664 Y0.1205 I-0.0008 J0.0018
G2 X1.2606 Y0.1335 I0.0075 J0.0111
G2 X1.2625 Y0.1395 I0.0138 J-0.0009
G0 Z0.125
G0 X1.3166 Y0.1529
G0 Z0.0754
G1 F20.0 Z-0.0021
G3 F40.0 X1.3292 Y0.1424 I0.0134 J0.0033
G3 X1.3293 I0.0001 J0.002
G1 X1.3384
G1 Y0.1222
G1 Y0.102
G1 X1.3294
G3 X1.3166 Y0.0919 I-0.0013 J-0.0115
G3 X1.3167 Y0.0909 I0.002 J-0.0003
G3 X1.333 Y0.0684 I0.0498 J0.0187
G1 X1.3483 Y0.055
G3 X1.3511 Y0.0552 I0.0013 J0.0015
G1 X1.3623 Y0.0687
G1 X1.3736 Y0.0822
G3 X1.374 Y0.0839 I-0.0015 J0.0013
G1 X1.3661 Y0.1226
G1 X1.3582 Y0.1613
G3 X1.3566 Y0.1629 I-0.002 J-0.0004
G1 X1.3376 Y0.1666
G1 X1.3186 Y0.1702
G3 X1.3162 Y0.1683 I-0.0004 J-0.002
G1 Y0.1563
G3 X1.3166 Y0.1529 I0.0138 J-0.0001
G0 Z0.125
G0 X1.3829
G0 Z0.0754
G1 F20.0 Z-0.0021
G1 F40.0 Y0.1055
G1 Y0.0444
G3 X1.3849 Y0.0424 I0.002 J0.0
G1 X1.396
G1 X1.4071
G3 X1.4091 Y0.0444 I0.0 J0.002
G1 Y0.1055
G1 Y0.1666
G3 X1.4071 Y0.1686 I-0.002 J0.0
G1 X1.396
G1 X1.3849
G3 X1.3829 Y0.1666 I0.0 J-0.002
G1 Y0.1529
G0 Z0.125
G0 X1.4274 Y0.1422
G0 Z0.0754
G1 F20.0 Z-0.0021
G3 F40.0 X1.4273 Y0.1417 I0.0019 J-0.0005
G1 Y0.1222
G1 Y0.1027
G3 X1.428 Y0.1012 I0.002 J0.0
G1 X1.4456 Y0.0865
G1 X1.4632 Y0.0719
G3 X1.4656 Y0.0718 I0.0013 J0.0015
G1 X1.4841 Y0.0835
G1 X1.5026 Y0.0951
G3 X1.5035 Y0.0968 I-0.0011 J0.0017
G1 Y0.1222
G1 Y0.1475
G3 X1.5026 Y0.1492 I-0.002 J0.0
G1 X1.4841 Y0.1609
G1 X1.4656 Y0.1726
G3 X1.4632 Y0.1724 I-0.0011 J-0.0017
G1 X1.4456 Y0.1578
G1 X1.428 Y0.1432
G3 X1.4274 Y0.1422 I0.0013 J-0.0015
G0 Z0.125
G0 X1.4518 Y0.1302
G0 Z0.0754
G1 F20.0 Z-0.0021
G2 F40.0 X1.4608 Y0.1401 I0.0213 J-0.0104
G1 X1.4712 Y0.1465
G2 X1.4739 Y0.1458 I0.0011 J-0.0017
G1 X1.4809 Y0.1345
G1 X1.4879 Y0.1232
G2 Y0.1211 I-0.0017 J-0.0011
G1 X1.4809 Y0.1098
G1 X1.4739 Y0.0986
G2 X1.4712 Y0.0979 I-0.0017 J0.0011
G1 X1.4608 Y0.1043
G2 X1.4495 Y0.1219 I0.0136 J0.0211
G2 Y0.1224 I0.002 J0.0003
G2 X1.4518 Y0.1302 I0.0236 J-0.0026
G0 Z0.125
G0 X1.5349 Y0.1056
G0 Z0.0754
G1 F20.0 Z-0.0021
G2 F40.0 X1.5199 Y0.0606 I-0.656 J0.1944
G1 X1.5139 Y0.0451
G3 X1.5158 Y0.0424 I0.0019 J-0.0007
G1 X1.5277
G1 X1.5395
G3 X1.5414 Y0.0438 I0.0 J0.002
G1 X1.5552 Y0.0899
G1 X1.5672 Y0.1299
G1 X1.5806 Y0.0898
G1 X1.5959 Y0.0438
G3 X1.5978 Y0.0424 I0.0019 J0.0006
G1 X1.6092
G1 X1.6206
G3 X1.6224 Y0.0451 I0.0 J0.002
G1 X1.6165 Y0.0606
G1 X1.5969 Y0.1216
G1 X1.5833 Y0.1672
G3 X1.5813 Y0.1686 I-0.0019 J-0.0006
G1 X1.5682
G1 X1.555
G3 X1.5531 Y0.1672 I0.0 J-0.002
G1 X1.5395 Y0.1216
G1 X1.5394
G2 X1.5349 Y0.1056 I-0.6605 J0.1784
G0 Z0.125
G0 X1.484 Y0.2425
G0 Z0.0754
G1 F20.0 Z-0.0021
G3 F40.0 X1.4847 Y0.243 I-0.0007 J0.0019
G1 X1.5021 Y0.2605
G1 X1.5196 Y0.2779
G3 X1.5202 Y0.2793 I-0.0014 J0.0014
G1 Y0.3055
G1 Y0.3317
G3 X1.5196 Y0.3331 I-0.002 J0.0
G1 X1.5021 Y0.3506
G1 X1.4847 Y0.3681
G3 X1.4833 Y0.3686 I-0.0014 J-0.0014
G1 X1.4626
G1 X1.442
G3 X1.4406 Y0.3681 I0.0 J-0.002
G1 X1.4231 Y0.3506
G1 X1.4057 Y0.3331
G3 X1.4051 Y0.3317 I0.0014 J-0.0014
G1 Y0.3055
G1 Y0.2793
G3 X1.4057 Y0.2779 I0.002 J0.0
G1 X1.4231 Y0.2605
G1 X1.4406 Y0.243
G3 X1.442 Y0.2424 I0.0014 J0.0014
G1 X1.4626
G1 X1.4833
G3 X1.484 Y0.2425 I0.0 J0.002
G0 Z0.125
G0 X1.4747 Y0.2667
G0 Z0.0754
G1 F20.0 Z-0.0021
G1 F40.0 X1.4634 Y0.2624
G2 X1.4619 I-0.0007 J0.0019
G1 X1.4445 Y0.2691
G1 X1.4271 Y0.2758
G2 X1.4258 Y0.2779 I0.0007 J0.0019
G1 X1.4293 Y0.3085
G1 X1.4329 Y0.3391
G2 X1.4349 Y0.3409 I0.002 J-0.0002
G1 X1.4626
G1 X1.4904
G2 X1.4924 Y0.3391 I0.0 J-0.002
G1 X1.4959 Y0.3085
G1 X1.4994 Y0.2779
G2 X1.4982 Y0.2758 I-0.002 J-0.0002
G1 X1.4808 Y0.2691
G1 X1.4747 Y0.2667
G0 Z0.125
G0 X1.3868 Y0.2877
G0 Z0.0754
G1 F20.0 Z-0.0021
G3 F40.0 X1.3869 Y0.2882 I-0.0019 J0.0005
G1 Y0.3062
G1 Y0.3243
G3 X1.3854 Y0.3262 I-0.002 J0.0
G1 X1.3604 Y0.3329
G1 X1.3426 Y0.3376
G1 X1.3632 Y0.3431
G1 X1.3909 Y0.3505
G3 X1.3912 Y0.3543 I-0.0005 J0.0019
G1 X1.3718 Y0.3626
G1 X1.3523 Y0.3709
G3 X1.3508 I-0.0008 J-0.0018
G1 X1.3341 Y0.3645
G1 X1.3175 Y0.3581
G3 X1.3162 Y0.3562 I0.0007 J-0.0019
G1 Y0.3382
G1 Y0.3201
G3 X1.3177 Y0.3182 I0.002 J0.0
G1 X1.3427 Y0.3115
G1 X1.3604 Y0.3068
G1 X1.3399 Y0.3013
G1 X1.3121 Y0.2939
G3 X1.3119 Y0.2901 I0.0005 J-0.0019
G1 X1.3313 Y0.2818
G1 X1.3507 Y0.2735
G3 X1.3522 I0.0008 J0.0018
G1 X1.3689 Y0.2799
G1 X1.3856 Y0.2863
G3 X1.3868 Y0.2877 I-0.0007 J0.0019
G0 Z0.125
G0 Y0.4091
G0 Z0.0754
G1 F20.0 Z-0.0021
G1 F40.0 X2.3495
G1 Y0.368
G1 Y0.3259
G1 X2.3336 Y0.3126
G1 X2.3169 Y0.2988
G3 X2.3162 Y0.2972 I0.0013 J-0.0015
G1 Y0.2731
G1 Y0.2489
G3 X2.3168 Y0.2474 I0.002 J0.0
G1 X2.3301 Y0.2341
G1 X2.3434 Y0.2208
G3 X2.3449 Y0.2202 I0.0014 J0.0014
G1 X2.3682
G1 X2.3915
G3 X2.3929 Y0.2208 I0.0 J0.002
G1 X2.4063 Y0.2341
G1 X2.4196 Y0.2474
G3 X2.4202 Y0.2489 I-0.0014 J0.0014
G1 Y0.2731
G1 Y0.2972
G3 X2.4195 Y0.2988 I-0.002 J0.0
G1 X2.4028 Y0.3126
G1 X2.3869 Y0.3259
G1 Y0.368
G1 Y0.4091
G1 X2.7015
G1 X3.0182
G3 X3.0202 Y0.4111 I0.0 J0.002
G1 Y1.9419
G1 Y3.4719
G1 X3.1029 Y3.5541
G1 X3.1863 Y3.6369
G3 X3.1869 Y3.6383 I-0.0014 J0.0014
G1 Y4.1802
G1 Y4.7222
G3 X3.1849 Y4.7242 I-0.002 J0.0
G1 X2.8015
G1 X2.4182
G3 X2.4162 Y4.7222 I0.0 J-0.002
G1 Y4.6666
G1 Y4.6131
G1 X2.3849
G1 X2.3515
G3 X2.3495 Y4.6111 I0.0 J-0.002
G1 Y4.5568
G1 Y4.5041
G1 X2.328 Y4.4985
G1 X2.3049 Y4.4924
G3 X2.3035 Y4.4903 I0.0005 J-0.0019
G1 X2.3071 Y4.4589
G1 X2.3106 Y4.4275
G3 X2.3126 Y4.4257 I0.002 J0.0002
G1 X2.3682
G1 X2.4237
G3 X2.4257 Y4.4275 I0.0 J0.002
G1 X2.4293 Y4.4589
G1 X2.4329 Y4.4903
G3 X2.4314 Y4.4924 I-0.002 J0.0002
G1 X2.4084 Y4.4985
G1 X2.3869 Y4.5041
G1 Y4.5402
G1 Y4.5757
G1 X2.4182
G1 X2.4515
G3 X2.4535 Y4.5777 I0.0 J0.002
G1 Y4.6333
G1 Y4.6869
G1 X2.7904
G1 X3.1273
G1 Y4.1913
G1 Y3.6946
G1 X3.0581 Y3.626
G1 X2.9897 Y3.5582
G1 X2.9419 Y3.6068
G1 X2.8928 Y3.6569
G3 X2.8913 Y3.6575 I-0.0014 J-0.0014
G1 X2.7895
G1 X2.6885
G1 X2.6753 Y3.6735
G1 X2.6615 Y3.6901
G3 X2.6599 Y3.6909 I-0.0015 J-0.0013
G1 X2.6357
G1 X2.6115
G3 X2.6101 Y3.6903 I0.0 J-0.002
G1 X2.5968 Y3.6769
G1 X2.5834 Y3.6636
G3 X2.5829 Y3.6622 I0.0014 J-0.0014
G1 Y3.6389
G1 Y3.6155
G3 X2.5834 Y3.6141 I0.002 J0.0
G1 X2.5968 Y3.6008
G1 X2.6101 Y3.5874
G3 X2.6115 Y3.5869 I0.0014 J0.0014
G1 X2.6357
G1 X2.6599
G3 X2.6615 Y3.5876 I0.0 J0.002
G1 X2.6753 Y3.6042
G1 X2.6885 Y3.6202
G1 X2.7727
G1 X2.8571
G1 X2.9088 Y3.5676
G1 X2.9606 Y3.5151
G1 Y2.9524
G1 Y2.3909
G1 X2.9037
G1 X2.8457
G1 X2.8344 Y2.4021
G1 X2.8226 Y2.4139
G3 X2.8211 Y2.4145 I-0.0014 J-0.0014
G1 X2.7723 Y2.411
G1 X2.7236 Y2.4075
G3 X2.7217 Y2.4055 I0.0001 J-0.002
G1 Y2.3722
G1 Y2.3389
G3 X2.7236 Y2.3369 I0.002 J0.0
G1 X2.7723 Y2.3334
G1 X2.8211 Y2.3299
G3 X2.8226 Y2.3305 I0.0001 J0.002
G1 X2.8344 Y2.3423
G1 X2.8457 Y2.3535
G1 X2.9037
G1 X2.9606
G1 Y1.4111
G1 Y0.4686
G1 X2.8293
G1 X2.698
G1 Y0.5486
G1 Y0.6296
G1 X2.7139 Y0.6429
G1 X2.7306 Y0.6567
G3 X2.7313 Y0.6582 I-0.0013 J0.0015
G1 Y0.6829
G1 Y0.7076
G3 X2.7306 Y0.7091 I-0.002 J0.0
G1 X2.7103 Y0.7275
G1 X2.69 Y0.7459
G3 X2.6887 Y0.7464 I-0.0013 J-0.0015
G1 X2.6663
G1 X2.6439
G3 X2.6424 Y0.7458 I0.0 J-0.002
G1 X2.624 Y0.7254
G1 X2.6056 Y0.7051
G3 X2.6051 Y0.7038 I0.0015 J-0.0013
G1 Y0.681
G1 Y0.6582
G3 X2.6058 Y0.6567 I0.002 J0.0
G1 X2.6225 Y0.6429
G1 X2.6384 Y0.6296
G1 Y0.5486
G1 Y0.4686
G1 X2.2126
G1 X1.7869
G1 Y1.0534
G1 Y1.6394
G1 X1.8174 Y1.6687
G1 X1.848 Y1.698
G1 X1.9138
G1 X1.9796
G1 X1.9908 Y1.6867
G1 X2.0026 Y1.6749
G3 X2.0042 Y1.6743 I0.0014 J0.0014
G1 X2.0529 Y1.6778
G1 X2.1017 Y1.6813
G3 X2.1035 Y1.6833 I-0.0001 J0.002
G1 Y1.7111
G1 Y1.7389
G3 X2.1015 Y1.7409 I-0.002 J0.0
G1 X2.0098 Y1.7379
G1 X1.9202 Y1.735
G1 Y1.8158
G1 Y1.8975
G1 X1.9304 Y1.9038
G1 X1.9415 Y1.9107
G3 X1.9424 Y1.9124 I-0.0011 J0.0017
G1 Y1.9373
G1 Y1.9622
G3 X1.9418 Y1.9636 I-0.002 J0.0
G1 X1.9285 Y1.9769
G1 X1.9152 Y1.9903
G3 X1.9137 Y1.9909 I-0.0014 J-0.0014
G1 X1.8888
G1 X1.8639
G3 X1.8622 Y1.9899 I0.0 J-0.002
G1 X1.8554 Y1.9788
G1 X1.8491 Y1.9686
G1 X1.7509
G1 X1.6535
G1 Y2.0438
G1 Y2.1198
G1 X1.6637 Y2.126
G1 X1.6748 Y2.1329
G3 X1.6757 Y2.1346 I-0.0011 J0.0017
G1 Y2.1611
G1 Y2.1875
G3 X1.6748 Y2.1892 I-0.002 J0.0
G1 X1.6637 Y2.1961
G1 X1.6535 Y2.2024
G1 Y2.2389
G1 Y2.2753
G1 X1.6637 Y2.2816
G1 X1.6748 Y2.2885
G3 X1.6757 Y2.2902 I-0.0011 J0.0017
G1 Y2.3166
G1 Y2.3431
G3 X1.6748 Y2.3448 I-0.002 J0.0
G1 X1.6637 Y2.3517
G1 X1.6535 Y2.358
G1 Y2.8187
G1 Y3.2786
G1 X1.8765 Y3.2744
G1 X2.1015 Y3.2702
G3 X2.1035 Y3.2722 I0.0 J0.002
G1 Y3.3
G1 Y3.3277
G3 X2.1017 Y3.3297 I-0.002 J0.0
G1 X2.0529 Y3.3332
G1 X2.0042 Y3.3367
G3 X2.0026 Y3.3361 I-0.0001 J-0.002
G1 X1.9908 Y3.3243
G1 X1.9796 Y3.3131
G1 X1.816
G1 X1.6535
G1 Y4.1382
G1 Y4.9642
G1 X1.6637 Y4.9705
G1 X1.6748 Y4.9774
G3 X1.6757 Y4.9791 I-0.0011 J0.0017
G1 Y5.004
G1 Y5.0289
G3 X1.6752 Y5.0303 I-0.002 J0.0
G1 X1.6618 Y5.0436
G1 X1.6485 Y5.0569
G3 X1.6471 Y5.0575 I-0.0014 J-0.0014
G1 X1.6237
G1 X1.6004
G3 X1.599 Y5.0569 I0.0 J-0.002
G1 X1.5857 Y5.0436
G1 X1.5723 Y5.0303
G3 X1.5717 Y5.0289 I0.0014 J-0.0014
G1 Y5.004
G1 Y4.9791
G3 X1.5727 Y4.9774 I0.002 J0.0
G1 X1.5838 Y4.9705
G1 X1.594 Y4.9642
G1 Y3.6611
G1 Y2.358
G1 X1.5838 Y2.3517
G1 X1.5727 Y2.3448
G3 X1.5717 Y2.3431 I0.0011 J-0.0017
G1 Y2.3166
G1 Y2.2902
G3 X1.5727 Y2.2885 I0.002 J0.0
G1 X1.5838 Y2.2816
G1 X1.594 Y2.2753
G1 Y2.2389
G1 Y2.2024
G1 X1.5838 Y2.1961
G1 X1.5727 Y2.1892
G3 X1.5717 Y2.1875 I0.0011 J-0.0017
G1 Y2.1611
G1 Y2.1346
G3 X1.5727 Y2.1329 I0.002 J0.0
G1 X1.5838 Y2.126
G1 X1.594 Y2.1198
G1 Y2.0163
G1 Y1.9118
G3 X1.5959 Y1.9098 I0.002 J0.0
G1 X1.7265 Y1.9067
G1 X1.8552 Y1.9036
G1 X1.8583 Y1.8193
G1 X1.8615 Y1.7353
G1 X1.8319
G1 X1.8003
G3 X1.7989 Y1.7347 I0.0 J-0.002
G1 X1.7634 Y1.6981
G1 X1.7279 Y1.6614
G3 X1.7273 Y1.66 I0.0014 J-0.0014
G1 Y1.0633
G1 Y0.4686
G1 X0.9849
G1 X0.2424
G1 Y1.3938
G1 Y2.3198
G1 X0.2526 Y2.326
G1 X0.2637 Y2.3329
G3 X0.2646 Y2.3346 I-0.0011 J0.0017
G1 Y2.3611
G1 Y2.3875
G3 X0.2637 Y2.3892 I-0.002 J0.0
G1 X0.2526 Y2.3961
G1 X0.2424 Y2.4024
G1 Y2.7006
G1 Y3.0
G3 X0.2404 Y3.002 I-0.002 J0.0
G1 X0.1904
G1 X0.1424
G1 Y3.6652
G1 Y4.3284
G1 X0.5293 Y4.3301
G1 X0.9162 Y4.3318
G1 Y4.2904
G1 Y4.2486
G1 X0.8946 Y4.2429
G1 X0.8716 Y4.2369
G3 X0.8701 Y4.2347 I0.0005 J-0.0019
G1 X0.8737 Y4.2033
G1 X0.8773 Y4.172
G3 X0.8793 Y4.1702 I0.002 J0.0002
G1 X0.9349
G1 X0.9904
G3 X0.9924 Y4.172 I0.0 J0.002
G1 X0.9959 Y4.2026
G1 X0.9994 Y4.2332
G3 X0.9982 Y4.2353 I-0.002 J0.0002
G1 X0.9808 Y4.242
G1 X0.9646 Y4.2482
G1 Y4.3512
G1 Y4.4535
G1 X1.0604
G1 X1.1582
G3 X1.1596 Y4.4541 I0.0 J0.002
G1 X1.1729 Y4.4674
G1 X1.1863 Y4.4808
G3 X1.1869 Y4.4822 I-0.0014 J0.0014
G1 Y4.5071
G1 Y4.532
G3 X1.186 Y4.5337 I-0.002 J0.0
G1 X1.1613 Y4.551
G1 X1.139 Y4.5666
G1 X1.1613 Y4.5823
G1 X1.186 Y4.5996
G3 X1.1869 Y4.6012 I-0.0011 J0.0016
G1 Y4.6262
G1 Y4.6511
G3 X1.1863 Y4.6525 I-0.002 J0.0
G1 X1.1729 Y4.6658
G1 X1.1596 Y4.6792
G3 X1.1582 Y4.6797 I-0.0014 J-0.0014
G1 X1.1348
G1 X1.1123
G1 X1.0754 Y4.7178
G1 X1.0393 Y4.7551
G1 X1.0566 Y4.7743
G1 X1.0752 Y4.7948
G3 X1.0757 Y4.7962 I-0.0015 J0.0013
G1 Y4.8189
G1 Y4.8417
G3 X1.075 Y4.8432 I-0.002 J0.0
G1 X1.0584 Y4.8571
G1 X1.0583
G2 X1.0424 Y4.8833 I0.0266 J0.034
G2 X1.0583 Y4.9095 I0.0444 J-0.009
G1 X1.0584
G1 X1.075 Y4.9234
G3 X1.0757 Y4.9249 I-0.0013 J0.0015
G1 Y4.9491
G1 Y4.9733
G3 X1.0752 Y4.9747 I-0.002 J0.0
G1 X1.0618 Y4.9881
G1 X1.0485 Y5.0014
G3 X1.0471 Y5.002 I-0.0014 J-0.0014
G1 X1.0237
G1 X1.0004
G3 X0.999 Y5.0014 I0.0 J-0.002
G1 X0.9857 Y4.9881
G1 X0.9723 Y4.9747
G3 X0.9717 Y4.9733 I0.0014 J-0.0014
G1 Y4.9491
G1 Y4.9249
G3 X0.9725 Y4.9234 I0.002 J0.0
G1 X0.9891 Y4.9095
G1 X0.9892
G2 X1.005 Y4.8833 I-0.0266 J-0.034
G2 X0.9892 Y4.8571 I-0.0444 J0.009
G1 X0.9891
G1 X0.9725 Y4.8432
G3 X0.9717 Y4.8417 I0.0013 J-0.0015
G1 Y4.8166
G1 Y4.7916
G3 X0.9725 Y4.79 I0.002 J0.0
G1 X0.9891 Y4.7762
G1 X1.0051 Y4.763
G1 Y4.7397
G1 Y4.7154
G3 X1.0057 Y4.714 I0.002 J0.0
G1 X1.0446 Y4.6763
G1 X1.0829 Y4.6392
G1 Y4.6145
G1 Y4.5909
G1 X0.9849
G1 X0.8849
G3 X0.8829 Y4.5889 I0.0 J-0.002
G1 Y4.4989
G1 Y4.4109
G1 X0.5932 Y4.4132
G3 X0.3904 Y4.4144 I-0.1324 J-5.2806
G3 X0.1876 I-0.0998 J-3.8673
G1 X0.0737 Y4.4131
G3 X0.0717 Y4.4111 I0.0 J-0.002
G1 Y3.6722
G1 Y2.9333
G3 X0.0737 Y2.9313 I0.002 J0.0
G1 X0.1293
G1 X0.1829
G1 Y2.8889
G1 Y2.8464
G1 X0.164
G1 X0.1441
G1 X0.1308 Y2.8624
G1 X0.117 Y2.879
G3 X0.1155 Y2.8797 I-0.0015 J-0.0013
G1 X0.0913
G1 X0.0671
G3 X0.0657 Y2.8792 I0.0 J-0.002
G1 X0.0523 Y2.8658
G1 X0.039 Y2.8525
G3 X0.0384 Y2.8511 I0.0014 J-0.0014
G1 Y2.8277
G1 Y2.8044
G3 X0.039 Y2.803 I0.002 J0.0
G1 X0.0523 Y2.7897
G1 X0.0657 Y2.7763
G3 X0.0671 Y2.7757 I0.0014 J0.0014
G1 X0.0913
G1 X0.1155
G3 X0.117 Y2.7765 I0.0 J0.002
G1 X0.1308 Y2.7931
G1 X0.1441 Y2.8091
G1 X0.164
G1 X0.1829
G1 Y2.7555
G1 Y2.702
G1 X0.164
G1 X0.1441
G1 X0.1308 Y2.7179
G1 X0.117 Y2.7346
G3 X0.1155 Y2.7353 I-0.0015 J-0.0013
G1 X0.0913
G1 X0.0671
G3 X0.0657 Y2.7347 I0.0 J-0.002
G1 X0.0523 Y2.7214
G1 X0.039 Y2.7081
G3 X0.0384 Y2.7066 I0.0014 J-0.0014
G1 Y2.6833
G1 Y2.66
G3 X0.039 Y2.6586 I0.002 J0.0
G1 X0.0523 Y2.6452
G1 X0.0657 Y2.6319
G3 X0.0671 Y2.6313 I0.0014 J0.0014
G1 X0.0913
G1 X0.1155
G3 X0.117 Y2.632 I0.0 J0.002
G1 X0.1308 Y2.6487
G1 X0.1441 Y2.6646
G1 X0.164
G1 X0.1829
G1 Y2.534
G1 Y2.4024
G1 X0.1727 Y2.3961
G1 X0.1616 Y2.3892
G3 X0.1606 Y2.3875 I0.0011 J-0.0017
G1 Y2.3611
G1 Y2.3346
G3 X0.1616 Y2.3329 I0.002 J0.0
G1 X0.1727 Y2.326
G1 X0.1829 Y2.3198
G1 Y1.366
G1 Y0.4111
G3 X0.1849 Y0.4091 I0.002 J0.0
G1 X1.2682
G1 X1.3868
G0 Z0.125
G0 Y0.5535
G0 Z0.0754
G1 F20.0 Z-0.0021
G1 F40.0 X1.5071
G3 X1.5091 Y0.5555 I0.0 J0.002
G1 Y2.5029
G1 Y4.4491
G1 X1.5304 Y4.4624
G1 X1.5526 Y4.4762
G3 X1.5535 Y4.4779 I-0.0011 J0.0017
G1 Y4.505
G1 Y4.532
G3 X1.5527 Y4.5337 I-0.002 J0.0
G1 X1.528 Y4.551
G1 X1.5056 Y4.5666
G1 X1.528 Y4.5823
G1 X1.5527 Y4.5996
G3 X1.5535 Y4.6012 I-0.0011 J0.0016
G1 Y4.6283
G1 Y4.6553
G3 X1.5526 Y4.657 I-0.002 J0.0
G1 X1.5304 Y4.6709
G1 X1.5091 Y4.6842
G1 Y4.9082
G1 Y5.1313
G1 X1.8293
G1 X2.1495
G1 Y5.0033
G1 Y4.8781
G1 X2.1396 Y4.8881
G1 X2.1263 Y4.9014
G3 X2.1249 Y4.902 I-0.0014 J-0.0014
G1 X2.1015
G1 X2.0782
G3 X2.0768 Y4.9014 I0.0 J-0.002
G1 X2.0634 Y4.8881
G1 X2.0501 Y4.8747
G3 X2.0495 Y4.8733 I0.0014 J-0.0014
G1 Y4.85
G1 Y4.8266
G3 X2.0501 Y4.8252 I0.002 J0.0
G1 X2.0634 Y4.8119
G1 X2.0768 Y4.7986
G3 X2.0782 Y4.798 I0.0014 J0.0014
G1 X2.1015
G1 X2.1249
G3 X2.1263 Y4.7986 I0.0 J0.002
G1 X2.1396 Y4.8119
G1 X2.1495 Y4.8218
G1 Y4.6522
G1 Y4.4797
G1 X2.1315
G2 X2.1011 Y4.491 I0.0007 J0.0487
G1 X2.0893 Y4.5028
G3 X2.0877 Y4.5034 I-0.0014 J-0.0014
G1 X2.039 Y4.4999
G1 X1.9903 Y4.4964
G3 X1.9884 Y4.4944 I0.0001 J-0.002
G1 Y4.4611
G1 Y4.4277
G3 X1.9903 Y4.4258 I0.002 J0.0
G1 X2.039 Y4.4223
G1 X2.0877 Y4.4188
G3 X2.0893 Y4.4194 I0.0001 J0.002
G1 X2.101 Y4.4311
G2 X2.1316 Y4.4424 I0.0319 J-0.0393
G1 X2.1495
G1 Y3.9333
G1 Y3.4242
G1 X2.1315
G2 X2.1011 Y3.4355 I0.0007 J0.0487
G1 X2.0893 Y3.4473
G3 X2.0877 Y3.4478 I-0.0014 J-0.0014
G1 X2.039 Y3.4443
G1 X1.9903 Y3.4409
G3 X1.9884 Y3.4389 I0.0001 J-0.002
G1 Y3.4055
G1 Y3.3722
G3 X1.9903 Y3.3702 I0.002 J0.0
G1 X2.039 Y3.3667
G1 X2.0877 Y3.3632
G3 X2.0893 Y3.3638 I0.0001 J0.002
G1 X2.101 Y3.3755
G2 X2.1316 Y3.3869 I0.0319 J-0.0393
G1 X2.1495
G1 Y2.6111
G1 Y1.8353
G1 X2.1315
G2 X2.1011 Y1.8466 I0.0007 J0.0487
G1 X2.0893 Y1.8584
G3 X2.0877 Y1.8589 I-0.0014 J-0.0014
G1 X2.039 Y1.8555
G1 X1.9903 Y1.852
G3 X1.9884 Y1.85 I0.0001 J-0.002
G1 Y1.8166
G1 Y1.7833
G3 X1.9903 Y1.7813 I0.002 J0.0
G1 X2.039 Y1.7778
G1 X2.0877 Y1.7743
G3 X2.0893 Y1.7749 I0.0001 J0.002
G1 X2.101 Y1.7867
G2 X2.1316 Y1.798 I0.0319 J-0.0393
G1 X2.1495
G1 Y1.5833
G1 Y1.3666
G3 X2.1515 Y1.3646 I0.002 J0.0
G1 X2.3182
G1 X2.4829
G1 Y1.1295
G1 Y0.8932
G1 X2.4613 Y0.8737
G1 X2.4391 Y0.8536
G3 X2.4384 Y0.8521 I0.0013 J-0.0015
G1 Y0.8295
G1 Y0.807
G3 X2.439 Y0.8056 I0.002 J0.0
G1 X2.4631 Y0.7799
G1 X2.486 Y0.7555
G1 X2.4631 Y0.7312
G1 X2.439 Y0.7055
G3 X2.4384 Y0.7041 I0.0015 J-0.0014
G1 Y0.6805
G3 X2.4485 Y0.6496 I0.044 J-0.0028
G3 X2.449 Y0.6492 I0.0015 J0.0013
G1 X2.4574 Y0.644
G1 X2.4523 Y0.6172
G1 X2.4469 Y0.5891
G3 X2.4474 Y0.5875 I0.002 J-0.0004
G1 X2.4611 Y0.5709
G1 X2.4749 Y0.5542
G3 X2.4765 Y0.5535 I0.0015 J0.0013
G1 X2.5015
G1 X2.5266
G3 X2.5281 Y0.5542 I0.0 J0.002
G1 X2.5419 Y0.5709
G1 X2.5557 Y0.5875
G3 X2.5561 Y0.5891 I-0.0015 J0.0013
G1 X2.5507 Y0.6172
G1 X2.5456 Y0.644
G1 X2.5541 Y0.6492
G3 X2.5546 Y0.6496 I-0.0011 J0.0017
G3 X2.5646 Y0.6805 I-0.0352 J0.0286
G1 Y0.7041
G3 X2.5641 Y0.7055 I-0.002 J0.0
G1 X2.5399 Y0.7312
G1 X2.5171 Y0.7555
G1 X2.5399 Y0.7799
G1 X2.5641 Y0.8056
G3 X2.5646 Y0.807 I-0.0015 J0.0014
G1 Y0.8295
G1 Y0.8521
G3 X2.564 Y0.8536 I-0.002 J0.0
G1 X2.5418 Y0.8737
G1 X2.5202 Y0.8932
G1 Y1.1461
G1 Y1.4
G3 X2.5182 Y1.402 I-0.002 J0.0
G1 X2.3515
G1 X2.1869
G1 Y3.2833
G1 Y5.1666
G3 X2.1849 Y5.1686 I-0.002 J0.0
G1 X1.8293
G1 X1.4737
G3 X1.4717 Y5.1666 I0.0 J-0.002
G1 Y4.9173
G1 Y4.6691
G1 X1.4616 Y4.6628
G1 X1.4505 Y4.6559
G3 X1.4495 Y4.6542 I0.0011 J-0.0017
G1 Y4.6325
G3 Y4.6323 I0.002 J0.0
G3 X1.4636 Y4.5877 I0.1182 J0.0127
G3 Y4.5876 I0.0018 J0.001
G1 X1.4767 Y4.5666
G1 X1.4636 Y4.5456
G3 X1.4495 Y4.5009 I0.0759 J-0.0485
G1 Y4.5008
G1 Y4.4791
G3 X1.4505 Y4.4774 I0.002 J0.0
G1 X1.4616 Y4.4705
G1 X1.4717 Y4.4642
G1 Y2.5271
G1 Y0.5909
G1 X1.1126
G1 X0.7535
G1 Y2.4055
G1 Y4.2222
G3 X0.7515 Y4.2242 I-0.002 J0.0
G1 X0.7149
G1 X0.679
G1 X0.6678 Y4.2354
G1 X0.656 Y4.2473
G3 X0.6544 Y4.2478 I-0.0014 J-0.0014
G1 X0.6057 Y4.2443
G1 X0.5569 Y4.2409
G3 X0.5551 Y4.2389 I0.0001 J-0.002
G1 Y4.2055
G1 Y4.1722
G3 X0.5569 Y4.1702 I0.002 J0.0
G1 X0.6057 Y4.1667
G1 X0.6544 Y4.1632
G3 X0.656 Y4.1638 I0.0001 J0.002
G1 X0.6677 Y4.1755
G2 X0.6982 Y4.1869 I0.0319 J-0.0393
G1 X0.7162
G1 Y3.5666
G1 Y2.9464
G1 X0.6982
G2 X0.6677 Y2.9577 I0.0007 J0.0487
G1 X0.656 Y2.9695
G3 X0.6544 Y2.9701 I-0.0014 J-0.0014
G1 X0.6057 Y2.9666
G1 X0.5569 Y2.9631
G3 X0.5551 Y2.9611 I0.0001 J-0.002
G1 Y2.9277
G1 Y2.8944
G3 X0.5569 Y2.8924 I0.002 J0.0
G1 X0.6057 Y2.8889
G1 X0.6544 Y2.8854
G3 X0.656 Y2.886 I0.0001 J0.002
G1 X0.6677 Y2.8978
G2 X0.6982 Y2.9091 I0.0319 J-0.0393
G1 X0.7162
G1 Y2.3722
G1 Y1.8353
G1 X0.6982
G2 X0.6677 Y1.8466 I0.0007 J0.0487
G1 X0.656 Y1.8584
G3 X0.6544 Y1.8589 I-0.0014 J-0.0014
G1 X0.6057 Y1.8555
G1 X0.5569 Y1.852
G3 X0.5551 Y1.8502 I0.0001 J-0.002
G1 X0.5518 Y1.822
G1 X0.5485 Y1.7938
G3 X0.5491 Y1.7922 I0.002 J-0.0002
G1 X0.557 Y1.7843
G3 X0.5578 Y1.7838 I0.0014 J0.0014
G3 X0.6139 Y1.7757 I0.0483 J0.1375
G1 X0.6613
G3 X0.663 Y1.7767 I0.0 J0.002
G1 X0.6699 Y1.7878
G1 X0.6762 Y1.798
G1 X0.6966
G1 X0.7162
G1 Y1.1777
G1 Y0.5555
G3 X0.7182 Y0.5535 I0.002 J0.0
G1 X1.1126
G1 X1.3868
G0 Z0.125
G0 Y0.6757
G0 Z0.0754
G1 F20.0 Z-0.0021
G1 F40.0 X1.4182
G3 X1.4202 Y0.6777 I0.0 J0.002
G1 Y2.7271
G1 Y4.7753
G1 X1.4304 Y4.7816
G1 X1.4415 Y4.7885
G3 X1.4424 Y4.7902 I-0.0011 J0.0017
G1 Y4.8166
G1 Y4.8431
G3 X1.4415 Y4.8448 I-0.002 J0.0
G1 X1.4304 Y4.8517
G1 X1.4202 Y4.858
G1 Y4.8833
G1 Y4.9087
G1 X1.4304 Y4.9149
G1 X1.4415 Y4.9218
G3 X1.4424 Y4.9235 I-0.0011 J0.0017
G1 Y4.95
G1 Y4.9764
G3 X1.4415 Y4.9781 I-0.002 J0.0
G1 X1.4304 Y4.985
G1 X1.4202 Y4.9913
G1 Y5.1117
G1 Y5.2313
G1 X1.8293
G1 X2.2384
G1 Y3.6673
G1 Y2.1024
G1 X2.2282 Y2.0961
G1 X2.2171 Y2.0892
G3 X2.2162 Y2.0875 I0.0011 J-0.0017
G1 Y2.0611
G1 Y2.0346
G3 X2.2171 Y2.0329 I0.002 J0.0
G1 X2.2282 Y2.026
G1 X2.2384 Y2.0198
G1 Y1.7493
G1 Y1.4777
G3 X2.2404 Y1.4757 I0.002 J0.0
G1 X2.2731
G1 X2.3047
G1 X2.3109 Y1.4656
G1 X2.3178 Y1.4545
G3 X2.3195 Y1.4535 I0.0017 J0.0011
G1 X2.3682
G1 X2.4169
G3 X2.4186 Y1.4545 I0.0 J0.002
G1 X2.4254 Y1.4656
G1 X2.4317 Y1.4757
G1 X2.6355
G1 X2.8384
G1 Y1.1128
G1 Y0.7487
G1 X2.8168 Y0.7292
G1 X2.7946 Y0.7091
G3 X2.794 Y0.7076 I0.0013 J-0.0015
G1 Y0.6838
G3 X2.8064 Y0.6467 I0.0638 J0.0008
G3 X2.8066 Y0.6465 I0.0016 J0.0012
G1 X2.817 Y0.6361
G1 X2.779 Y0.6071
G1 X2.7392 Y0.5767
G3 X2.7384 Y0.5751 I0.0012 J-0.0016
G1 Y0.5509
G1 Y0.5266
G3 X2.739 Y0.5252 I0.002 J0.0
G1 X2.7523 Y0.5119
G1 X2.7657 Y0.4986
G3 X2.7671 Y0.498 I0.0014 J0.0014
G1 X2.7913
G1 X2.8155
G3 X2.817 Y0.4987 I0.0 J0.002
G1 X2.8308 Y0.5153
G1 X2.8446 Y0.5319
G3 X2.845 Y0.5336 I-0.0015 J0.0013
G1 X2.8396 Y0.5616
G1 X2.8345 Y0.5885
G1 X2.8765 Y0.6218
G1 X2.9194 Y0.6558
G3 X2.9202 Y0.6574 I-0.0012 J0.0016
G1 Y0.6825
G1 Y0.7076
G3 X2.9195 Y0.7091 I-0.002 J0.0
G1 X2.8973 Y0.7292
G1 X2.8757 Y0.7487
G1 Y1.1295
G1 Y1.5111
G3 X2.8737 Y1.5131 I-0.002 J0.0
G1 X2.6522
G1 X2.4317
G1 X2.4254 Y1.5232
G1 X2.4186 Y1.5344
G3 X2.4169 Y1.5353 I-0.0017 J-0.0011
G1 X2.3682
G1 X2.3195
G3 X2.3178 Y1.5344 I0.0 J-0.002
G1 X2.311 Y1.5234
G2 X2.2897 Y1.5131 I-0.0225 J0.0193
G1 X2.2757
G1 Y1.7584
G1 Y2.0046
G1 X2.297 Y2.0179
G1 X2.3192 Y2.0318
G3 X2.3202 Y2.0335 I-0.0011 J0.0017
G1 Y2.0611
G1 Y2.0887
G3 X2.3192 Y2.0904 I-0.002 J0.0
G1 X2.297 Y2.1042
G1 X2.2757 Y2.1175
G1 Y2.5915
G1 Y3.0646
G1 X2.2881
G2 X2.3131 Y3.0534 I-0.0045 J-0.0434
G1 X2.3249 Y3.0416
G3 X2.3264 Y3.041 I0.0014 J0.0014
G1 X2.3752 Y3.0445
G1 X2.4239 Y3.048
G3 X2.4257 Y3.05 I-0.0001 J0.002
G1 Y3.0833
G1 Y3.1166
G3 X2.4239 Y3.1186 I-0.002 J0.0
G1 X2.3752 Y3.1221
G1 X2.3264 Y3.1256
G3 X2.3249 Y3.125 I-0.0001 J-0.002
G1 X2.3131 Y3.1132
G2 X2.2881 Y3.102 I-0.0279 J0.0286
G1 X2.2757
G1 Y3.3611
G1 Y3.6202
G1 X2.3613
G1 X2.4479
G1 X2.4611 Y3.6042
G1 X2.4749 Y3.5876
G3 X2.4765 Y3.5869 I0.0015 J0.0013
G1 X2.5007
G1 X2.5249
G3 X2.5263 Y3.5874 I0.0 J0.002
G1 X2.5396 Y3.6008
G1 X2.5529 Y3.6141
G3 X2.5535 Y3.6155 I-0.0014 J0.0014
G1 Y3.6389
G1 Y3.6622
G3 X2.5529 Y3.6636 I-0.002 J0.0
G1 X2.5396 Y3.6769
G1 X2.5263 Y3.6903
G3 X2.5249 Y3.6909 I-0.0014 J-0.0014
G1 X2.5007
G1 X2.4765
G3 X2.4749 Y3.6901 I0.0 J-0.002
G1 X2.4611 Y3.6735
G1 X2.4479 Y3.6575
G1 X2.3613
G1 X2.2757
G1 Y3.8889
G1 Y4.1202
G1 X2.2881
G2 X2.3131 Y4.1089 I-0.0045 J-0.0434
G1 X2.3249 Y4.0971
G3 X2.3264 Y4.0966 I0.0014 J0.0014
G1 X2.3752 Y4.1
G1 X2.4239 Y4.1035
G3 X2.4257 Y4.1055 I-0.0001 J0.002
G1 Y4.1389
G1 Y4.1722
G3 X2.4239 Y4.1742 I-0.002 J0.0
G1 X2.3752 Y4.1777
G1 X2.3264 Y4.1812
G3 X2.3249 Y4.1806 I-0.0001 J-0.002
G1 X2.3131 Y4.1688
G2 X2.2881 Y4.1575 I-0.0279 J0.0286
G1 X2.2757
G1 Y4.4189
G1 Y4.6774
G1 X2.2857 Y4.6674
G1 X2.299 Y4.6541
G3 X2.3004 Y4.6535 I0.0014 J0.0014
G1 X2.3237
G1 X2.3471
G3 X2.3485 Y4.6541 I0.0 J0.002
G1 X2.3618 Y4.6674
G1 X2.3752 Y4.6808
G3 X2.3757 Y4.6822 I-0.0014 J0.0014
G1 Y4.7055
G1 Y4.7289
G3 X2.3752 Y4.7303 I-0.002 J0.0
G1 X2.3618 Y4.7436
G1 X2.3485 Y4.7569
G3 X2.3471 Y4.7575 I-0.0014 J-0.0014
G1 X2.3237
G1 X2.3004
G3 X2.299 Y4.7569 I0.0 J-0.002
G1 X2.2857 Y4.7436
G1 X2.2757 Y4.7337
G1 Y4.9977
G1 Y5.2666
G3 X2.2737 Y5.2686 I-0.002 J0.0
G1 X1.8293
G1 X1.3849
G3 X1.3829 Y5.2666 I0.0 J-0.002
G1 Y5.136
G1 Y5.0064
G1 X1.3616 Y4.9931
G1 X1.3394 Y4.9793
G3 X1.3384 Y4.9776 I0.0011 J-0.0017
G1 Y4.95
G1 Y4.9224
G3 X1.3394 Y4.9207 I0.002 J0.0
G1 X1.3616 Y4.9068
G3 X1.3617 Y4.9067 I0.0011 J0.0017
G2 X1.3827 Y4.8834 I-0.0197 J-0.0388
G2 X1.3616 Y4.8598 I-0.0465 J0.0205
G1 X1.3394 Y4.8459
G3 X1.3384 Y4.8442 I0.0011 J-0.0017
G1 Y4.8166
G1 Y4.789
G3 X1.3394 Y4.7874 I0.002 J0.0
G1 X1.3616 Y4.7735
G1 X1.3829 Y4.7602
G1 Y2.7362
G1 Y0.7131
G1 X1.1126
G1 X0.8424
G1 Y1.0944
G1 Y1.4757
G1 X0.8548
G2 X0.8797 Y1.4645 I-0.0045 J-0.0433
G1 X0.8915 Y1.4527
G3 X0.8931 Y1.4521 I0.0014 J0.0014
G1 X0.9418 Y1.4556
G1 X0.9906 Y1.4591
G3 X0.9924 Y1.4611 I-0.0001 J0.002
G1 Y1.4944
G1 Y1.5277
G3 X0.9906 Y1.5297 I-0.002 J0.0
G1 X0.9418 Y1.5332
G1 X0.8931 Y1.5367
G3 X0.8915 Y1.5361 I-0.0001 J-0.002
G1 X0.8797 Y1.5243
G2 X0.8548 Y1.5131 I-0.0279 J0.0286
G1 X0.8424
G1 Y1.7744
G1 Y2.0329
G1 X0.8523 Y2.023
G1 X0.8657 Y2.0097
G3 X0.8671 Y2.0091 I0.0014 J0.0014
G1 X0.8904
G1 X0.9137
G3 X0.9152 Y2.0097 I0.0 J0.002
G1 X0.9285 Y2.023
G1 X0.9418 Y2.0363
G3 X0.9424 Y2.0377 I-0.0014 J0.0014
G1 Y2.0611
G1 Y2.0844
G3 X0.9418 Y2.0858 I-0.002 J0.0
G1 X0.9285 Y2.0992
G1 X0.9152 Y2.1125
G3 X0.9137 Y2.1131 I-0.0014 J-0.0014
G1 X0.8904
G1 X0.8671
G3 X0.8657 Y2.1125 I0.0 J-0.002
G1 X0.8523 Y2.0992
G1 X0.8424 Y2.0892
G1 Y2.3922
G1 Y2.698
G1 X0.8548
G2 X0.8797 Y2.6867 I-0.0045 J-0.0433
G1 X0.8915 Y2.6749
G3 X0.8931 Y2.6743 I0.0014 J0.0014
G1 X0.9418 Y2.6778
G1 X0.9906 Y2.6813
G3 X0.9924 Y2.6833 I-0.0001 J0.002
G1 Y2.7166
G1 Y2.75
G3 X0.9906 Y2.752 I-0.002 J0.0
G1 X0.9418 Y2.7555
G1 X0.8931 Y2.7589
G3 X0.8915 Y2.7584 I-0.0001 J-0.002
G1 X0.8797 Y2.7466
G2 X0.8548 Y2.7353 I-0.0279 J0.0286
G1 X0.8424
G1 Y3.0611
G1 Y3.3869
G1 X0.8613
G1 X0.8812
G1 X0.8944 Y3.3709
G1 X0.9083 Y3.3542
G3 X0.9098 Y3.3535 I0.0015 J0.0013
G1 X0.934
G1 X0.9582
G3 X0.9596 Y3.3541 I0.0 J0.002
G1 X0.9729 Y3.3674
G1 X0.9863 Y3.3808
G3 X0.9869 Y3.3822 I-0.0014 J0.0014
G1 Y3.4055
G1 Y3.4289
G3 X0.9863 Y3.4303 I-0.002 J0.0
G1 X0.9729 Y3.4436
G1 X0.9596 Y3.4569
G3 X0.9582 Y3.4575 I-0.0014 J-0.0014
G1 X0.934
G1 X0.9098
G3 X0.9083 Y3.4568 I0.0 J-0.002
G1 X0.8944 Y3.4401
G1 X0.8812 Y3.4242
G1 X0.8613
G1 X0.8424
G1 Y3.6444
G1 Y3.8646
G1 X0.8548
G2 X0.8797 Y3.8534 I-0.0045 J-0.0433
G1 X0.8915 Y3.8416
G3 X0.8931 Y3.841 I0.0014 J0.0014
G1 X0.9418 Y3.8445
G1 X0.9906 Y3.848
G3 X0.9924 Y3.85 I-0.0001 J0.002
G1 Y3.8833
G1 Y3.9166
G3 X0.9906 Y3.9186 I-0.002 J0.0
G1 X0.9418 Y3.9221
G1 X0.8931 Y3.9256
G3 X0.8915 Y3.925 I-0.0001 J-0.002
G1 X0.8797 Y3.9132
G1 X0.8685 Y3.902
G1 X0.8382
G1 X0.8071
G3 X0.8051 Y3.9 I0.0 J-0.002
G1 Y2.2889
G1 Y0.6777
G3 X0.8071 Y0.6757 I0.002 J0.0
G1 X1.1126
G1 X1.3868
G0 Z0.125
G0 X1.3301 Y0.7982
G0 Z0.0754
G1 F20.0 Z-0.0021
G3 F40.0 X1.3313 Y0.8 I-0.0008 J0.0018
G1 Y2.7222
G1 Y4.6444
G3 X1.3293 Y4.6464 I-0.002 J0.0
G1 X1.3015
G1 X1.2757
G1 Y4.9833
G1 Y5.3202
G1 X1.8182
G1 X2.3606
G1 Y5.1128
G1 Y4.9034
G3 X2.3613 Y4.9019 I0.002 J0.0
G1 X2.3848 Y4.8808
G2 X2.4174 Y4.8351 I-0.0922 J-0.1004
G1 X2.427 Y4.81
G3 X2.4282 Y4.8088 I0.0019 J0.0007
G1 X2.4538 Y4.7991
G2 X2.4935 Y4.772 I-0.0484 J-0.1137
G1 X2.5083 Y4.7542
G3 X2.5098 Y4.7535 I0.0015 J0.0013
G1 X2.7492
G1 X2.9887
G3 X2.99 Y4.754 I0.0 J0.002
G1 X3.0104 Y4.7725
G2 X3.0552 Y4.803 I0.1134 J-0.1186
G1 X3.0553
G1 X3.0802 Y4.8154
G3 X3.0813 Y4.8169 I-0.0009 J0.0018
G1 X3.0849 Y4.8422
G1 X3.0885 Y4.8676
G3 X3.0881 Y4.8691 I-0.002 J0.0003
G1 X3.0748 Y4.8852
G1 X3.0615 Y4.9012
G3 X3.0599 Y4.902 I-0.0015 J-0.0013
G1 X3.0357
G1 X3.0115
G3 X3.0101 Y4.9014 I0.0 J-0.002
G1 X2.9968 Y4.8881
G1 X2.9834 Y4.8747
G3 X2.9829 Y4.8733 I0.0014 J-0.0014
G1 Y4.8444
G1 Y4.8164
G1 X2.9701 Y4.8036
G1 X2.9574 Y4.7909
G1 X2.7515
G1 X2.5457
G1 X2.5329 Y4.8036
G1 X2.5202 Y4.8164
G1 Y4.8444
G1 Y4.8733
G3 X2.5196 Y4.8747 I-0.002 J0.0
G1 X2.5063 Y4.8881
G1 X2.4929 Y4.9014
G3 X2.4915 Y4.902 I-0.0014 J-0.0014
G1 X2.4621
G1 X2.4336
G1 X2.4158 Y4.9216
G1 X2.398 Y4.9414
G1 Y5.1481
G1 Y5.3555
G3 X2.396 Y5.3575 I-0.002 J0.0
G1 X1.8182
G1 X1.2404
G3 X1.2384 Y5.3555 I0.0 J-0.002
G1 Y4.9833
G1 Y4.6111
G3 X1.2404 Y4.6091 I0.002 J0.0
G1 X1.2682
G1 X1.294
G1 Y2.7222
G1 Y0.8353
G1 X1.1473
G1 X0.9996
G1 X0.9864 Y0.8512
G1 X0.9726 Y0.8679
G3 X0.971 Y0.8686 I-0.0015 J-0.0013
G1 X0.9468
G1 X0.9226
G3 X0.9212 Y0.8681 I0.0 J-0.002
G1 X0.9079 Y0.8547
G1 X0.8946 Y0.8414
G3 X0.894 Y0.84 I0.0014 J-0.0014
G1 Y0.8166
G1 Y0.7933
G3 X0.8946 Y0.7919 I0.002 J0.0
G1 X0.9079 Y0.7786
G1 X0.9212 Y0.7652
G3 X0.9226 Y0.7646 I0.0014 J0.0014
G1 X0.9468
G1 X0.971
G3 X0.9726 Y0.7654 I0.0 J0.002
G1 X0.9864 Y0.782
G1 X0.9996 Y0.798
G1 X1.164
G1 X1.3293
G3 X1.3301 Y0.7982 I0.0 J0.002
G0 Z0.125
G0 X1.2416 Y0.9206
G0 Z0.0754
G1 F20.0 Z-0.0021
G3 F40.0 X1.2424 Y0.9222 I-0.0012 J0.0016
G1 Y2.2444
G1 Y3.5666
G3 X1.2404 Y3.5686 I-0.002 J0.0
G1 X1.114
G1 X0.9885
G1 X0.9753 Y3.5846
G1 X0.9615 Y3.6012
G3 X0.9599 Y3.602 I-0.0015 J-0.0013
G1 X0.9357
G1 X0.9115
G3 X0.9101 Y3.6014 I0.0 J-0.002
G1 X0.8968 Y3.5881
G1 X0.8834 Y3.5747
G3 X0.8829 Y3.5733 I0.0014 J-0.0014
G1 Y3.55
G1 Y3.5266
G3 X0.8834 Y3.5252 I0.002 J0.0
G1 X0.8968 Y3.5119
G1 X0.9101 Y3.4986
G3 X0.9115 Y3.498 I0.0014 J0.0014
G1 X0.9357
G1 X0.9599
G3 X0.9615 Y3.4987 I0.0 J0.002
G1 X0.9753 Y3.5154
G1 X0.9885 Y3.5313
G1 X1.0973
G1 X1.2051
G1 Y2.2444
G1 Y0.9575
G1 X1.0849
G1 X0.9646
G1 Y1.0319
G1 Y1.1074
G1 X0.9806 Y1.1207
G1 X0.9972 Y1.1345
G3 X0.998 Y1.136 I-0.0013 J0.0015
G1 Y1.1602
G1 Y1.1844
G3 X0.9974 Y1.1858 I-0.002 J0.0
G1 X0.984 Y1.1992
G1 X0.9707 Y1.2125
G3 X0.9693 Y1.2131 I-0.0014 J-0.0014
G1 X0.946
G1 X0.9226
G3 X0.9212 Y1.2125 I0.0 J-0.002
G1 X0.9079 Y1.1992
G1 X0.8946 Y1.1858
G3 X0.894 Y1.1844 I0.0014 J-0.0014
G1 Y1.1602
G1 Y1.136
G3 X0.8947 Y1.1345 I0.002 J0.0
G1 X0.9114 Y1.1207
G1 X0.9273 Y1.1074
G1 Y1.0153
G1 Y0.9222
G3 X0.9293 Y0.9202 I0.002 J0.0
G1 X1.0849
G1 X1.2404
G3 X1.2416 Y0.9206 I0.0 J0.002
G0 Z0.125
G0 X1.1277 Y1.0236
G0 Z0.0754
G1 F20.0 Z-0.0021
G1 F40.0 X1.1419 Y1.0393
G3 X1.1424 Y1.0406 I-0.0015 J0.0013
G1 Y1.0625
G1 Y1.0626
G3 X1.1285 Y1.0991 I-0.0588 J-0.0014
G3 X1.1284 Y1.0993 I-0.0015 J-0.0013
G1 X1.1166 Y1.111
G1 X1.1392 Y1.1268
G1 X1.1638 Y1.144
G3 X1.1646 Y1.1457 I-0.0011 J0.0016
G1 Y1.1706
G1 Y1.1955
G3 X1.164 Y1.1969 I-0.002 J0.0
G1 X1.1507 Y1.2103
G1 X1.1374 Y1.2236
G3 X1.136 Y1.2242 I-0.0014 J-0.0014
G1 X1.1118
G1 X1.0876
G3 X1.086 Y1.2235 I0.0 J-0.002
G1 X1.0723 Y1.2069
G1 X1.0585 Y1.1903
G3 X1.0581 Y1.1886 I0.0015 J-0.0013
G1 X1.0638 Y1.1587
G1 X1.0693 Y1.13
G1 X1.0436 Y1.1098
G1 X1.017 Y1.0888
G3 X1.0162 Y1.0872 I0.0012 J-0.0016
G1 Y1.062
G1 Y1.0367
G3 X1.0168 Y1.0353 I0.002 J0.0
G1 X1.0372 Y1.0169
G1 X1.0575 Y0.9985
G3 X1.0588 Y0.998 I0.0013 J0.0015
G1 X1.0812
G1 X1.1036
G3 X1.1051 Y0.9986 I0.0 J0.002
G1 X1.1235 Y1.0189
G1 X1.1277 Y1.0236
G0 Z0.125
G0 Y1.4535
G0 Z0.0754
G1 F20.0 Z-0.0021
G1 F40.0 X1.136
G3 X1.1374 Y1.4541 I0.0 J0.002
G1 X1.1507 Y1.4674
G1 X1.164 Y1.4808
G3 X1.1646 Y1.4822 I-0.0014 J0.0014
G1 Y1.5055
G1 Y1.5289
G3 X1.164 Y1.5303 I-0.002 J0.0
G1 X1.1507 Y1.5436
G1 X1.1388 Y1.5555
G1 X1.1507 Y1.5674
G1 X1.164 Y1.5808
G3 X1.1646 Y1.5822 I-0.0014 J0.0014
G1 Y1.6055
G1 Y1.6289
G3 X1.164 Y1.6303 I-0.002 J0.0
G1 X1.1507 Y1.6436
G1 X1.1374 Y1.6569
G3 X1.136 Y1.6575 I-0.0014 J-0.0014
G1 X1.1118
G1 X1.0876
G3 X1.086 Y1.6568 I0.0 J-0.002
G1 X1.0722 Y1.6401
G1 X1.059 Y1.6242
G1 X1.0302
G1 X1.0012
G1 X0.99 Y1.6354
G1 X0.9782 Y1.6473
G3 X0.9766 Y1.6478 I-0.0014 J-0.0014
G1 X0.9279 Y1.6443
G1 X0.8792 Y1.6409
G3 X0.8773 Y1.6391 I0.0001 J-0.002
G1 X0.874 Y1.6109
G1 X0.8707 Y1.5827
G3 X0.8713 Y1.5811 I0.002 J-0.0002
G1 X0.8792 Y1.5731
G3 X0.88 Y1.5727 I0.0014 J0.0014
G3 X0.9361 Y1.5646 I0.0484 J0.1378
G1 X0.9835
G3 X0.9852 Y1.5656 I0.0 J0.002
G1 X0.9921 Y1.5767
G1 X0.9984 Y1.5869
G1 X1.0286
G1 X1.059
G1 X1.0726 Y1.5704
G1 X1.0857 Y1.5547
G1 X1.0741 Y1.5431
G1 X1.0612 Y1.5303
G3 X1.0606 Y1.5289 I0.0014 J-0.0014
G1 Y1.5055
G1 Y1.4822
G3 X1.0612 Y1.4808 I0.002 J0.0
G1 X1.0746 Y1.4674
G1 X1.0879 Y1.4541
G3 X1.0893 Y1.4535 I0.0014 J0.0014
G1 X1.1126
G1 X1.1277
G0 Z0.125
G0 X1.1017 Y1.6896
G0 Z0.0754
G1 F20.0 Z-0.0021
G3 F40.0 X1.1028 Y1.6901 I-0.0002 J0.002
G1 X1.1167 Y1.7012
G1 X1.1305 Y1.7122
G3 X1.1313 Y1.7138 I-0.0012 J0.0016
G1 Y1.8
G1 Y1.8852
G1 X1.1472 Y1.8984
G1 X1.1639 Y1.9123
G3 X1.1646 Y1.9138 I-0.0013 J0.0015
G1 Y1.9389
G1 Y1.9639
G3 X1.1639 Y1.9655 I-0.002 J0.0
G1 X1.1472 Y1.9793
G1 X1.1313 Y1.9925
G1 Y2.2111
G1 Y2.4296
G1 X1.1472 Y2.4429
G1 X1.1639 Y2.4567
G3 X1.1646 Y2.4582 I-0.0013 J0.0015
G1 Y2.4824
G1 Y2.5066
G3 X1.164 Y2.5081 I-0.002 J0.0
G1 X1.1507 Y2.5214
G1 X1.1374 Y2.5347
G3 X1.136 Y2.5353 I-0.0014 J-0.0014
G1 X1.1126
G1 X1.0893
G3 X1.0879 Y2.5347 I0.0 J-0.002
G1 X1.0746 Y2.5214
G1 X1.0612 Y2.5081
G3 X1.0606 Y2.5066 I0.0014 J-0.0014
G1 Y2.4824
G1 Y2.4582
G3 X1.0614 Y2.4567 I0.002 J0.0
G1 X1.078 Y2.4429
G1 X1.094 Y2.4296
G1 Y2.2111
G1 Y1.9925
G1 X1.078 Y1.9793
G1 X1.0614 Y1.9655
G3 X1.0606 Y1.9639 I0.0013 J-0.0015
G1 Y1.9389
G1 Y1.9138
G3 X1.0614 Y1.9123 I0.002 J0.0
G1 X1.0785 Y1.8981
G1 X1.0948 Y1.8845
G1 X1.0916 Y1.8067
G1 X1.0885 Y1.7296
G1 X1.0522 Y1.7261
G1 X1.0148 Y1.7225
G1 X0.9915 Y1.735
G1 X0.9676 Y1.7478
G3 X0.9665 Y1.748 I-0.0009 J-0.0018
G1 X0.9228 Y1.7444
G1 X0.8791 Y1.7409
G3 X0.8773 Y1.7391 I0.0002 J-0.002
G1 X0.8739 Y1.7152
G1 X0.8705 Y1.6912
G3 X0.8714 Y1.6893 I0.002 J-0.0003
G1 X0.8834 Y1.6818
G1 X0.8954 Y1.6744
G3 X0.8966 Y1.6741 I0.0011 J0.0017
G1 X0.9992 Y1.6819
G1 X1.1017 Y1.6896
G0 Z0.125
G0 X0.9919 Y1.782
G0 Z0.0754
G1 F20.0 Z-0.0021
G3 F40.0 X0.9924 Y1.7831 I-0.0015 J0.0013
G1 X0.996 Y1.8145
G1 X0.9996 Y1.8458
G3 X0.9981 Y1.848 I-0.002 J0.0002
G1 X0.9751 Y1.854
G1 X0.9535 Y1.8597
G1 Y1.8902
G1 Y1.9202
G1 X0.9849
G1 X1.0182
G3 X1.0202 Y1.9222 I0.0 J0.002
G1 Y2.0931
G1 Y2.263
G1 X1.0361 Y2.2762
G1 X1.0528 Y2.29
G3 X1.0535 Y2.2916 I-0.0013 J0.0015
G1 Y2.3158
G1 Y2.34
G3 X1.0529 Y2.3414 I-0.002 J0.0
G1 X1.0396 Y2.3547
G1 X1.0263 Y2.3681
G3 X1.0249 Y2.3686 I-0.0014 J-0.0014
G1 X1.0015
G1 X0.9782
G3 X0.9768 Y2.3681 I0.0 J-0.002
G1 X0.9634 Y2.3547
G1 X0.9501 Y2.3414
G3 X0.9495 Y2.34 I0.0014 J-0.0014
G1 Y2.3158
G1 Y2.2916
G3 X0.9502 Y2.29 I0.002 J0.0
G1 X0.9669 Y2.2762
G1 X0.9829 Y2.263
G1 Y2.1097
G1 Y1.9575
G1 X0.9515
G1 X0.9182
G3 X0.9162 Y1.9555 I0.0 J-0.002
G1 Y1.9068
G1 Y1.8597
G1 X0.8955 Y1.8542
G1 X0.8732 Y1.8484
G3 X0.8717 Y1.8465 I0.0005 J-0.0019
G1 Y1.8173
G1 Y1.7882
G3 X0.873 Y1.7863 I0.002 J0.0
G1 X0.8885 Y1.7803
G3 X0.8889 Y1.7802 I0.0007 J0.0019
G3 X0.9478 Y1.7778 I0.0384 J0.2146
G1 X0.9906 Y1.7813
G3 X0.9919 Y1.782 I-0.0002 J0.002
G0 Z0.125
G0 X0.6702 Y1.7391
G0 Z0.0754
G1 F20.0 Z-0.0021
G3 F40.0 X0.6681 Y1.7409 I-0.002 J-0.0003
G1 X0.5042 Y1.7366
G1 X0.3424 Y1.7325
G1 Y1.9638
G1 Y2.1963
G1 X0.3584 Y2.2095
G1 X0.375 Y2.2234
G3 X0.3757 Y2.2249 I-0.0013 J0.0015
G1 Y2.2491
G1 Y2.2733
G3 X0.3752 Y2.2747 I-0.002 J0.0
G1 X0.3618 Y2.2881
G1 X0.3485 Y2.3014
G3 X0.3471 Y2.302 I-0.0014 J-0.0014
G1 X0.3237
G1 X0.3004
G3 X0.299 Y2.3014 I0.0 J-0.002
G1 X0.2857 Y2.2881
G1 X0.2723 Y2.2747
G3 X0.2717 Y2.2733 I0.0014 J-0.0014
G1 Y2.2491
G1 Y2.2249
G3 X0.2725 Y2.2234 I0.002 J0.0
G1 X0.2891 Y2.2095
G1 X0.3051 Y2.1963
G1 Y1.9486
G1 Y1.7
G3 X0.3071 Y1.698 I0.002 J0.0
G1 X0.4271
G1 X0.5463
G1 X0.5575 Y1.6867
G1 X0.5693 Y1.6749
G3 X0.5709 Y1.6743 I0.0014 J0.0014
G1 X0.6196 Y1.6778
G1 X0.6683 Y1.6813
G3 X0.6702 Y1.6833 I-0.0001 J0.002
G1 Y1.7111
G1 Y1.7389
G3 Y1.7391 I-0.002 J0.0
G0 Z0.125
G0 X0.6632 Y1.6412
G0 Z0.0754
G1 F20.0 Z-0.0021
G1 F40.0 X0.6196 Y1.6443
G1 X0.5709 Y1.6478
G3 X0.5693 Y1.6473 I-0.0001 J-0.002
G1 X0.5575 Y1.6354
G1 X0.5463 Y1.6242
G1 X0.416
G1 X0.2849
G3 X0.2829 Y1.6222 I0.0 J-0.002
G1 Y1.2448
G1 Y0.8674
G3 X0.2848 Y0.8654 I0.002 J0.0
G1 X0.4097 Y0.8622
G1 X0.5335 Y0.8591
G1 X0.5559 Y0.8157
G1 X0.5789 Y0.7713
G3 X0.5804 Y0.7702 I0.0018 J0.0009
G1 X0.6053 Y0.7666
G1 X0.6302 Y0.763
G3 X0.6318 Y0.7634 I0.0003 J0.002
G1 X0.6479 Y0.7767
G1 X0.6639 Y0.79
G3 X0.6646 Y0.7916 I-0.0013 J0.0015
G1 Y0.8158
G1 Y0.84
G3 X0.664 Y0.8414 I-0.002 J0.0
G1 X0.6507 Y0.8547
G1 X0.6374 Y0.8681
G3 X0.636 Y0.8686 I-0.0014 J-0.0014
G1 X0.6066
G1 X0.5781
G1 X0.5603 Y0.8883
G2 X0.5424 Y0.9245 I0.0505 J0.0474
G2 X0.5583 Y0.954 I0.0433 J-0.0044
G1 X0.5584
G1 X0.575 Y0.9678
G3 X0.5757 Y0.9694 I-0.0013 J0.0015
G1 Y0.9936
G1 Y1.0177
G3 X0.5752 Y1.0192 I-0.002 J0.0
G1 X0.5618 Y1.0325
G1 X0.5485 Y1.0458
G3 X0.5471 Y1.0464 I-0.0014 J-0.0014
G1 X0.5229
G1 X0.4987
G3 X0.4972 Y1.0457 I0.0 J-0.002
G1 X0.4833 Y1.029
G1 X0.4701 Y1.0131
G1 X0.4502
G1 X0.4313
G1 Y1.0262
G2 X0.4472 Y1.054 I0.0448 J-0.0073
G1 X0.4639 Y1.0678
G3 X0.4646 Y1.0694 I-0.0013 J0.0015
G1 Y1.0936
G1 Y1.1177
G3 X0.464 Y1.1192 I-0.002 J0.0
G1 X0.4507 Y1.1325
G1 X0.4374 Y1.1458
G3 X0.436 Y1.1464 I-0.0014 J-0.0014
G1 X0.4126
G1 X0.3893
G3 X0.3879 Y1.1458 I0.0 J-0.002
G1 X0.3746 Y1.1325
G1 X0.3612 Y1.1192
G3 X0.3606 Y1.1177 I0.0014 J-0.0014
G1 Y1.0936
G1 Y1.0694
G3 X0.3614 Y1.0678 I0.002 J0.0
G1 X0.378 Y1.054
G1 X0.394 Y1.0408
G1 Y1.0097
G1 Y0.9777
G3 X0.396 Y0.9757 I0.002 J0.0
G1 X0.4331
G1 X0.4694
G1 X0.4872 Y0.9561
G2 X0.5051 Y0.9184 I-0.0501 J-0.0468
G1 Y0.902
G1 X0.4126
G1 X0.3202
G1 Y1.2444
G1 Y1.5869
G1 X0.4326
G1 X0.5463
G1 X0.5575 Y1.5756
G1 X0.5693 Y1.5638
G3 X0.5709 Y1.5632 I0.0014 J0.0014
G1 X0.6196 Y1.5667
G1 X0.6683 Y1.5702
G3 X0.6702 Y1.5722 I-0.0001 J0.002
G1 Y1.6055
G1 Y1.6389
G3 X0.6683 Y1.6409 I-0.002 J0.0
G1 X0.6632 Y1.6412
G0 Z0.125
G0 Y1.5353
G0 Z0.0754
G1 F20.0 Z-0.0021
G1 F40.0 X0.6126
G1 X0.5515
G3 X0.5495 Y1.5333 I0.0 J-0.002
G1 Y1.5222
G1 Y1.5131
G1 X0.5293
G1 X0.5071
G3 X0.5051 Y1.5111 I0.0 J-0.002
G1 Y1.4461
G1 Y1.3821
G1 X0.4854 Y1.3643
G1 X0.4657 Y1.3464
G1 X0.4461
G1 X0.4304
G1 X0.4457 Y1.3634
G1 X0.4641 Y1.3837
G3 X0.4646 Y1.3851 I-0.0015 J0.0013
G1 Y1.407
G3 X0.4508 Y1.4435 I-0.0556 J-0.0002
G3 X0.4507 Y1.4436 I-0.0015 J-0.0013
G1 X0.4388 Y1.4555
G1 X0.4507 Y1.4674
G1 X0.464 Y1.4808
G3 X0.4646 Y1.4822 I-0.0014 J0.0014
G1 Y1.5055
G1 Y1.5289
G3 X0.464 Y1.5303 I-0.002 J0.0
G1 X0.4507 Y1.5436
G1 X0.4374 Y1.5569
G3 X0.436 Y1.5575 I-0.0014 J-0.0014
G1 X0.4126
G1 X0.3893
G3 X0.3879 Y1.5569 I0.0 J-0.002
G1 X0.3746 Y1.5436
G1 X0.3612 Y1.5303
G3 X0.3606 Y1.5289 I0.0014 J-0.0014
G1 Y1.5055
G1 Y1.4822
G3 X0.3612 Y1.4808 I0.002 J0.0
G1 X0.3746 Y1.4674
G1 X0.3865 Y1.4555
G1 X0.3746 Y1.4436
G1 X0.3612 Y1.4303
G3 X0.3606 Y1.4289 I0.0014 J-0.0014
G1 Y1.4047
G1 Y1.3805
G3 X0.3614 Y1.3789 I0.002 J0.0
G1 X0.378 Y1.3651
G1 X0.394 Y1.3519
G1 Y1.3222
G1 Y1.2925
G1 X0.378 Y1.2793
G1 X0.3614 Y1.2655
G3 X0.3606 Y1.2639 I0.0013 J-0.0015
G1 Y1.2397
G1 Y1.2155
G3 X0.3612 Y1.2141 I0.002 J0.0
G1 X0.3746 Y1.2008
G1 X0.3879 Y1.1874
G3 X0.3893 Y1.1869 I0.0014 J0.0014
G1 X0.4126
G1 X0.436
G3 X0.4374 Y1.1874 I0.0 J0.002
G1 X0.4507 Y1.2008
G1 X0.464 Y1.2141
G3 X0.4646 Y1.2155 I-0.0014 J0.0014
G1 Y1.2397
G1 Y1.2639
G3 X0.4639 Y1.2655 I-0.002 J0.0
G1 X0.4472 Y1.2793
G3 X0.4471 Y1.2794 I-0.0013 J-0.0015
G2 X0.4313 Y1.3016 I0.0244 J0.0342
G1 Y1.3091
G1 X0.4498
G1 X0.4694
G1 X0.4872 Y1.2894
G1 X0.5051 Y1.2697
G1 Y1.2074
G1 Y1.1444
G3 X0.5071 Y1.1424 I0.002 J0.0
G1 X0.5335
G1 X0.559
G1 X0.5722 Y1.1265
G1 X0.586 Y1.1098
G3 X0.5876 Y1.1091 I0.0015 J0.0013
G1 X0.6118
G1 X0.636
G3 X0.6374 Y1.1097 I0.0 J0.002
G1 X0.6507 Y1.123
G1 X0.664 Y1.1363
G3 X0.6646 Y1.1377 I-0.0014 J0.0014
G1 Y1.1611
G1 Y1.1844
G3 X0.664 Y1.1858 I-0.002 J0.0
G1 X0.6507 Y1.1992
G1 X0.6374 Y1.2125
G3 X0.636 Y1.2131 I-0.0014 J-0.0014
G1 X0.6118
G1 X0.5876
G3 X0.586 Y1.2124 I0.0 J-0.002
G1 X0.5722 Y1.1957
G3 X0.5721 Y1.1956 I0.0015 J-0.0013
G2 X0.5499 Y1.1797 I-0.0342 J0.0244
G1 X0.5424
G1 Y1.2264
G1 Y1.2741
G1 X0.5584 Y1.2873
G1 X0.575 Y1.3012
G3 X0.5757 Y1.3027 I-0.0013 J0.0015
G1 Y1.3277
G1 Y1.3528
G3 X0.575 Y1.3543 I-0.002 J0.0
G1 X0.5584 Y1.3682
G1 X0.5424 Y1.3814
G1 X0.5433 Y1.4319
G1 X0.544 Y1.4734
G1 X0.5459 Y1.4687
G1 X0.5515 Y1.4548
G3 X0.5534 Y1.4535 I0.0019 J0.0007
G1 X0.6136
G1 X0.6737
G3 X0.6757 Y1.4555 I0.0 J0.002
G1 Y1.4944
G1 Y1.5333
G3 X0.6737 Y1.5353 I-0.002 J0.0
G1 X0.6632
G0 Z0.125
G0 X0.4373 Y1.7874
G0 Z0.0754
G1 F20.0 Z-0.0021
G3 F40.0 X0.4374 I-0.0013 J0.0015
G1 X0.4507 Y1.8008
G1 X0.464 Y1.8141
G3 X0.4646 Y1.8155 I-0.0014 J0.0014
G1 Y1.8397
G1 Y1.8639
G3 X0.4639 Y1.8655 I-0.002 J0.0
G1 X0.4472 Y1.8793
G2 X0.4313 Y1.907 I0.0277 J0.0343
G1 Y1.9202
G1 X0.5515
G1 X0.6737
G3 X0.6757 Y1.9222 I0.0 J0.002
G1 Y2.0777
G1 Y2.2333
G3 X0.6737 Y2.2353 I-0.002 J0.0
G1 X0.6182
G1 X0.5646
G1 Y2.3611
G1 Y2.4889
G3 X0.5626 Y2.4909 I-0.002 J0.0
G1 X0.4349
G1 X0.3091
G1 Y2.7
G1 Y2.9091
G1 X0.3571
G1 X0.4051
G1 Y2.8959
G2 X0.3891 Y2.8682 I-0.0449 J0.0073
G1 X0.3725 Y2.8543
G3 X0.3717 Y2.8528 I0.0013 J-0.0015
G1 Y2.8286
G1 Y2.8044
G3 X0.3723 Y2.803 I0.002 J0.0
G1 X0.3857 Y2.7897
G1 X0.399 Y2.7763
G3 X0.4004 Y2.7757 I0.0014 J0.0014
G1 X0.4246
G1 X0.4488
G3 X0.4503 Y2.7765 I0.0 J0.002
G1 X0.4642 Y2.7931
G1 X0.4774 Y2.8091
G1 X0.5118
G1 X0.5463
G1 X0.5575 Y2.7978
G1 X0.5693 Y2.786
G3 X0.5709 Y2.7854 I0.0014 J0.0014
G1 X0.6196 Y2.7889
G1 X0.6683 Y2.7924
G3 X0.6702 Y2.7944 I-0.0001 J0.002
G1 Y2.8222
G1 Y2.85
G3 X0.6681 Y2.852 I-0.002 J0.0
G1 X0.5749 Y2.8489
G1 X0.4824 Y2.8459
G1 X0.4624 Y2.864
G1 X0.4424 Y2.8821
G1 Y2.9128
G1 Y2.9444
G3 X0.4404 Y2.9464 I-0.002 J0.0
G1 X0.3571
G1 X0.2737
G3 X0.2717 Y2.9444 I0.0 J-0.002
G1 Y2.7
G1 Y2.4555
G3 X0.2737 Y2.4535 I0.002 J0.0
G1 X0.4015
G1 X0.5273
G1 Y2.3277
G1 Y2.2
G3 X0.5293 Y2.198 I0.002 J0.0
G1 X0.5849
G1 X0.6384
G1 Y2.0777
G1 Y1.9575
G1 X0.5182
G1 X0.396
G3 X0.394 Y1.9555 I0.0 J-0.002
G1 Y1.9236
G1 Y1.8925
G1 X0.378 Y1.8793
G1 X0.3614 Y1.8655
G3 X0.3606 Y1.8639 I0.0013 J-0.0015
G1 Y1.8397
G1 Y1.8155
G3 X0.3612 Y1.8141 I0.002 J0.0
G1 X0.3746 Y1.8008
G1 X0.3879 Y1.7874
G3 X0.3893 Y1.7869 I0.0014 J0.0014
G1 X0.4126
G1 X0.436
G3 X0.4373 Y1.7874 I0.0 J0.002
G0 Z0.125
G0 X0.5312 Y2.0092
G0 Z0.0754
G1 F20.0 Z-0.0021
G3 F40.0 X0.532 Y2.0091 I0.0008 J0.0018
G1 X0.5562
G1 X0.5804
G3 X0.5818 Y2.0097 I0.0 J0.002
G1 X0.5952 Y2.023
G1 X0.6085 Y2.0363
G3 X0.6091 Y2.0377 I-0.0014 J0.0014
G1 Y2.0611
G1 Y2.0844
G3 X0.6085 Y2.0858 I-0.002 J0.0
G1 X0.5952 Y2.0992
G1 X0.5818 Y2.1125
G3 X0.5804 Y2.1131 I-0.0014 J-0.0014
G1 X0.5562
G1 X0.532
G3 X0.5305 Y2.1124 I0.0 J-0.002
G1 X0.5167 Y2.0957
G1 X0.5034 Y2.0797
G1 X0.4779
G1 X0.4535
G1 Y2.1931
G1 Y2.3074
G1 X0.4695 Y2.3207
G1 X0.4861 Y2.3345
G3 X0.4869 Y2.336 I-0.0013 J0.0015
G1 Y2.3602
G1 Y2.3844
G3 X0.4863 Y2.3858 I-0.002 J0.0
G1 X0.4729 Y2.3992
G1 X0.4596 Y2.4125
G3 X0.4582 Y2.4131 I-0.0014 J-0.0014
G1 X0.4349
G1 X0.4115
G3 X0.4101 Y2.4125 I0.0 J-0.002
G1 X0.3968 Y2.3992
G1 X0.3834 Y2.3858
G3 X0.3829 Y2.3844 I0.0014 J-0.0014
G1 Y2.3602
G1 Y2.336
G3 X0.3836 Y2.3345 I0.002 J0.0
G1 X0.4002 Y2.3207
G1 X0.4162 Y2.3074
G1 Y2.1764
G1 Y2.0444
G3 X0.4182 Y2.0424 I0.002 J0.0
G1 X0.4613
G1 X0.5034
G1 X0.5167 Y2.0265
G1 X0.5305 Y2.0098
G3 X0.5312 Y2.0092 I0.0015 J0.0013
G0 Z0.125
G0 X0.5515 Y2.5646
G0 Z0.0754
G1 F20.0 Z-0.0021
G1 F40.0 X0.6126
G1 X0.6737
G3 X0.6757 Y2.5666 I0.0 J0.002
G1 Y2.6055
G1 Y2.6444
G3 X0.6737 Y2.6464 I-0.002 J0.0
G1 X0.6126
G1 X0.5515
G3 X0.5495 Y2.6444 I0.0 J-0.002
G1 Y2.6055
G1 Y2.5666
G3 X0.5515 Y2.5646 I0.002 J0.0
G0 Z0.125
G0 X0.5704 Y2.6744
G0 Z0.0754
G1 F20.0 Z-0.0021
G3 F40.0 X0.5709 Y2.6743 I0.0003 J0.002
G1 X0.6196 Y2.6778
G1 X0.6683 Y2.6813
G3 X0.6702 Y2.6833 I-0.0001 J0.002
G1 Y2.7166
G1 Y2.75
G3 X0.6683 Y2.752 I-0.002 J0.0
G1 X0.6196 Y2.7555
G1 X0.5709 Y2.7589
G3 X0.5693 Y2.7584 I-0.0001 J-0.002
G1 X0.5575 Y2.7465
G1 X0.5463 Y2.7353
G1 X0.4737
G1 X0.4004
G3 X0.399 Y2.7347 I0.0 J-0.002
G1 X0.3857 Y2.7214
G1 X0.3723 Y2.7081
G3 X0.3717 Y2.7066 I0.0014 J-0.0014
G1 Y2.6833
G1 Y2.66
G3 X0.3723 Y2.6586 I0.002 J0.0
G1 X0.3857 Y2.6452
G1 X0.399 Y2.6319
G3 X0.4004 Y2.6313 I0.0014 J0.0014
G1 X0.4237
G1 X0.4471
G3 X0.4485 Y2.6319 I0.0 J0.002
G1 X0.4618 Y2.6452
G1 X0.4619 Y2.6453
G3 X0.4757 Y2.6799 I-0.038 J0.0353
G1 Y2.68
G1 Y2.698
G1 X0.5104
G1 X0.5463
G1 X0.5575 Y2.6867
G1 X0.5693 Y2.6749
G3 X0.5704 Y2.6744 I0.0014 J0.0014
G0 Z0.125
G0 X0.8773 Y2.639
G0 Z0.0754
G1 F20.0 Z-0.0021
G1 F40.0 X0.8738 Y2.6085
G1 X0.8703 Y2.5779
G3 X0.8715 Y2.5758 I0.002 J-0.0002
G1 X0.8878 Y2.5695
G3 X0.8881 Y2.5694 I0.0007 J0.0019
G3 X0.9478 Y2.5667 I0.038 J0.1746
G1 X0.9906 Y2.5702
G3 X0.9924 Y2.5722 I-0.0002 J0.002
G1 Y2.6055
G1 Y2.6389
G3 X0.9904 Y2.6409 I-0.002 J0.0
G1 X0.9349
G1 X0.8793
G3 X0.8773 Y2.6391 I0.0 J-0.002
G1 Y2.639
G0 Z0.125
G0 X0.8975 Y2.7844
G0 Z0.0754
G1 F20.0 Z-0.0021
G3 F40.0 X0.898 I0.0003 J0.002
G1 X0.9784 Y2.792
G1 X1.0578 Y2.7994
G1 X1.0716 Y2.7828
G1 X1.086 Y2.7654
G3 X1.0876 Y2.7646 I0.0015 J0.0013
G1 X1.1118
G1 X1.136
G3 X1.1374 Y2.7652 I0.0 J0.002
G1 X1.1507 Y2.7786
G1 X1.164 Y2.7919
G3 X1.1646 Y2.7933 I-0.0014 J0.0014
G1 Y2.8166
G1 Y2.84
G3 X1.164 Y2.8414 I-0.002 J0.0
G1 X1.1507 Y2.8547
G1 X1.1374 Y2.8681
G3 X1.136 Y2.8686 I-0.0014 J-0.0014
G1 X1.1118
G1 X1.0876
G3 X1.086 Y2.8679 I0.0 J-0.002
G1 X1.0722 Y2.8512
G1 X1.059 Y2.8353
G1 X1.0302
G1 X1.0012
G1 X0.99 Y2.8465
G1 X0.9782 Y2.8584
G3 X0.9766 Y2.8589 I-0.0014 J-0.0014
G1 X0.9279 Y2.8555
G1 X0.8792 Y2.852
G3 X0.8773 Y2.8503 I0.0001 J-0.002
G1 X0.8739 Y2.8263
G1 X0.8705 Y2.8023
G3 X0.8714 Y2.8004 I0.002 J-0.0003
G1 X0.8841 Y2.7925
G1 X0.8967 Y2.7847
G3 X0.8975 Y2.7844 I0.0011 J0.0017
G0 Z0.125
G0 X0.9072 Y2.8889
G0 Z0.0754
G1 F20.0 Z-0.0021
G3 F40.0 X0.9478 I0.0201 J0.2171
G1 X0.9906 Y2.8924
G3 X0.9924 Y2.8942 I-0.0002 J0.002
G1 X0.996 Y2.9256
G1 X0.9996 Y2.957
G3 X0.9981 Y2.9591 I-0.002 J0.0002
G1 X0.9751 Y2.9651
G1 X0.9535 Y2.9708
G1 Y2.9944
G1 Y3.0185
G1 X0.9695 Y3.0318
G1 X0.9861 Y3.0456
G3 X0.9869 Y3.0471 I-0.0013 J0.0015
G1 Y3.0713
G1 Y3.0955
G3 X0.9863 Y3.0969 I-0.002 J0.0
G1 X0.9729 Y3.1103
G1 X0.9596 Y3.1236
G3 X0.9582 Y3.1242 I-0.0014 J-0.0014
G1 X0.9349
G1 X0.9115
G3 X0.9101 Y3.1236 I0.0 J-0.002
G1 X0.8968 Y3.1103
G1 X0.8834 Y3.0969
G3 X0.8829 Y3.0955 I0.0014 J-0.0014
G1 Y3.0713
G1 Y3.0471
G3 X0.8836 Y3.0456 I0.002 J0.0
G1 X0.9002 Y3.0318
G1 X0.9162 Y3.0185
G1 Y2.9944
G1 Y2.9708
G1 X0.8955 Y2.9654
G1 X0.8732 Y2.9595
G3 X0.8717 Y2.9576 I0.0005 J-0.0019
G1 Y2.9284
G1 Y2.8993
G3 X0.873 Y2.8974 I0.002 J0.0
G1 X0.8885 Y2.8915
G3 X0.8889 Y2.8914 I0.0007 J0.0019
G3 X0.9072 Y2.8889 I0.0384 J0.2146
G0 Z0.125
G0 X1.069 Y3.1982
G0 Z0.0754
G1 F20.0 Z-0.0021
G3 F40.0 X1.0699 Y3.198 I0.0009 J0.0018
G1 X1.0923
G1 X1.1147
G3 X1.1162 Y3.1986 I0.0 J0.002
G1 X1.1346 Y3.2189
G1 X1.153 Y3.2393
G3 X1.1535 Y3.2406 I-0.0015 J0.0013
G1 Y3.263
G1 Y3.2854
G3 X1.1529 Y3.2869 I-0.002 J0.0
G1 X1.1306 Y3.307
G2 X1.1092 Y3.3393 I0.0496 J0.0563
G2 X1.125 Y3.3651 I0.0466 J-0.0109
G1 X1.1417 Y3.3789
G3 X1.1424 Y3.3805 I-0.0013 J0.0015
G1 Y3.4047
G1 Y3.4289
G3 X1.1418 Y3.4303 I-0.002 J0.0
G1 X1.1285 Y3.4436
G1 X1.1152 Y3.4569
G3 X1.1137 Y3.4575 I-0.0014 J-0.0014
G1 X1.0904
G1 X1.0671
G3 X1.0657 Y3.4569 I0.0 J-0.002
G1 X1.0523 Y3.4436
G1 X1.039 Y3.4303
G3 X1.0384 Y3.4289 I0.0014 J-0.0014
G1 Y3.4047
G1 Y3.3805
G3 X1.0391 Y3.3789 I0.002 J0.0
G1 X1.0558 Y3.3651
G1 X1.0559 Y3.365
G2 X1.0717 Y3.3393 I-0.0247 J-0.0329
G2 X1.0503 Y3.3071 I-0.0595 J0.0163
G3 X1.0502 Y3.307 I0.0012 J-0.0016
G1 X1.028 Y3.2869
G3 X1.0273 Y3.2854 I0.0013 J-0.0015
G1 Y3.2611
G1 Y3.2367
G3 X1.028 Y3.2353 I0.002 J0.0
G1 X1.0483 Y3.2169
G1 X1.0686 Y3.1985
G3 X1.069 Y3.1982 I0.0013 J0.0015
G0 Z0.125
G0 X0.9604 Y3.6425
G0 Z0.0754
G1 F20.0 Z-0.0021
G3 F40.0 X0.9615 Y3.6431 I-0.0005 J0.0019
G1 X0.9753 Y3.6598
G1 X0.9885 Y3.6757
G1 X1.114
G1 X1.2404
G3 X1.2424 Y3.6777 I0.0 J0.002
G1 Y4.0
G1 Y4.3222
G3 X1.2404 Y4.3242 I-0.002 J0.0
G1 X1.1918
G1 X1.1441
G1 X1.1308 Y4.3401
G1 X1.117 Y4.3568
G3 X1.1155 Y4.3575 I-0.0015 J-0.0013
G1 X1.0913
G1 X1.0671
G3 X1.0657 Y4.3569 I0.0 J-0.002
G1 X1.0523 Y4.3436
G1 X1.039 Y4.3303
G3 X1.0384 Y4.3289 I0.0014 J-0.0014
G1 Y4.3055
G1 Y4.2822
G3 X1.039 Y4.2808 I0.002 J0.0
G1 X1.0523 Y4.2674
G1 X1.0657 Y4.2541
G3 X1.0671 Y4.2535 I0.0014 J0.0014
G1 X1.0913
G1 X1.1155
G3 X1.117 Y4.2542 I0.0 J0.002
G1 X1.1308 Y4.2709
G1 X1.1441 Y4.2869
G1 X1.1751
G1 X1.2051
G1 Y4.2
G1 Y4.1131
G1 X1.1037
G1 X1.0012
G1 X0.99 Y4.1243
G1 X0.9782 Y4.1361
G3 X0.9766 Y4.1367 I-0.0014 J-0.0014
G1 X0.9279 Y4.1332
G1 X0.8792 Y4.1297
G3 X0.8773 Y4.128 I0.0001 J-0.002
G1 X0.8741 Y4.1054
G3 X0.8785 Y4.074 I0.0469 J-0.0094
G3 X0.8789 Y4.0735 I0.0018 J0.0009
G1 X0.8864 Y4.066
G3 X0.8879 Y4.0654 I0.0014 J0.0014
G1 X1.0475 Y4.0723
G1 X1.2051 Y4.0791
G1 Y3.8961
G1 Y3.7131
G1 X1.0973
G1 X0.9885
G1 X0.9753 Y3.729
G1 X0.9615 Y3.7457
G3 X0.9599 Y3.7464 I-0.0015 J-0.0013
G1 X0.9357
G1 X0.9115
G3 X0.9101 Y3.7458 I0.0 J-0.002
G1 X0.8968 Y3.7325
G1 X0.8834 Y3.7192
G3 X0.8829 Y3.7177 I0.0014 J-0.0014
G1 Y3.6944
G1 Y3.6711
G3 X0.8834 Y3.6697 I0.002 J0.0
G1 X0.8968 Y3.6563
G1 X0.9101 Y3.643
G3 X0.9115 Y3.6424 I0.0014 J0.0014
G1 X0.9357
G1 X0.9599
G3 X0.9604 Y3.6425 I0.0 J0.002
G0 Z0.125
G0 X1.0658 Y3.7762
G0 Z0.0754
G1 F20.0 Z-0.0021
G3 F40.0 X1.0671 Y3.7757 I0.0012 J0.0016
G1 X1.0904
G1 X1.1137
G3 X1.1152 Y3.7763 I0.0 J0.002
G1 X1.1285 Y3.7897
G1 X1.1418 Y3.803
G3 X1.1424 Y3.8044 I-0.0014 J0.0014
G1 Y3.8277
G1 Y3.8511
G3 X1.1418 Y3.8525 I-0.002 J0.0
G1 X1.1285 Y3.8658
G1 X1.1166 Y3.8777
G1 X1.1285 Y3.8897
G1 X1.1418 Y3.903
G3 X1.1424 Y3.9044 I-0.0014 J0.0014
G1 Y3.9286
G1 Y3.9528
G3 X1.1417 Y3.9543 I-0.002 J0.0
G1 X1.125 Y3.9682
G2 X1.1091 Y3.9959 I0.0277 J0.0344
G1 Y4.0111
G3 X1.1071 Y4.0131 I-0.002 J0.0
G1 X1.0537
G1 X1.0012
G1 X0.99 Y4.0243
G1 X0.9782 Y4.0361
G3 X0.9766 Y4.0367 I-0.0014 J-0.0014
G1 X0.9279 Y4.0332
G1 X0.8792 Y4.0297
G3 X0.8773 Y4.028 I0.0001 J-0.002
G1 X0.874 Y3.9998
G1 X0.8707 Y3.9716
G3 X0.8713 Y3.9699 I0.002 J-0.0002
G1 X0.8792 Y3.962
G3 X0.88 Y3.9616 I0.0014 J0.0014
G3 X0.9361 Y3.9535 I0.0484 J0.1378
G1 X0.9835
G3 X0.9852 Y3.9545 I0.0 J0.002
G1 X0.9921 Y3.9656
G1 X0.9984 Y3.9757
G1 X1.0322
G1 X1.0623
G1 X1.0523 Y3.9658
G1 X1.039 Y3.9525
G3 X1.0384 Y3.9511 I0.0014 J-0.0014
G1 Y3.9277
G1 Y3.9044
G3 X1.039 Y3.903 I0.002 J0.0
G1 X1.0523 Y3.8897
G1 X1.0643 Y3.8777
G1 X1.0523 Y3.8658
G1 X1.039 Y3.8525
G3 X1.0384 Y3.8511 I0.0014 J-0.0014
G1 Y3.8277
G1 Y3.8044
G3 X1.039 Y3.803 I0.002 J0.0
G1 X1.0523 Y3.7897
G1 X1.0657 Y3.7763
G3 X1.0658 Y3.7762 I0.0014 J0.0014
G0 Z0.125
G0 X0.6757 Y3.8441
G0 Z0.0754
G1 F20.0 Z-0.0021
G3 F40.0 Y3.8444 I-0.002 J0.0003
G1 Y3.8833
G1 Y3.9222
G3 X0.6737 Y3.9242 I-0.002 J0.0
G1 X0.6126
G1 X0.5515
G3 X0.5495 Y3.9222 I0.0 J-0.002
G1 Y3.9111
G1 Y3.902
G1 X0.5307
G1 X0.5107
G1 X0.4975 Y3.9179
G1 X0.4837 Y3.9346
G3 X0.4821 Y3.9353 I-0.0015 J-0.0013
G1 X0.4579
G1 X0.4337
G3 X0.4323 Y3.9347 I0.0 J-0.002
G1 X0.419 Y3.9214
G1 X0.4057 Y3.9081
G3 X0.4051 Y3.9066 I0.0014 J-0.0014
G1 Y3.8824
G1 Y3.8582
G3 X0.4058 Y3.8567 I0.002 J0.0
G1 X0.4229 Y3.8425
G1 X0.4384 Y3.8297
G1 X0.4284 Y3.8196
G3 X0.4282 Y3.8194 I0.0014 J-0.0014
G3 X0.4162 Y3.7833 I0.0453 J-0.0351
G1 Y3.76
G3 X0.4168 Y3.7586 I0.002 J0.0
G1 X0.4301 Y3.7452
G1 X0.4434 Y3.7319
G3 X0.4449 Y3.7313 I0.0014 J0.0014
G1 X0.4682
G1 X0.4915
G3 X0.4929 Y3.7319 I0.0 J0.002
G1 X0.5063 Y3.7452
G1 X0.5196 Y3.7586
G3 X0.5202 Y3.76 I-0.0014 J0.0014
G1 Y3.7842
G1 Y3.8084
G3 X0.5195 Y3.8099 I-0.002 J0.0
G1 X0.5027 Y3.8238
G1 X0.4874 Y3.8365
G1 X0.4987 Y3.8502
G1 X0.5107 Y3.8646
G1 X0.5307
G1 X0.5495
G1 Y3.8555
G1 Y3.8444
G3 X0.5515 Y3.8424 I0.002 J0.0
G1 X0.5682
G1 X0.5829
G1 Y3.7958
G1 Y3.7481
G1 X0.5669 Y3.7348
G1 X0.5502 Y3.721
G3 X0.5495 Y3.7195 I0.0013 J-0.0015
G1 Y3.6953
G1 Y3.6711
G3 X0.5501 Y3.6697 I0.002 J0.0
G1 X0.5634 Y3.6563
G1 X0.5768 Y3.643
G3 X0.5782 Y3.6424 I0.0014 J0.0014
G1 X0.6015
G1 X0.6249
G3 X0.6263 Y3.643 I0.0 J0.002
G1 X0.6396 Y3.6563
G1 X0.6529 Y3.6697
G3 X0.6535 Y3.6711 I-0.0014 J0.0014
G1 Y3.6953
G1 Y3.7195
G3 X0.6528 Y3.721 I-0.002 J0.0
G1 X0.6361 Y3.7348
G1 X0.6202 Y3.7481
G1 Y3.7958
G1 Y3.8424
G1 X0.646
G1 X0.6737
G3 X0.6757 Y3.8441 I0.0 J0.002
G0 Z0.125
G0 X0.6675 Y3.959
G0 Z0.0754
G1 F20.0 Z-0.0021
G1 F40.0 X0.6683 Y3.9591
G3 X0.6702 Y3.9611 I-0.0001 J0.002
G1 Y3.9944
G1 Y4.0277
G3 X0.6683 Y4.0297 I-0.002 J0.0
G1 X0.6196 Y4.0332
G1 X0.5709 Y4.0367
G3 X0.5693 Y4.0361 I-0.0001 J-0.002
G1 X0.5575 Y4.0243
G1 X0.5463 Y4.0131
G1 X0.4673
G1 X0.3885
G1 X0.3753 Y4.029
G1 X0.3615 Y4.0457
G3 X0.3599 Y4.0464 I-0.0015 J-0.0013
G1 X0.3357
G1 X0.3115
G3 X0.3101 Y4.0458 I0.0 J-0.002
G1 X0.2968 Y4.0325
G1 X0.2834 Y4.0192
G3 X0.2829 Y4.0177 I0.0014 J-0.0014
G1 Y3.9936
G1 Y3.9694
G3 X0.2836 Y3.9678 I0.002 J0.0
G1 X0.3002 Y3.954
G1 X0.3162 Y3.9408
G1 Y3.8444
G1 Y3.7481
G1 X0.3002 Y3.7348
G1 X0.2836 Y3.721
G3 X0.2829 Y3.7195 I0.0013 J-0.0015
G1 Y3.6953
G1 Y3.6711
G3 X0.2834 Y3.6697 I0.002 J0.0
G1 X0.2968 Y3.6563
G1 X0.3101 Y3.643
G3 X0.3115 Y3.6424 I0.0014 J0.0014
G1 X0.3349
G1 X0.3582
G3 X0.3596 Y3.643 I0.0 J0.002
G1 X0.3729 Y3.6563
G1 X0.3863 Y3.6697
G3 X0.3869 Y3.6711 I-0.0014 J0.0014
G1 Y3.6953
G1 Y3.7195
G3 X0.3861 Y3.721 I-0.002 J0.0
G1 X0.3695 Y3.7348
G1 X0.3535 Y3.7481
G1 Y3.8441
G1 Y3.9401
G1 X0.3732 Y3.9579
G1 X0.3929 Y3.9757
G1 X0.4696
G1 X0.5463
G1 X0.5575 Y3.9645
G1 X0.5693 Y3.9527
G3 X0.5709 Y3.9521 I0.0014 J0.0014
G1 X0.6196 Y3.9556
G1 X0.6675 Y3.959
G0 Z0.125
G0 X0.6596 Y4.0696
G0 Z0.0754
G1 F20.0 Z-0.0021
G1 F40.0 X0.6683 Y4.0702
G3 X0.6702 Y4.0722 I-0.0001 J0.002
G1 Y4.1
G1 Y4.1277
G3 X0.6682 Y4.1297 I-0.002 J0.0
G1 X0.5883
G1 X0.5093
G1 X0.4958 Y4.1431
G1 X0.4818 Y4.1569
G3 X0.4804 Y4.1575 I-0.0014 J-0.0014
G1 X0.4562
G1 X0.432
G3 X0.4305 Y4.1568 I0.0 J-0.002
G1 X0.4167 Y4.1401
G1 X0.4034 Y4.1242
G1 X0.3002
G1 X0.196
G3 X0.194 Y4.1222 I0.0 J-0.002
G1 Y3.8277
G1 Y3.5333
G3 X0.196 Y3.5313 I0.002 J0.0
G1 X0.372
G1 X0.5472
G1 X0.565 Y3.5116
G1 X0.5829 Y3.4919
G1 Y3.4574
G1 Y3.4242
G1 X0.5529
G1 X0.5219
G1 X0.5086 Y3.4401
G1 X0.4948 Y3.4568
G3 X0.4932 Y3.4575 I-0.0015 J-0.0013
G1 X0.4691
G1 X0.4449
G3 X0.4434 Y3.4569 I0.0 J-0.002
G1 X0.4301 Y3.4436
G1 X0.4168 Y3.4303
G3 X0.4162 Y3.4289 I0.0014 J-0.0014
G1 Y3.4055
G1 Y3.3822
G3 X0.4168 Y3.3808 I0.002 J0.0
G1 X0.4301 Y3.3674
G1 X0.4434 Y3.3541
G3 X0.4449 Y3.3535 I0.0014 J0.0014
G1 X0.4691
G1 X0.4932
G3 X0.4948 Y3.3542 I0.0 J0.002
G1 X0.5086 Y3.3709
G1 X0.5219 Y3.3869
G1 X0.5696
G1 X0.6182
G3 X0.6202 Y3.3889 I0.0 J0.002
G1 Y3.4431
G1 Y3.4963
G1 X0.6361 Y3.5095
G1 X0.6528 Y3.5234
G3 X0.6535 Y3.5249 I-0.0013 J0.0015
G1 Y3.5491
G1 Y3.5733
G3 X0.6529 Y3.5747 I-0.002 J0.0
G1 X0.6396 Y3.5881
G1 X0.6263 Y3.6014
G3 X0.6249 Y3.602 I-0.0014 J-0.0014
G1 X0.6007
G1 X0.5765
G3 X0.5749 Y3.6012 I0.0 J-0.002
G1 X0.5611 Y3.5846
G1 X0.5479 Y3.5686
G1 X0.3891
G1 X0.2313
G1 Y3.8277
G1 Y4.0869
G1 X0.3168
G1 X0.4034
G1 X0.4167 Y4.0709
G1 X0.4305 Y4.0542
G3 X0.432 Y4.0535 I0.0015 J0.0013
G1 X0.4571
G1 X0.4821
G3 X0.4837 Y4.0542 I0.0 J0.002
G1 X0.4975 Y4.0709
G1 X0.5107 Y4.0869
G1 X0.5284
G2 X0.5575 Y4.0756 I-0.0012 J-0.0463
G1 X0.5693 Y4.0638
G3 X0.5709 Y4.0632 I0.0014 J0.0014
G1 X0.6196 Y4.0667
G1 X0.6596 Y4.0696
G0 Z0.125
G0 X0.7031 Y4.4926
G0 Z0.0754
G1 F20.0 Z-0.0021
G3 F40.0 X0.7047 Y4.4932 I0.0002 J0.002
G1 X0.723 Y4.5114
G1 X0.7412 Y4.5297
G3 X0.7411 Y4.5326 I-0.0014 J0.0014
G1 X0.7274 Y4.544
G1 X0.7137 Y4.5554
G3 X0.712 Y4.5558 I-0.0013 J-0.0015
G1 X0.6733 Y4.5479
G1 X0.6346 Y4.5399
G3 X0.633 Y4.5384 I0.0004 J-0.002
G1 X0.6294 Y4.5194
G1 X0.6257 Y4.5003
G3 X0.6277 Y4.498 I0.002 J-0.0004
G1 X0.6396
G3 X0.6535 Y4.511 I0.0001 J0.0138
G3 Y4.5111 I-0.002 J0.0001
G1 Y4.5202
G1 X0.6728
G1 X0.6927
G1 X0.6968 Y4.5078
G1 X0.7014 Y4.494
G3 X0.7031 Y4.4926 I0.0019 J0.0006
G0 Z0.125
G0 Y4.5646
G0 Z0.0754
G1 F20.0 Z-0.0021
G1 F40.0 X0.7182
G3 X0.7202 Y4.5666 I0.0 J0.002
G1 Y4.577
G1 Y4.5874
G3 X0.7184 Y4.5894 I-0.002 J0.0
G1 X0.6887 Y4.5929
G1 X0.6603 Y4.5963
G1 X0.6561 Y4.6089
G1 X0.6524 Y4.6202
G1 X0.6839
G1 X0.7182
G3 X0.7202 Y4.6222 I0.0 J0.002
G1 Y4.634
G1 Y4.6458
G3 X0.718 Y4.6477 I-0.002 J0.0
G1 X0.6764 Y4.6443
G1 X0.6347 Y4.6409
G3 X0.6329 Y4.639 I0.0002 J-0.002
G1 X0.631 Y4.6028
G1 X0.6292 Y4.5667
G3 X0.6312 Y4.5646 I0.002 J-0.0001
G1 X0.6747
G1 X0.7031
G0 Z0.125
G0 X0.6808 Y4.6665
G0 Z0.0754
G1 F20.0 Z-0.0021
G1 F40.0 X0.6809 Y4.6666
G3 X0.7125 Y4.6896 I-0.0143 J0.0528
G1 X0.7241 Y4.7082
G3 X0.724 Y4.7105 I-0.0017 J0.0011
G1 X0.7094 Y4.7281
G1 X0.6948 Y4.7457
G3 X0.6932 Y4.7464 I-0.0015 J-0.0013
G1 X0.6746
G3 X0.6744 I0.0 J-0.002
G3 X0.6413 Y4.7326 I0.0054 J-0.0595
G3 Y4.7325 I0.0013 J-0.0015
G3 X0.6273 Y4.7049 I0.0321 J-0.0335
G3 Y4.7043 I0.002 J-0.0003
G3 X0.6442 Y4.6766 I0.045 J0.0084
G1 X0.6603 Y4.6633
G3 X0.662 Y4.6628 I0.0013 J0.0015
G1 X0.6807 Y4.6665
G1 X0.6808
G0 Z0.125
G0 X0.6744 Y4.6857
G0 Z0.0754
G1 F20.0 Z-0.0021
G2 F40.0 X0.6727 Y4.6858 I-0.0006 J0.0019
G1 X0.6606 Y4.6933
G1 X0.6485 Y4.7008
G2 X0.6482 Y4.7039 I0.0011 J0.0017
G1 X0.6603 Y4.716
G1 X0.6723 Y4.7281
G2 X0.6752 I0.0014 J-0.0014
G1 X0.6872 Y4.716
G1 X0.6993 Y4.7039
G2 X0.699 Y4.7008 I-0.0014 J-0.0014
G1 X0.6869 Y4.6933
G1 X0.6748 Y4.6858
G2 X0.6744 Y4.6857 I-0.0011 J0.0017
G0 Z0.125
G0 X0.6959 Y4.758
G0 Z0.0754
G1 F20.0 Z-0.0021
G1 F40.0 X0.7103 Y4.7537
G3 X0.7123 Y4.7542 I0.0006 J0.0019
G1 X0.7184 Y4.7603
G1 X0.7245 Y4.7664
G3 X0.7242 Y4.7695 I-0.0014 J0.0014
G1 X0.7078 Y4.7799
G3 X0.7077 Y4.78 I-0.0011 J-0.0017
G3 X0.6684 Y4.7917 I-0.0498 J-0.0952
G1 X0.6683
G1 X0.6579 Y4.7922
G1 X0.6826 Y4.7994
G1 X0.7187 Y4.8098
G3 X0.7202 Y4.8117 I-0.0006 J0.0019
G1 Y4.8227
G1 Y4.8337
G3 X0.7177 Y4.8357 I-0.002 J0.0
G1 X0.6872 Y4.8274
G2 X0.6264 Y4.8189 I-0.1146 J0.5982
G1 X0.596 Y4.8186
G3 X0.594 Y4.8166 I0.0 J-0.002
G1 Y4.8032
G1 Y4.7897
G3 X0.5954 Y4.7878 I0.002 J0.0
G1 X0.6528 Y4.7707
G1 X0.6959 Y4.758
G0 Z0.125
G0 X0.6677 Y4.865
G0 Z0.0754
G1 F20.0 Z-0.0021
G2 F40.0 X0.6624 Y4.8646 I-0.0034 J0.013
G2 X0.6495 Y4.8784 I0.0009 J0.0138
G1 Y4.8902
G2 X0.6526 Y4.8919 I0.002 J0.0
G1 X0.6636 Y4.885
G2 X0.6756 Y4.8723 I-0.0121 J-0.0233
G2 X0.6754 Y4.8704 I-0.0018 J-0.0008
G2 X0.6677 Y4.865 I-0.0111 J0.0075
G0 Z0.125
G0 X0.6859 Y4.8797
G0 Z0.0754
G1 F20.0 Z-0.0021
G1 F40.0 X0.694 Y4.8698
G1 Y4.8899
G1 Y4.9155
G2 X0.6974 Y4.9169 I0.002 J0.0
G1 X0.7095 Y4.9048
G1 X0.7217 Y4.8926
G2 X0.7222 Y4.8908 I-0.0014 J-0.0014
G1 X0.7183 Y4.8704
G1 X0.7144 Y4.8499
G2 X0.7127 Y4.8483 I-0.002 J0.0004
G1 X0.6728 Y4.8418
G1 X0.6329 Y4.8354
G2 X0.6306 Y4.8373 I-0.0003 J0.002
G1 X0.6297 Y4.8684
G1 Y4.8685
G1 Y4.8684
G1 Y4.8685
G1 X0.6288 Y4.8995
G2 X0.6297 Y4.9013 I0.002 J0.0001
G1 X0.6419 Y4.9088
G1 X0.6541 Y4.9163
G2 X0.6567 Y4.9159 I0.0011 J-0.0017
G1 X0.6771 Y4.8907
G1 X0.6859 Y4.8797
G0 Z0.125
G0 X0.6526 Y4.9316
G0 Z0.0754
G1 F20.0 Z-0.0021
G3 F40.0 X0.6535 Y4.9333 I-0.0011 J0.0017
G1 Y4.9611
G1 Y4.9869
G1 X0.7015
G1 X0.7515
G3 X0.7535 Y4.9889 I0.0 J0.002
G1 Y5.0
G1 Y5.0111
G3 X0.7515 Y5.0131 I-0.002 J0.0
G1 X0.6904
G1 X0.6293
G3 X0.6273 Y5.0111 I0.0 J-0.002
G1 Y4.9722
G1 Y4.9333
G3 X0.6293 Y4.9313 I0.002 J0.0
G1 X0.6404
G1 X0.6515
G3 X0.6526 Y4.9316 I0.0 J0.002
G0 Z0.125
G0 X0.5535
G0 Z0.0754
G1 F20.0 Z-0.0021
G1 F40.0 Y4.932
G3 X0.552 Y4.9339 I-0.002 J0.0
G1 X0.5047 Y4.9445
G1 X0.4724 Y4.9518
G1 X0.4905 Y4.9525
G3 X0.541 Y4.9644 I-0.0011 J0.1177
G3 X0.5412 Y4.9645 I-0.0009 J0.0018
G1 X0.5575 Y4.9748
G3 X0.5578 Y4.978 I-0.0011 J0.0017
G1 X0.5515 Y4.9843
G1 X0.5451 Y4.9907
G3 X0.5432 Y4.9913 I-0.0014 J-0.0014
G1 X0.4861 Y4.979
G1 X0.4289 Y4.9668
G3 X0.4273 Y4.9648 I0.0004 J-0.002
G1 Y4.95
G1 Y4.9353
G3 X0.4289 Y4.9333 I0.002 J0.0
G1 X0.4762 Y4.9247
G1 X0.5137 Y4.9178
G1 X0.4761 Y4.9094
G1 X0.4289 Y4.8988
G3 X0.4273 Y4.8968 I0.0004 J-0.002
G1 Y4.8826
G1 Y4.8685
G3 X0.4289 Y4.8665 I0.002 J0.0
G1 X0.4861 Y4.8543
G1 X0.5432 Y4.842
G3 X0.5451 Y4.8425 I0.0004 J0.002
G1 X0.5515 Y4.8489
G1 X0.5578 Y4.8553
G3 X0.5575 Y4.8584 I-0.0014 J0.0014
G1 X0.5412 Y4.8688
G3 X0.5409 Y4.8689 I-0.0011 J-0.0017
G3 X0.4905 Y4.8808 I-0.0582 J-0.1343
G1 X0.4724 Y4.8815
G1 X0.5047 Y4.8888
G1 X0.552 Y4.8993
G3 X0.5535 Y4.9013 I-0.0004 J0.002
G1 Y4.9166
G1 Y4.9316
G0 Z0.125
G0 X0.5419 Y4.8352
G0 Z0.0754
G1 F20.0 Z-0.0021
G3 F40.0 X0.5404 Y4.8353 I-0.0016 J-0.013
G3 X0.5273 Y4.8222 I0.0 J-0.0131
G3 X0.5404 Y4.8091 I0.0131 J0.0
G3 X0.5535 Y4.8222 I0.0 J0.0131
G3 X0.5419 Y4.8352 I-0.0131 J0.0
G0 Z0.125
G0 X0.5202 Y4.8335
G0 Z0.0754
G1 F20.0 Z-0.0021
G3 F40.0 X0.5182 Y4.8353 I-0.002 J-0.0002
G1 X0.4737
G1 X0.4293
G3 X0.4273 Y4.8333 I0.0 J-0.002
G1 Y4.8222
G1 Y4.8111
G3 X0.4293 Y4.8091 I0.002 J0.0
G1 X0.4737
G1 X0.5182
G3 X0.5202 Y4.8111 I0.0 J0.002
G1 Y4.8222
G1 Y4.8333
G3 Y4.8335 I-0.002 J0.0
G0 Z0.125
G0 Y4.7909
G0 Z0.0754
G1 F20.0 Z-0.0021
G1 F40.0 X0.4904
G1 X0.4293
G3 X0.4273 Y4.7889 I0.0 J-0.002
G1 Y4.7777
G1 Y4.7666
G3 X0.4293 Y4.7646 I0.002 J0.0
G1 X0.4904
G1 X0.5515
G3 X0.5535 Y4.7666 I0.0 J0.002
G1 Y4.7777
G1 Y4.7889
G3 X0.5515 Y4.7909 I-0.002 J0.0
G1 X0.5202
G0 Z0.125
G0 X0.5083 Y4.7463
G0 Z0.0754
G1 F20.0 Z-0.0021
G3 F40.0 X0.5078 Y4.7464 I-0.0005 J-0.0019
G1 X0.4904
G1 X0.473
G3 X0.4712 Y4.7452 I0.0 J-0.002
G1 X0.4611 Y4.7202
G1 X0.4547 Y4.7041
G1 X0.4542 Y4.7201
G1 X0.4535 Y4.7458
G3 X0.4505 Y4.7474 I-0.002 J-0.0001
G1 X0.4394 Y4.7406
G1 X0.4282 Y4.7337
G3 X0.4273 Y4.732 I0.0011 J-0.0017
G1 Y4.7101
G1 Y4.6882
G3 X0.4286 Y4.6863 I0.002 J0.0
G1 X0.4447 Y4.6801
G1 X0.4609 Y4.6739
G3 X0.4626 Y4.6741 I0.0007 J0.0019
G1 X0.4743 Y4.6813
G3 X0.4745 Y4.6814 I-0.0011 J0.0017
G3 X0.488 Y4.7089 I-0.0228 J0.0282
G1 X0.4884 Y4.7165
G1 X0.4936 Y4.6994
G1 X0.5021 Y4.6716
G3 X0.5059 Y4.6714 I0.0019 J0.0006
G1 X0.5141 Y4.6909
G1 X0.5224 Y4.7103
G3 Y4.7118 I-0.0018 J0.0008
G1 X0.516 Y4.7285
G1 X0.5096 Y4.7451
G3 X0.5083 Y4.7463 I-0.0019 J-0.0007
G0 Z0.125
G0 X0.4936 Y4.6575
G0 Z0.0754
G1 F20.0 Z-0.0021
G3 F40.0 X0.4932 I-0.0003 J-0.002
G1 X0.4746
G3 X0.4744 I0.0 J-0.002
G3 X0.4413 Y4.6437 I0.0054 J-0.0595
G3 Y4.6436 I0.0013 J-0.0015
G3 X0.4273 Y4.616 I0.0321 J-0.0335
G3 Y4.6154 I0.002 J-0.0003
G3 X0.4442 Y4.5877 I0.045 J0.0084
G1 X0.4603 Y4.5744
G3 X0.462 Y4.574 I0.0013 J0.0015
G1 X0.4807 Y4.5776
G3 X0.4809 Y4.5777 I-0.0004 J0.002
G3 X0.5125 Y4.6007 I-0.0143 J0.0528
G1 Y4.6008
G1 X0.5241 Y4.6193
G3 X0.524 Y4.6216 I-0.0017 J0.0011
G1 X0.5094 Y4.6392
G1 X0.4948 Y4.6568
G3 X0.4936 Y4.6575 I-0.0015 J-0.0013
G0 Z0.125
G0 X0.4752 Y4.6391
G0 Z0.0754
G1 F20.0 Z-0.0021
G1 F40.0 X0.4872 Y4.6271
G1 X0.4993 Y4.615
G2 X0.499 Y4.6119 I-0.0014 J-0.0014
G1 X0.4869 Y4.6044
G1 X0.4748 Y4.597
G2 X0.4727 I-0.0011 J0.0017
G1 X0.4606 Y4.6044
G1 X0.4485 Y4.6119
G2 X0.4482 Y4.615 I0.0011 J0.0017
G1 X0.4603 Y4.6271
G1 X0.4723 Y4.6392
G2 X0.4752 I0.0014 J-0.0014
G1 Y4.6391
G0 Z0.125
G0 Y4.5575
G0 Z0.0754
G1 F20.0 Z-0.0021
G1 F40.0 X0.4728
G1 X0.4293
G3 X0.4273 Y4.5555 I0.0 J-0.002
G1 Y4.5452
G1 Y4.5348
G3 X0.4291 Y4.5328 I0.002 J0.0
G1 X0.4588 Y4.5293
G1 X0.4872 Y4.5259
G1 X0.4914 Y4.5132
G1 X0.4951 Y4.502
G1 X0.4636
G1 X0.4293
G3 X0.4273 Y4.5 I0.0 J-0.002
G1 Y4.4882
G1 Y4.4764
G3 X0.4295 Y4.4744 I0.002 J0.0
G1 X0.4711 Y4.4779
G1 X0.5128 Y4.4813
G3 X0.5146 Y4.4832 I-0.0002 J0.002
G1 X0.5164 Y4.5193
G1 X0.5183 Y4.5554
G3 X0.5163 Y4.5575 I-0.002 J0.0001
G1 X0.4752
G0 Z0.125
G0 X0.3525 Y4.641
G0 Z0.0754
G1 F20.0 Z-0.0021
G3 F40.0 X0.3532 Y4.6421 I-0.0437 J0.0298
G3 X0.3535 Y4.6432 I-0.0017 J0.0011
G1 Y4.6536
G3 X0.3508 Y4.6555 I-0.002 J0.0
G1 X0.3177 Y4.643
G1 X0.2852 Y4.6307
G1 X0.2411 Y4.6425
G1 X0.1965 Y4.6544
G3 X0.194 Y4.6524 I-0.0005 J-0.0019
G1 Y4.6426
G3 X0.1943 Y4.6415 I0.002 J0.0
G3 X0.2239 Y4.62 I0.0432 J0.0284
G3 X0.2736 Y4.6091 I0.0657 J0.1803
G3 X0.2739 I0.0002 J0.002
G3 X0.3237 Y4.62 I-0.01 J0.1645
G3 X0.3525 Y4.641 I-0.0149 J0.0508
G0 Z0.125
G0 X0.328 Y4.6652
G0 Z0.0754
G1 F20.0 Z-0.0021
G3 F40.0 X0.3281 Y4.6654 I-0.0014 J0.0014
G1 X0.3427 Y4.683
G1 X0.3573 Y4.7006
G3 X0.3575 Y4.7029 I-0.0015 J0.0013
G1 X0.3459 Y4.7214
G1 X0.3343 Y4.7399
G3 X0.3328 Y4.7408 I-0.0017 J-0.0011
G1 X0.2971 Y4.7444
G1 X0.2614 Y4.7479
G3 X0.2599 Y4.7475 I-0.0002 J-0.002
G1 X0.244 Y4.7343
G3 X0.2273 Y4.7067 I0.0276 J-0.0355
G3 Y4.7061 I0.002 J-0.0004
G3 X0.2412 Y4.6786 I0.0503 J0.0082
G1 X0.2546 Y4.6652
G3 X0.256 Y4.6646 I0.0014 J0.0014
G1 X0.2913
G1 X0.3266
G3 X0.328 Y4.6652 I0.0 J0.002
G0 Z0.125
G0 X0.3228 Y4.6925
G0 Z0.0754
G1 F20.0 Z-0.0021
G1 F40.0 X0.304 Y4.6889
G2 X0.3039 I-0.0004 J0.002
G2 X0.2651 Y4.6919 I-0.0116 J0.0996
G2 X0.265 Y4.692 I0.0005 J0.0019
G1 X0.2471 Y4.6988
G2 X0.2464 Y4.7021 I0.0007 J0.0019
G1 X0.2581 Y4.7138
G1 X0.2698 Y4.7255
G2 X0.2715 Y4.7261 I0.0014 J-0.0014
G1 X0.2977 Y4.7223
G1 X0.324 Y4.7186
G2 X0.3257 Y4.7166 I-0.0003 J-0.002
G1 Y4.7057
G1 Y4.6947
G2 X0.3241 Y4.6928 I-0.002 J0.0
G1 X0.3228 Y4.6925
G0 Z0.125
G0 Y4.7535
G0 Z0.0754
G1 F20.0 Z-0.0021
G1 F40.0 X0.3266
G3 X0.3281 Y4.7542 I0.0 J0.002
G1 X0.3427 Y4.7718
G1 X0.3573 Y4.7894
G3 X0.3575 Y4.7918 I-0.0015 J0.0013
G1 X0.3459 Y4.8103
G1 X0.3343 Y4.8288
G3 X0.3328 Y4.8297 I-0.0017 J-0.0011
G1 X0.2971 Y4.8333
G1 X0.2614 Y4.8368
G3 X0.2599 Y4.8364 I-0.0002 J-0.002
G1 X0.244 Y4.8232
G3 X0.2273 Y4.7956 I0.0276 J-0.0355
G3 Y4.795 I0.002 J-0.0004
G3 X0.2412 Y4.7675 I0.0503 J0.0082
G1 Y4.7674
G1 X0.2546 Y4.7541
G3 X0.256 Y4.7535 I0.0014 J0.0014
G1 X0.2913
G1 X0.3228
G0 Z0.125
G0 X0.3176 Y4.7804
G0 Z0.0754
G1 F20.0 Z-0.0021
G1 F40.0 X0.304 Y4.7778
G2 X0.3039 I-0.0004 J0.002
G2 X0.2651 Y4.7808 I-0.0116 J0.0996
G2 X0.265 Y4.7809 I0.0005 J0.0019
G1 X0.2471 Y4.7877
G2 X0.2464 Y4.791 I0.0007 J0.0019
G1 X0.2581 Y4.8027
G1 X0.2698 Y4.8144
G2 X0.2715 Y4.8149 I0.0014 J-0.0014
G1 X0.2977 Y4.8112
G1 X0.324 Y4.8075
G2 X0.3257 Y4.8055 I-0.0003 J-0.002
G1 Y4.7946
G1 Y4.7836
G2 X0.3241 Y4.7816 I-0.002 J0.0
G1 X0.3176 Y4.7804
G0 Z0.125
G0 Y4.8424
G0 Z0.0754
G1 F20.0 Z-0.0021
G1 F40.0 X0.3266
G3 X0.3281 Y4.8431 I0.0 J0.002
G1 X0.3427 Y4.8607
G1 X0.3573 Y4.8783
G3 X0.3575 Y4.8807 I-0.0015 J0.0013
G1 X0.3459 Y4.8992
G1 X0.3343 Y4.9177
G3 X0.3328 Y4.9186 I-0.0017 J-0.0011
G1 X0.2971 Y4.9222
G1 X0.2614 Y4.9257
G3 X0.2599 Y4.9252 I-0.0002 J-0.002
G1 X0.244 Y4.912
G3 X0.2273 Y4.8845 I0.0276 J-0.0355
G3 Y4.8838 I0.002 J-0.0004
G3 X0.2412 Y4.8564 I0.0503 J0.0082
G1 Y4.8563
G1 X0.2546 Y4.843
G3 X0.256 Y4.8424 I0.0014 J0.0014
G1 X0.2913
G1 X0.3176
G0 Z0.125
G0 X0.3126 Y4.8683
G0 Z0.0754
G1 F20.0 Z-0.0021
G1 F40.0 X0.304 Y4.8667
G2 X0.3039 Y4.8666 I-0.0004 J0.002
G2 X0.2651 Y4.8697 I-0.0116 J0.0996
G2 X0.265 Y4.8698 I0.0005 J0.0019
G1 X0.2471 Y4.8766
G2 X0.2464 Y4.8799 I0.0007 J0.0019
G1 X0.2581 Y4.8916
G1 X0.2698 Y4.9033
G2 X0.2715 Y4.9038 I0.0014 J-0.0014
G1 X0.2977 Y4.9001
G1 X0.324 Y4.8964
G2 X0.3257 Y4.8944 I-0.0003 J-0.002
G1 Y4.8835
G1 Y4.8725
G2 X0.3241 Y4.8705 I-0.002 J0.0
G1 X0.3126 Y4.8683
G0 Z0.125
G0 X0.3053 Y4.9293
G0 Z0.0754
G1 F20.0 Z-0.0021
G3 F40.0 X0.3055 I-0.0002 J0.002
G1 X0.3259 Y4.9332
G1 X0.3463 Y4.9371
G3 X0.3479 Y4.9388 I-0.0004 J0.002
G1 X0.3513 Y4.9619
G1 X0.3546 Y4.985
G3 X0.3539 Y4.9868 I-0.002 J0.0003
G1 X0.3364 Y5.0013
G1 X0.3189 Y5.0158
G3 X0.3162 Y5.0156 I-0.0013 J-0.0015
G1 X0.3081 Y5.007
G1 X0.3001 Y4.9983
G3 X0.3009 Y4.995 I0.0015 J-0.0014
G1 X0.3147 Y4.9901
G1 X0.3273 Y4.9856
G1 Y4.9713
G1 Y4.9575
G1 X0.3149
G2 X0.2753 Y4.9846 I0.0261 J0.0806
G3 X0.2393 Y5.0129 I-0.0802 J-0.0649
G3 X0.2385 Y5.0131 I-0.0009 J-0.0018
G1 X0.2293
G3 X0.2273 Y5.0111 I0.0 J-0.002
G1 Y4.9722
G1 Y4.9333
G3 X0.2293 Y4.9313 I0.002 J0.0
G1 X0.2404
G1 X0.2515
G3 X0.2535 Y4.9333 I0.0 J0.002
G1 Y4.9575
G1 Y4.977
G1 X0.2769 Y4.955
G1 X0.3037 Y4.9298
G3 X0.3053 Y4.9293 I0.0014 J0.0015
G0 Z0.125
G0 X0.2853 Y5.0091
G0 Z0.0754
G1 F20.0 Z-0.0021
G3 F40.0 X0.2869 Y5.0111 I-0.0005 J0.0019
G1 Y5.0333
G1 Y5.0555
G3 X0.2849 Y5.0575 I-0.002 J0.0
G1 X0.2737
G1 X0.2626
G3 X0.2606 Y5.0555 I0.0 J-0.002
G1 Y5.0333
G1 Y5.0111
G3 X0.2626 Y5.0091 I0.002 J0.0
G1 X0.2737
G1 X0.2849
G3 X0.2853 I0.0 J0.002
G0 Z0.125
G0 Y5.0757
G0 Z0.0754
G1 F20.0 Z-0.0021
G1 F40.0 X0.2913
G1 X0.3266
G3 X0.3281 Y5.0765 I0.0 J0.002
G1 X0.3427 Y5.0941
G1 X0.3573 Y5.1117
G3 X0.3575 Y5.114 I-0.0015 J0.0013
G1 X0.3458 Y5.1325
G1 X0.3341 Y5.151
G3 X0.3324 Y5.152 I-0.0017 J-0.0011
G1 X0.3064
G1 X0.2803
G3 X0.2784 Y5.1504 I0.0 J-0.002
G1 X0.2718 Y5.1228
G1 X0.2664 Y5.0998
G1 X0.261 Y5.1085
G1 X0.2537 Y5.1204
G1 X0.2607 Y5.1387
G1 X0.268 Y5.1578
G3 X0.2655 Y5.1605 I-0.0019 J0.0007
G1 X0.2499 Y5.1553
G1 X0.2342 Y5.1501
G3 X0.2329 Y5.1485 I0.0006 J-0.0019
G1 X0.2297 Y5.127
G1 X0.2265 Y5.1056
G3 X0.227 Y5.1039 I0.002 J-0.0003
G1 X0.2408 Y5.0901
G1 X0.2546 Y5.0763
G3 X0.256 Y5.0757 I0.0014 J0.0014
G1 X0.2853
G0 Z0.125
G0 X0.2952 Y5.0981
G0 Z0.0754
G1 F20.0 Z-0.0021
G2 F40.0 X0.294 Y5.1 I0.0008 J0.0018
G1 Y5.1166
G1 Y5.1333
G2 X0.296 Y5.1353 I0.002 J0.0
G1 X0.3126
G1 X0.3293
G2 X0.3313 Y5.1333 I0.0 J-0.002
G1 Y5.1166
G1 Y5.1
G2 X0.3293 Y5.098 I-0.002 J0.0
G1 X0.3126
G1 X0.296
G2 X0.2952 Y5.0981 I0.0 J0.002
G0 Z0.125
G0 X0.3161 Y5.1664
G0 Z0.0754
G1 F20.0 Z-0.0021
G1 F40.0 X0.3522 Y5.1553
G3 X0.3547 Y5.1578 I0.0006 J0.0019
G1 X0.3504 Y5.1709
G3 X0.3501 Y5.1714 I-0.0019 J-0.0006
G3 X0.3154 Y5.1956 I-0.0525 J-0.0385
G1 X0.2861 Y5.2059
G3 X0.285 Y5.206 I-0.0007 J-0.0019
G1 X0.2439 Y5.1956
G1 X0.2027 Y5.1852
G3 X0.2013 Y5.1839 I0.0005 J-0.0019
G1 X0.197 Y5.1709
G1 X0.1928 Y5.1578
G3 X0.1953 Y5.1553 I0.0019 J-0.0006
G1 X0.2348 Y5.1674
G1 X0.2737 Y5.1794
G1 X0.3127 Y5.1674
G1 X0.3161 Y5.1664
G0 Z0.125
G0 X0.4275 Y5.1866
G0 Z0.0754
G1 F20.0 Z-0.0021
G3 F40.0 X0.4404 Y5.1757 I0.0129 J0.0023
G3 X0.4535 Y5.1889 I0.0 J0.0131
G3 X0.4404 Y5.202 I-0.0131 J0.0
G3 X0.4273 Y5.1889 I0.0 J-0.0131
G3 X0.4275 Y5.1866 I0.0131 J0.0
G0 Z0.125
G0 X0.4291 Y5.2065
G0 Z0.0754
G1 F20.0 Z-0.0021
G3 F40.0 X0.4304 Y5.2069 I0.0002 J0.002
G1 X0.4554 Y5.2232
G1 X0.4793 Y5.2389
G1 X0.4962 Y5.2283
G1 X0.5141 Y5.217
G3 X0.5159 Y5.2168 I0.0011 J0.0017
G1 X0.5341 Y5.2238
G1 X0.5522 Y5.2307
G3 X0.5535 Y5.2326 I-0.0007 J0.0019
G1 Y5.2774
G1 Y5.3222
G3 X0.5515 Y5.3242 I-0.002 J0.0
G1 X0.4904
G1 X0.4293
G3 X0.4273 Y5.3222 I0.0 J-0.002
G1 Y5.3111
G1 Y5.3
G3 X0.4293 Y5.298 I0.002 J0.0
G1 X0.4515
G1 X0.4717
G1 Y5.2834
G1 Y5.2679
G1 X0.4505 Y5.2546
G1 X0.4282 Y5.2408
G3 X0.4273 Y5.2391 I0.0011 J-0.0017
G1 Y5.2238
G1 Y5.2085
G3 X0.4291 Y5.2065 I0.002 J0.0
G0 Z0.125
G0 X0.4598 Y5.1696
G0 Z0.0754
G1 F20.0 Z-0.0021
G1 F40.0 X0.445 Y5.1573
G3 X0.4274 Y5.1291 I0.0343 J-0.041
G3 X0.4273 Y5.1283 I0.0019 J-0.0005
G3 X0.4412 Y5.1008 I0.0503 J0.0082
G1 X0.4546 Y5.0874
G3 X0.456 Y5.0869 I0.0014 J0.0014
G1 X0.5037
G1 X0.5515
G3 X0.5535 Y5.0889 I0.0 J0.002
G1 Y5.1
G1 Y5.1111
G3 X0.5515 Y5.1131 I-0.002 J0.0
G1 X0.5015
G1 X0.4535
G1 Y5.1197
G2 X0.4661 Y5.1406 I0.0475 J-0.0143
G1 X0.4792 Y5.1537
G3 Y5.1566 I-0.0014 J0.0014
G1 X0.4719 Y5.1639
G1 X0.4646 Y5.1712
G3 X0.4619 Y5.1713 I-0.0014 J-0.0014
G1 X0.4598 Y5.1696
G0 Z0.125
G0 X0.4951 Y5.2426
G0 Z0.0754
G1 F20.0 Z-0.0021
G2 F40.0 X0.494 Y5.2444 I0.0009 J0.0018
G1 Y5.2722
G1 Y5.3
G2 X0.496 Y5.302 I0.002 J0.0
G1 X0.5126
G1 X0.5293
G2 X0.5313 Y5.3 I0.0 J-0.002
G1 Y5.2722
G1 Y5.2444
G2 X0.5293 Y5.2424 I-0.002 J0.0
G1 X0.5126
G1 X0.496
G2 X0.4951 Y5.2426 I0.0 J0.002
G0 Z0.125
G0 X0.6273 Y5.2663
G0 Z0.0754
G1 F20.0 Z-0.0021
G3 F40.0 X0.6293 Y5.2646 I0.002 J0.0004
G1 X0.6508
G1 X0.6705
G1 X0.6738 Y5.2425
G1 X0.6773 Y5.2186
G3 X0.6782 Y5.2172 I0.002 J0.0003
G1 X0.6962 Y5.206
G1 X0.7141 Y5.1947
G3 X0.7159 Y5.1946 I0.0011 J0.0017
G1 X0.7341 Y5.2015
G1 X0.7522 Y5.2085
G3 X0.7535 Y5.2104 I-0.0007 J0.0019
G1 Y5.2496
G1 Y5.2889
G3 X0.7515 Y5.2909 I-0.002 J0.0
G1 X0.6904
G1 X0.6293
G3 X0.6273 Y5.2889 I0.0 J-0.002
G1 Y5.2777
G1 Y5.2666
G3 Y5.2663 I0.002 J0.0
G0 Z0.125
G0 X0.694
G0 Z0.0754
G1 F20.0 Z-0.0021
G1 F40.0 Y5.2666
G2 X0.696 Y5.2686 I0.002 J0.0
G1 X0.7126
G1 X0.7293
G2 X0.7313 Y5.2666 I0.0 J-0.002
G1 Y5.2444
G1 Y5.2222
G2 X0.7293 Y5.2202 I-0.002 J0.0
G1 X0.7126
G1 X0.696
G2 X0.694 Y5.2222 I0.0 J0.002
G1 Y5.2444
G1 Y5.2663
G0 Z0.125
G0 Y5.1797
G0 Z0.0754
G1 F20.0 Z-0.0021
G1 F40.0 X0.6904
G1 X0.6642
G3 X0.6628 Y5.1792 I0.0 J-0.002
G1 X0.6453 Y5.1617
G1 X0.6279 Y5.1442
G3 X0.6273 Y5.1428 I0.0014 J-0.0014
G1 Y5.1228
G1 Y5.1027
G3 X0.628 Y5.1012 I0.002 J0.0
G1 X0.6429 Y5.0888
G1 X0.6578 Y5.0764
G3 X0.6605 Y5.0765 I0.0013 J0.0015
G1 X0.6678 Y5.0837
G1 X0.675 Y5.091
G3 X0.6751 Y5.0936 I-0.0014 J0.0014
G1 X0.6628 Y5.1084
G1 X0.6513 Y5.1223
G1 X0.6574 Y5.138
G1 X0.6633 Y5.1535
G1 X0.6904
G1 X0.7175
G1 X0.7235 Y5.138
G1 X0.7295 Y5.1223
G1 X0.718 Y5.1084
G1 X0.7057 Y5.0936
G3 X0.7059 Y5.091 I0.0015 J-0.0013
G1 X0.7131 Y5.0837
G1 X0.7203 Y5.0765
G3 X0.723 Y5.0764 I0.0014 J0.0014
G1 X0.7379 Y5.0888
G1 X0.7528 Y5.1012
G3 X0.7535 Y5.1027 I-0.0013 J0.0015
G1 Y5.1228
G1 Y5.1428
G3 X0.7529 Y5.1442 I-0.002 J0.0
G1 X0.7355 Y5.1617
G1 X0.718 Y5.1792
G3 X0.7166 Y5.1797 I-0.0014 J-0.0014
G1 X0.694
G0 Z0.125
G0 X0.4522 Y5.0613
G0 Z0.0754
G1 F20.0 Z-0.0021
G3 F40.0 X0.4404 Y5.0686 I-0.0118 J-0.0058
G3 X0.4273 Y5.0555 I0.0 J-0.0131
G3 X0.4404 Y5.0424 I0.0131 J0.0
G3 X0.4535 Y5.0555 I0.0 J0.0131
G3 X0.4522 Y5.0613 I-0.0131 J0.0
G0 Z0.125
G0 X1.6829 Y4.918
G0 Z0.0754
G1 F20.0 Z-0.0021
G3 F40.0 Y4.9177 I0.002 J-0.0002
G1 Y4.8936
G1 Y4.8694
G3 X1.6836 Y4.8678 I0.002 J0.0
G1 X1.7002 Y4.854
G1 X1.7162 Y4.8408
G1 Y4.5931
G1 Y4.3444
G3 X1.7182 Y4.3424 I0.002 J0.0
G1 X1.8493
G1 X1.9796
G1 X1.9908 Y4.3312
G1 X2.0026 Y4.3194
G3 X2.0042 Y4.3188 I0.0014 J0.0014
G1 X2.0529 Y4.3223
G1 X2.1017 Y4.3258
G3 X2.1035 Y4.3277 I-0.0001 J0.002
G1 Y4.3555
G1 Y4.3833
G3 X2.1015 Y4.3853 I-0.002 J0.0
G1 X1.9265 Y4.3811
G1 X1.7535 Y4.3769
G1 Y4.6083
G1 Y4.8408
G1 X1.7695 Y4.854
G1 X1.7861 Y4.8678
G3 X1.7869 Y4.8694 I-0.0013 J0.0015
G1 Y4.8936
G1 Y4.9177
G3 X1.7863 Y4.9192 I-0.002 J0.0
G1 X1.7729 Y4.9325
G1 X1.7596 Y4.9458
G3 X1.7582 Y4.9464 I-0.0014 J-0.0014
G1 X1.7349
G1 X1.7115
G3 X1.7101 Y4.9458 I0.0 J-0.002
G1 X1.6968 Y4.9325
G1 X1.6834 Y4.9192
G3 X1.6829 Y4.918 I0.0014 J-0.0014
G0 Z0.125
G0 X1.7942 Y4.9795
G0 Z0.0754
G1 F20.0 Z-0.0021
G3 F40.0 X1.7947 Y4.9789 I0.0018 J0.001
G1 X1.8114 Y4.9651
G1 X1.8273 Y4.9519
G1 Y4.8208
G1 Y4.6889
G3 X1.8293 Y4.6869 I0.002 J0.0
G1 X1.8835
G1 X1.9368
G1 X1.95 Y4.6709
G1 X1.9638 Y4.6542
G3 X1.9654 Y4.6535 I0.0015 J0.0013
G1 X1.9896
G1 X2.0137
G3 X2.0152 Y4.6541 I0.0 J0.002
G1 X2.0285 Y4.6674
G1 X2.0418 Y4.6808
G3 X2.0424 Y4.6822 I-0.0014 J0.0014
G1 Y4.7055
G1 Y4.7289
G3 X2.0418 Y4.7303 I-0.002 J0.0
G1 X2.0285 Y4.7436
G1 X2.0152 Y4.7569
G3 X2.0137 Y4.7575 I-0.0014 J-0.0014
G1 X1.9896
G1 X1.9654
G3 X1.9638 Y4.7568 I0.0 J-0.002
G1 X1.95 Y4.7401
G1 X1.9368 Y4.7242
G1 X1.9002
G1 X1.8646
G1 Y4.8375
G1 Y4.9519
G1 X1.8806 Y4.9651
G1 X1.8972 Y4.9789
G3 X1.898 Y4.9805 I-0.0013 J0.0015
G1 Y5.0047
G1 Y5.0289
G3 X1.8974 Y5.0303 I-0.002 J0.0
G1 X1.884 Y5.0436
G1 X1.8707 Y5.0569
G3 X1.8693 Y5.0575 I-0.0014 J-0.0014
G1 X1.846
G1 X1.8226
G3 X1.8212 Y5.0569 I0.0 J-0.002
G1 X1.8079 Y5.0436
G1 X1.7946 Y5.0303
G3 X1.794 Y5.0289 I0.0014 J-0.0014
G1 Y5.0047
G1 Y4.9805
G3 X1.7942 Y4.9795 I0.002 J0.0
G0 Z0.125
G0 X1.8208 Y4.302
G0 Z0.0754
G1 F20.0 Z-0.0021
G3 F40.0 X1.8194 Y4.3012 I0.0001 J-0.002
G1 X1.8055 Y4.2846
G1 X1.7923 Y4.2686
G1 X1.7391
G1 X1.6849
G3 X1.6829 Y4.2666 I0.0 J-0.002
G1 Y3.8444
G1 Y3.4222
G3 X1.6849 Y3.4202 I0.002 J0.0
G1 X1.7391
G1 X1.7923
G1 X1.8055 Y3.4042
G1 X1.8194 Y3.3876
G3 X1.8209 Y3.3869 I0.0015 J0.0013
G1 X1.8451
G1 X1.8693
G3 X1.8707 Y3.3874 I0.0 J0.002
G1 X1.884 Y3.4008
G1 X1.8974 Y3.4141
G3 X1.898 Y3.4155 I-0.0014 J0.0014
G1 Y3.4389
G1 Y3.4622
G3 X1.8974 Y3.4636 I-0.002 J0.0
G1 X1.884 Y3.4769
G1 X1.8707 Y3.4903
G3 X1.8693 Y3.4909 I-0.0014 J-0.0014
G1 X1.8451
G1 X1.8209
G3 X1.8194 Y3.4901 I0.0 J-0.002
G1 X1.8055 Y3.4735
G1 X1.7923 Y3.4575
G1 X1.7557
G1 X1.7202
G1 Y3.8444
G1 Y4.2313
G1 X1.7557
G1 X1.7923
G1 X1.8055 Y4.2154
G1 X1.8194 Y4.1987
G3 X1.8209 Y4.198 I0.0015 J0.0013
G1 X1.846
G1 X1.871
G3 X1.8726 Y4.1987 I0.0 J0.002
G1 X1.8864 Y4.2154
G1 X1.8996 Y4.2313
G1 X1.9396
G1 X1.9796
G1 X1.9908 Y4.2201
G1 X2.0026 Y4.2082
G3 X2.0042 Y4.2077 I0.0014 J0.0014
G1 X2.0529 Y4.2112
G1 X2.1017 Y4.2146
G3 X2.1035 Y4.2166 I-0.0001 J0.002
G1 Y4.25
G1 Y4.2833
G3 X2.1017 Y4.2853 I-0.002 J0.0
G1 X2.0529 Y4.2888
G1 X2.0042 Y4.2923
G3 X2.0026 Y4.2917 I-0.0001 J-0.002
G1 X1.9908 Y4.2799
G1 X1.9796 Y4.2686
G1 X1.9396
G1 X1.8996
G1 X1.8864 Y4.2846
G1 X1.8726 Y4.3012
G3 X1.871 Y4.302 I-0.0015 J-0.0013
G1 X1.846
G1 X1.8209
G1 X1.8208
G0 Z0.125
G0 X1.8292 Y4.1575
G0 Z0.0754
G1 F20.0 Z-0.0021
G3 F40.0 X1.8273 Y4.1555 I0.0001 J-0.002
G1 Y4.0624
G1 Y3.9703
G1 X1.8114 Y3.9571
G1 X1.7947 Y3.9432
G3 X1.794 Y3.9417 I0.0013 J-0.0015
G1 Y3.9175
G1 Y3.8933
G3 X1.7946 Y3.8919 I0.002 J0.0
G1 X1.8079 Y3.8786
G1 X1.8212 Y3.8652
G3 X1.8226 Y3.8646 I0.0014 J0.0014
G1 X1.846
G1 X1.8693
G3 X1.8707 Y3.8652 I0.0 J0.002
G1 X1.884 Y3.8786
G1 X1.8974 Y3.8919
G3 X1.898 Y3.8933 I-0.0014 J0.0014
G1 Y3.9175
G1 Y3.9417
G3 X1.8972 Y3.9432 I-0.002 J0.0
G1 X1.8806 Y3.9571
G1 X1.8646 Y3.9703
G1 Y4.0458
G1 Y4.1202
G1 X1.9237
G1 X1.9829
G1 Y4.1111
G1 Y4.1
G3 X1.9849 Y4.098 I0.002 J0.0
G1 X2.0015
G1 X2.0162
G1 Y4.068
G1 Y4.037
G1 X2.0002 Y4.0237
G1 X1.9836 Y4.0099
G3 X1.9829 Y4.0084 I0.0013 J-0.0015
G1 Y3.9833
G1 Y3.9582
G3 X1.9836 Y3.9567 I0.002 J0.0
G1 X2.0002 Y3.9429
G1 X2.0162 Y3.9296
G1 Y3.8666
G1 Y3.8036
G1 X2.0002 Y3.7904
G1 X1.9836 Y3.7766
G3 X1.9829 Y3.775 I0.0013 J-0.0015
G1 Y3.7508
G1 Y3.7266
G3 X1.9834 Y3.7252 I0.002 J0.0
G1 X1.9968 Y3.7119
G1 X2.0101 Y3.6986
G3 X2.0115 Y3.698 I0.0014 J0.0014
G1 X2.0349
G1 X2.0582
G3 X2.0596 Y3.6986 I0.0 J0.002
G1 X2.0729 Y3.7119
G1 X2.0863 Y3.7252
G3 X2.0869 Y3.7266 I-0.0014 J0.0014
G1 Y3.7508
G1 Y3.775
G3 X2.0861 Y3.7766 I-0.002 J0.0
G1 X2.0695 Y3.7904
G1 X2.0535 Y3.8036
G1 Y3.8666
G1 Y3.9296
G1 X2.0695 Y3.9429
G1 X2.0861 Y3.9567
G3 X2.0869 Y3.9582 I-0.0013 J0.0015
G1 Y3.9833
G1 Y4.0084
G3 X2.0861 Y4.0099 I-0.002 J0.0
G1 X2.0695 Y4.0237
G1 X2.0535 Y4.037
G1 Y4.068
G1 Y4.098
G1 X2.0793
G1 X2.1071
G3 X2.1091 Y4.1 I0.0 J0.002
G1 Y4.1389
G1 Y4.1777
G3 X2.1071 Y4.1797 I-0.002 J0.0
G1 X2.046
G1 X1.9849
G3 X1.9829 Y4.1777 I0.0 J-0.002
G1 Y4.1666
G1 Y4.1575
G1 X1.9071
G1 X1.8293
G3 X1.8292 I0.0 J-0.002
G0 Z0.125
G0 X2.3041 Y4.2266
G0 Z0.0754
G1 F20.0 Z-0.0021
G3 F40.0 X2.3046 Y4.2255 I0.002 J0.0003
G1 X2.3126 Y4.2176
G3 X2.3133 Y4.2171 I0.0014 J0.0014
G3 X2.3694 Y4.2091 I0.0483 J0.1377
G1 X2.4169
G3 X2.4186 Y4.21 I0.0 J0.002
G1 X2.4254 Y4.2211
G1 X2.4317 Y4.2313
G1 X2.456
G1 X2.4805
G1 X2.4983 Y4.2116
G2 X2.5161 Y4.181 I-0.0559 J-0.0529
G2 X2.5003 Y4.1571 I-0.0448 J0.0125
G1 X2.5002
G1 X2.4836 Y4.1432
G3 X2.4829 Y4.1417 I0.0013 J-0.0015
G1 Y4.1175
G1 Y4.0933
G3 X2.4834 Y4.0919 I0.002 J0.0
G1 X2.4968 Y4.0786
G1 X2.5101 Y4.0652
G3 X2.5115 Y4.0646 I0.0014 J0.0014
G1 X2.5349
G1 X2.5582
G3 X2.5596 Y4.0652 I0.0 J0.002
G1 X2.5729 Y4.0786
G3 X2.5731 Y4.0787 I-0.0014 J0.0014
G3 X2.5869 Y4.1151 I-0.0497 J0.0396
G3 Y4.1152 I-0.002 J0.0001
G1 Y4.1371
G3 X2.5863 Y4.1385 I-0.002 J0.0
G1 X2.5674 Y4.1594
G1 X2.5495 Y4.1792
G1 X2.562 Y4.1967
G3 X2.5857 Y4.2379 I-0.1442 J0.1103
G2 X2.6575 Y4.3204 I0.4849 J-0.3497
G1 X2.7196 Y4.3811
G3 X2.7202 Y4.3825 I-0.0014 J0.0014
G1 Y4.4288
G1 Y4.4741
G1 X2.7361 Y4.4873
G1 X2.7528 Y4.5012
G3 X2.7535 Y4.5027 I-0.0013 J0.0015
G1 Y4.5269
G1 Y4.5511
G3 X2.7529 Y4.5525 I-0.002 J0.0
G1 X2.7396 Y4.5658
G1 X2.7263 Y4.5792
G3 X2.7249 Y4.5797 I-0.0014 J-0.0014
G1 X2.7015
G1 X2.6782
G3 X2.6768 Y4.5792 I0.0 J-0.002
G1 X2.6634 Y4.5658
G1 X2.6501 Y4.5525
G3 X2.6495 Y4.5511 I0.0014 J-0.0014
G1 Y4.5269
G1 Y4.5027
G3 X2.6502 Y4.5012 I0.002 J0.0
G1 X2.6669 Y4.4873
G1 X2.6829 Y4.4741
G1 Y4.4455
G1 Y4.4167
G1 X2.6248 Y4.3593
G1 X2.5667 Y4.302
G1 X2.5386
G1 X2.5098
G3 X2.5083 Y4.3012 I0.0 J-0.002
