( Made using CamBam - http://www.cambam.co.uk )
( vcobrd 11/23/2014 10:47:21 PM )
( T3 : 0.0039 )
G20 G90 G64 G40
G0 Z0.125
( T3 : 0.0039 )
T3 M6
( Engrave1 )
G17
M3 S1000
G0 X4.972 Y0.1384
G0 Z0.0745
G1 F20.0 Z-0.003
G1 F40.0 X5.0285
G3 X5.0304 Y0.1403 I0.0 J0.0019
G1 Y0.1507
G1 Y0.1611
G3 X5.0285 Y0.1629 I-0.0019 J0.0
G1 X5.0089
G1 X4.9913
G1 X4.9926 Y0.1776
G1 X4.994 Y0.1944
G3 X4.9931 Y0.1961 I-0.0019 J0.0002
G1 X4.975 Y0.2079
G1 X4.9568 Y0.2197
G3 X4.9548 I-0.001 J-0.0016
G1 X4.9367 Y0.2083
G1 X4.9187 Y0.1969
G3 X4.9178 Y0.1955 I0.001 J-0.0016
G1 X4.9157 Y0.1679
G1 X4.9136 Y0.1404
G3 X4.9155 Y0.1384 I0.0019 J-0.0001
G1 X4.972
G0 Z0.125
G0 X4.9622 Y0.1609
G0 Z0.0745
G1 F20.0 Z-0.003
G2 F40.0 X4.956 Y0.1592 I-0.0094 J0.0215
G2 X4.9556 I-0.0003 J0.0019
G2 X4.939 Y0.1697 I0.0024 J0.022
G1 X4.9331 Y0.1794
G2 X4.9337 Y0.182 I0.0016 J0.001
G1 X4.9442 Y0.1885
G1 X4.9548 Y0.195
G2 X4.9568 I0.001 J-0.0016
G1 X4.9673 Y0.1885
G1 X4.9779 Y0.182
G2 X4.9785 Y0.1794 I-0.001 J-0.0016
G1 X4.9725 Y0.1697
G2 X4.9622 Y0.1609 I-0.0197 J0.0127
G0 Z0.125
G0 X4.9598 Y0.2319
G0 Z0.0745
G1 F20.0 Z-0.003
G3 F40.0 X4.96 I-0.0001 J0.0019
G3 X4.9891 Y0.249 I-0.0084 J0.0475
G1 X5.0028 Y0.2655
G3 X5.0029 Y0.2677 I-0.0014 J0.0012
G1 X4.992 Y0.285
G1 X4.9811 Y0.3023
G3 X4.9795 Y0.3032 I-0.0016 J-0.001
G1 X4.9558
G1 X4.9321
G3 X4.9305 Y0.3023 I0.0 J-0.0019
G1 X4.9199 Y0.2855
G1 X4.9093 Y0.2688
G3 X4.9092 Y0.267 I0.0016 J-0.001
G1 X4.9177 Y0.2474
G1 X4.9262 Y0.2278
G3 X4.9297 Y0.2281 I0.0017 J0.0007
G1 X4.9372 Y0.2593
G1 X4.9416 Y0.2776
G1 X4.9423 Y0.2623
G1 X4.9435 Y0.2337
G3 X4.9454 Y0.2319 I0.0019 J0.0001
G1 X4.9597
G1 X4.9598
G0 Z0.125
G0 X4.9737 Y0.2479
G0 Z0.0745
G1 F20.0 Z-0.003
G2 F40.0 X4.9732 Y0.2487 I0.0012 J0.0014
G1 X4.9677 Y0.2623
G1 X4.9623 Y0.2759
G2 X4.9627 Y0.2779 I0.0017 J0.0007
G1 X4.9689 Y0.2842
G1 X4.9752 Y0.2905
G2 X4.9784 Y0.2891 I0.0013 J-0.0013
G1 X4.9776 Y0.2692
G1 X4.9768 Y0.2493
G2 X4.9737 Y0.2479 I-0.0019 J0.0001
G0 Z0.125
G0 Y0.3254
G0 Z0.0745
G1 F20.0 Z-0.003
G1 F40.0 X5.0285
G3 X5.0304 Y0.3273 I0.0 J0.0019
G1 Y0.3377
G1 Y0.3481
G3 X5.0285 Y0.3499 I-0.0019 J0.0
G1 X4.9714
G1 X4.9142
G3 X4.9123 Y0.3481 I0.0 J-0.0019
G1 Y0.3377
G1 Y0.3273
G3 X4.9142 Y0.3254 I0.0019 J0.0
G1 X4.9714
G1 X4.9737
G0 Z0.125
G0 Y0.367
G0 Z0.0745
G1 F20.0 Z-0.003
G1 F40.0 X5.0285
G3 X5.0304 Y0.3688 I0.0 J0.0019
G1 Y0.3792
G1 Y0.3896
G3 X5.0285 Y0.3915 I-0.0019 J0.0
G1 X4.9714
G1 X4.9142
G3 X4.9123 Y0.3896 I0.0 J-0.0019
G1 Y0.3792
G1 Y0.3688
G3 X4.9142 Y0.367 I0.0019 J0.0
G1 X4.9714
G1 X4.9737
G0 Z0.125
G0 Y0.4085
G0 Z0.0745
G1 F20.0 Z-0.003
G1 F40.0 X4.974
G3 X4.9754 Y0.4092 I0.0 J0.0019
G1 X4.9891 Y0.4256
G1 X5.0028 Y0.4421
G3 X5.0029 Y0.4443 I-0.0014 J0.0012
G1 X4.992 Y0.4616
G1 X4.9811 Y0.4789
G3 X4.9795 Y0.4798 I-0.0016 J-0.001
G1 X4.9558
G1 X4.9321
G3 X4.9305 Y0.4789 I0.0 J-0.0019
G1 X4.9196 Y0.4616
G1 X4.9086 Y0.4443
G3 X4.9088 Y0.4421 I0.0016 J-0.001
G1 X4.9224 Y0.4256
G1 X4.9361 Y0.4092
G3 X4.9375 Y0.4085 I0.0014 J0.0012
G1 X4.9558
G1 X4.9737
G0 Z0.125
G0 X4.9628 Y0.4313
G0 Z0.0745
G1 F20.0 Z-0.003
G2 F40.0 X4.956 Y0.4293 I-0.0101 J0.0212
G2 X4.9556 I-0.0003 J0.0019
G2 X4.939 Y0.4399 I0.0024 J0.022
G1 X4.9331 Y0.4495
G2 X4.9337 Y0.4521 I0.0016 J0.001
G1 X4.9442 Y0.4586
G1 X4.9548 Y0.4651
G2 X4.9568 I0.001 J-0.0016
G1 X4.9673 Y0.4586
G1 X4.9779 Y0.4521
G2 X4.9785 Y0.4495 I-0.001 J-0.0016
G1 X4.9725 Y0.4398
G2 X4.9628 Y0.4313 I-0.0197 J0.0127
G0 Z0.125
G0 X4.9861 Y0.4917
G0 Z0.0745
G1 F20.0 Z-0.003
G3 F40.0 X4.9867 Y0.4916 I0.0007 J0.0017
G1 X4.9947
G3 X4.9966 Y0.4935 I0.0 J0.0019
G1 Y0.5195
G1 Y0.5454
G3 X4.9947 Y0.5473 I-0.0019 J0.0
G1 X4.9545
G1 X4.9142
G3 X4.9123 Y0.5454 I0.0 J-0.0019
G1 Y0.5351
G1 Y0.5247
G3 X4.9142 Y0.5228 I0.0019 J0.0
G1 X4.9405
G1 X4.9655
G1 X4.971 Y0.5085
G3 X4.986 Y0.4918 I0.0247 J0.007
G1 X4.9861 Y0.4917
G0 Z0.125
G0 X4.9844 Y0.5544
G0 Z0.0745
G1 F20.0 Z-0.003
G3 F40.0 X4.985 Y0.5545 I-0.0001 J0.0019
G3 X5.0061 Y0.5697 I-0.0176 J0.0466
G1 X5.0186 Y0.5839
G3 X5.0184 Y0.5866 I-0.0014 J0.0012
G1 X5.0058 Y0.5971
G1 X4.9931 Y0.6076
G3 X4.9916 Y0.608 I-0.0012 J-0.0014
G1 X4.9554 Y0.6006
G1 X4.9192 Y0.5932
G3 X4.9177 Y0.5917 I0.0004 J-0.0018
G1 X4.9143 Y0.5739
G1 X4.9109 Y0.5562
G3 X4.9127 Y0.554 I0.0018 J-0.0004
G1 X4.9238
G3 X4.9369 Y0.5661 I0.0001 J0.0129
G3 Y0.5662 I-0.0019 J0.0001
G1 Y0.5747
G1 X4.9558
G1 X4.9747
G1 Y0.5663
G3 X4.9841 Y0.5544 I0.0108 J-0.0012
G3 X4.9844 I0.0002 J0.0019
G0 Z0.125
G0 Y0.6163
G0 Z0.0745
G1 F20.0 Z-0.003
G1 F40.0 X4.9857
G3 X4.9873 Y0.6172 I0.0 J0.0019
G1 X4.992 Y0.625
G3 X4.9922 Y0.6255 I-0.0016 J0.001
G3 X4.9967 Y0.6623 I-0.1285 J0.0347
G1 X4.9966 Y0.6909
G3 X4.9947 Y0.6928 I-0.0019 J0.0
G1 X4.9545
G1 X4.9142
G3 X4.9123 Y0.6909 I0.0 J-0.0019
G1 Y0.6812
G1 Y0.6715
G3 X4.914 Y0.6696 I0.0019 J0.0
G1 X4.9418 Y0.6663
G1 X4.9683 Y0.6632
G1 X4.9722 Y0.6513
G1 X4.9757 Y0.6408
G1 X4.9462
G1 X4.9142
G3 X4.9123 Y0.6389 I0.0 J-0.0019
G1 Y0.6286
G1 Y0.6182
G3 X4.9142 Y0.6163 I0.0019 J0.0
G1 X4.95
G1 X4.9844
G0 Z0.125
G0 X4.9742 Y0.7098
G0 Z0.0745
G1 F20.0 Z-0.003
G3 F40.0 X4.9754 Y0.7105 I-0.0002 J0.0019
G1 X4.9891 Y0.7269
G1 X5.0028 Y0.7434
G3 X5.0029 Y0.7456 I-0.0014 J0.0012
G1 X4.992 Y0.7629
G1 X4.9811 Y0.7802
G3 X4.9795 Y0.7811 I-0.0016 J-0.001
G1 X4.9558
G1 X4.9321
G3 X4.9305 Y0.7802 I0.0 J-0.0019
G1 X4.9196 Y0.7629
G1 X4.9086 Y0.7456
G3 X4.9088 Y0.7434 I0.0016 J-0.001
G1 X4.9224 Y0.7269
G1 X4.9361 Y0.7105
G3 X4.9375 Y0.7098 I0.0014 J0.0012
G1 X4.9558
G1 X4.974
G3 X4.9742 I0.0 J0.0019
G0 Z0.125
G0 X4.963 Y0.7327
G0 Z0.0745
G1 F20.0 Z-0.003
G2 F40.0 X4.956 Y0.7306 I-0.0103 J0.0211
G2 X4.9556 I-0.0003 J0.0019
G2 X4.939 Y0.7411 I0.0024 J0.022
G1 X4.9331 Y0.7508
G2 X4.9337 Y0.7534 I0.0016 J0.001
G1 X4.9442 Y0.7599
G1 X4.9548 Y0.7664
G2 X4.9568 I0.001 J-0.0016
G1 X4.9673 Y0.7599
G1 X4.9779 Y0.7534
G2 X4.9785 Y0.7508 I-0.001 J-0.0016
G1 X4.9725 Y0.7411
G2 X4.963 Y0.7327 I-0.0197 J0.0127
G0 Z0.125
G0 X4.938 Y0.8036
G0 Z0.0745
G1 F20.0 Z-0.003
G3 F40.0 X4.9383 Y0.8038 I-0.0006 J0.0018
G1 X4.948 Y0.8098
G1 X4.9578 Y0.8158
G3 X4.9582 Y0.8186 I-0.001 J0.0016
G1 X4.9462 Y0.8331
G1 X4.9348 Y0.8468
G1 X4.9404 Y0.8615
G1 X4.946 Y0.876
G1 X4.9714
G1 X4.9967
G1 X5.0023 Y0.8615
G1 X5.0079 Y0.8468
G1 X4.9965 Y0.8331
G1 X4.9845 Y0.8186
G3 X4.9849 Y0.8158 I0.0014 J-0.0012
G1 X4.9947 Y0.8098
G1 X5.0044 Y0.8038
G3 X5.0068 Y0.8042 I0.001 J0.0016
G1 X5.0195 Y0.8195
G1 X5.0323 Y0.8349
G3 X5.0326 Y0.8365 I-0.0014 J0.0012
G1 X5.0262 Y0.8619
G1 X5.0199 Y0.8873
G3 X5.0186 Y0.8887 I-0.0018 J-0.0005
G1 X4.9971 Y0.8955
G1 X4.9756 Y0.9023
G3 X4.9746 Y0.9024 I-0.0006 J-0.0018
G1 X4.9495 Y0.8961
G1 X4.9245 Y0.8898
G3 X4.9231 Y0.8884 I0.0005 J-0.0018
G1 X4.9166 Y0.8625
G1 X4.9101 Y0.8365
G3 X4.9105 Y0.8349 I0.0018 J-0.0005
G1 X4.9232 Y0.8195
G1 X4.9359 Y0.8042
G3 X4.938 Y0.8036 I0.0014 J0.0012
G0 Z0.125
G0 X4.8162 Y0.8171
G0 Z0.0745
G1 F20.0 Z-0.003
G3 F40.0 X4.8159 Y0.8183 I-0.0019 J0.0002
G1 X4.805 Y0.8356
G1 X4.7941 Y0.8529
G3 X4.7925 Y0.8538 I-0.0016 J-0.001
G1 X4.7688
G1 X4.7451
G3 X4.7435 Y0.8529 I0.0 J-0.0019
G1 X4.7326 Y0.8356
G1 X4.7216 Y0.8183
G3 X4.7218 Y0.8161 I0.0016 J-0.001
G1 X4.7354 Y0.7996
G1 X4.7491 Y0.7832
G3 X4.7505 Y0.7825 I0.0014 J0.0012
G1 X4.7688
G1 X4.787
G3 X4.7884 Y0.7832 I0.0 J0.0019
G1 X4.8021 Y0.7996
G1 X4.8158 Y0.8161
G3 X4.8162 Y0.8171 I-0.0014 J0.0012
G0 Z0.125
G0 X4.7917 Y0.824
G0 Z0.0745
G1 F20.0 Z-0.003
G2 F40.0 X4.7915 Y0.8235 I-0.0018 J0.0005
G1 X4.7855 Y0.8138
G2 X4.769 Y0.8033 I-0.0197 J0.0127
G2 X4.7686 I-0.0003 J0.0019
G2 X4.752 Y0.8139 I0.0024 J0.022
G1 X4.7461 Y0.8235
G2 X4.7467 Y0.8261 I0.0016 J0.001
G1 X4.7572 Y0.8326
G1 X4.7678 Y0.8391
G2 X4.7698 I0.001 J-0.0016
G1 X4.7803 Y0.8326
G1 X4.7909 Y0.8261
G2 X4.7917 Y0.824 I-0.001 J-0.0016
G0 Z0.125
G0 X4.7971 Y0.866
G0 Z0.0745
G1 F20.0 Z-0.003
G3 F40.0 X4.798 Y0.8661 I0.0002 J0.0019
G3 X4.8191 Y0.8814 I-0.0176 J0.0467
G1 X4.8316 Y0.8956
G3 X4.8314 Y0.8983 I-0.0014 J0.0012
G1 X4.8188 Y0.9088
G1 X4.8061 Y0.9193
G3 X4.8046 Y0.9197 I-0.0012 J-0.0014
G1 X4.7684 Y0.9123
G1 X4.7322 Y0.9049
G3 X4.7307 Y0.9034 I0.0004 J-0.0018
G1 X4.7273 Y0.8856
G1 X4.7239 Y0.8678
G3 X4.7257 Y0.8656 I0.0018 J-0.0004
G1 X4.7368
G3 X4.7499 Y0.8778 I0.0001 J0.0129
G3 Y0.8779 I-0.0019 J0.0001
G1 Y0.8864
G1 X4.7688
G1 X4.7877
G1 Y0.878
G3 X4.7971 Y0.866 I0.0108 J-0.0012
G0 Z0.125
G0 X4.7858 Y0.9297
G0 Z0.0745
G1 F20.0 Z-0.003
G1 F40.0 X4.8052 Y0.9332
G3 X4.8067 Y0.9347 I-0.0003 J0.0018
G1 X4.8104 Y0.954
G1 X4.8141 Y0.9732
G3 X4.8136 Y0.9749 I-0.0018 J0.0004
G1 X4.8022 Y0.9863
G1 X4.7909 Y0.9976
G3 X4.7877 Y0.9963 I-0.0013 J-0.0013
G1 Y0.9723
G1 Y0.9536
G1 X4.7719 Y0.9731
G1 X4.7528 Y0.9966
G3 X4.7504 Y0.9971 I-0.0015 J-0.0012
G1 X4.739 Y0.99
G1 X4.7276 Y0.983
G3 X4.7267 Y0.9814 I0.001 J-0.0016
G1 X4.7276 Y0.9504
G1 Y0.9503
G1 X4.7295 Y0.9207
G3 X4.7319 Y0.919 I0.0019 J0.0001
G2 X4.7689 Y0.9268 I0.0953 J-0.363
G1 X4.769
G1 X4.7858 Y0.9297
G0 Z0.125
G0 X4.7679 Y0.9515
G0 Z0.0745
G1 F20.0 Z-0.003
G2 F40.0 X4.7582 Y0.9487 I-0.008 J0.0097
G2 X4.7461 Y0.9616 I0.0009 J0.0129
G1 Y0.9726
G2 X4.749 Y0.9742 I0.0019 J0.0
G1 X4.7593 Y0.9678
G2 X4.7705 Y0.9559 I-0.0113 J-0.0218
G2 X4.7703 Y0.9541 I-0.0017 J-0.0008
G2 X4.7679 Y0.9515 I-0.0104 J0.007
G0 Z0.125
G0 Y1.0111
G0 Z0.0745
G1 F20.0 Z-0.003
G1 F40.0 X4.7844
G1 X4.8415
G3 X4.8434 Y1.0129 I0.0 J0.0019
G1 Y1.0233
G1 Y1.0337
G3 X4.8415 Y1.0356 I-0.0019 J0.0
G1 X4.7844
G1 X4.7272
G3 X4.7253 Y1.0337 I0.0 J-0.0019
G1 Y1.0233
G1 Y1.0129
G3 X4.7272 Y1.0111 I0.0019 J0.0
G1 X4.7679
G0 Z0.125
G0 Y1.0526
G0 Z0.0745
G1 F20.0 Z-0.003
G1 F40.0 X4.7844
G1 X4.8415
G3 X4.8434 Y1.0545 I0.0 J0.0019
G1 Y1.0649
G1 Y1.0753
G3 X4.8415 Y1.0771 I-0.0019 J0.0
G1 X4.7844
G1 X4.7272
G3 X4.7253 Y1.0753 I0.0 J-0.0019
G1 Y1.0649
G1 Y1.0545
G3 X4.7272 Y1.0526 I0.0019 J0.0
G1 X4.7679
G0 Z0.125
G0 Y1.0942
G0 Z0.0745
G1 F20.0 Z-0.003
G1 F40.0 X4.7688
G1 X4.8103
G3 X4.8122 Y1.0961 I0.0 J0.0019
G1 Y1.1064
G1 Y1.1168
G3 X4.8103 Y1.1187 I-0.0019 J0.0
G1 X4.7688
G1 X4.7272
G3 X4.7253 Y1.1168 I0.0 J-0.0019
G1 Y1.1064
G1 Y1.0961
G3 X4.7272 Y1.0942 I0.0019 J0.0
G1 X4.7679
G0 Z0.125
G0 X4.7601 Y1.1358
G0 Z0.0745
G1 F20.0 Z-0.003
G3 F40.0 X4.7616 Y1.1382 I-0.0003 J0.0018
G1 X4.755 Y1.1589
G1 X4.7491 Y1.1773
G1 X4.7688
G1 X4.7884
G1 X4.7826 Y1.1589
G1 X4.776 Y1.1382
G3 X4.7778 Y1.1357 I0.0018 J-0.0006
G1 X4.7892
G3 X4.7896 Y1.1358 I0.0 J0.0019
G3 X4.8084 Y1.1527 I-0.0062 J0.0257
G1 X4.8144 Y1.1684
G3 X4.8141 Y1.1702 I-0.0017 J0.0007
G1 X4.8013 Y1.1857
G1 X4.7884 Y1.2011
G3 X4.787 Y1.2018 I-0.0014 J-0.0012
G1 X4.7688
G1 X4.7505
G3 X4.7491 Y1.2011 I0.0 J-0.0019
G1 X4.7363 Y1.1857
G1 X4.7235 Y1.1702
G3 X4.7231 Y1.1684 I0.0014 J-0.0012
G1 X4.7292 Y1.1527
G3 X4.748 Y1.1358 I0.0236 J0.0073
G3 X4.7484 Y1.1357 I0.0004 J0.0018
G1 X4.7598
G3 X4.7601 Y1.1358 I0.0 J0.0019
G0 Z0.125
G0 X4.8198 Y1.1111
G0 Z0.0745
G1 F20.0 Z-0.003
G3 F40.0 X4.8188 Y1.1064 I0.0114 J-0.0047
G3 X4.8311 Y1.0942 I0.0123 J0.0
G3 X4.8434 Y1.1064 I0.0 J0.0123
G3 X4.8311 Y1.1187 I-0.0123 J0.0
G3 X4.8198 Y1.1111 I0.0 J-0.0123
G0 Z0.125
G0 X4.8864
G0 Z0.0745
G1 F20.0 Z-0.003
G1 F40.0 Y1.0904
G1 Y1.0597
G3 X4.8881 Y1.0578 I0.0019 J0.0
G1 X4.9414 Y1.0547
G1 X4.9946 Y1.0516
G3 X4.9966 Y1.0535 I0.0001 J0.0019
G1 Y1.0798
G1 Y1.1061
G3 X4.9959 Y1.1075 I-0.0019 J0.0
G1 X4.9837 Y1.1176
G1 X4.9715 Y1.1277
G3 X4.9702 Y1.1282 I-0.0012 J-0.0014
G1 X4.9292 Y1.1255
G1 X4.8881 Y1.1229
G3 X4.8864 Y1.1211 I0.0001 J-0.0019
G1 Y1.1111
G0 Z0.125
G0 X4.9041 Y1.1034
G0 Z0.0745
G1 F20.0 Z-0.003
G2 F40.0 X4.9064 Y1.1075 I0.0243 J-0.0106
G2 X4.9092 Y1.1078 I0.0016 J-0.001
G2 X4.9197 Y1.0915 I-0.0332 J-0.0329
G1 X4.9257 Y1.0759
G2 X4.924 Y1.0734 I-0.0017 J-0.0007
G1 X4.9139
G1 X4.9038
G2 X4.902 Y1.0753 I0.0 J0.0019
G1 Y1.0908
G2 X4.9041 Y1.1034 I0.0265 J0.002
G0 Z0.125
G0 X4.9329 Y1.0951
G0 Z0.0745
G1 F20.0 Z-0.003
G2 F40.0 X4.9337 Y1.0962 I0.0018 J-0.0005
G1 X4.9442 Y1.1027
G1 X4.9548 Y1.1093
G2 X4.9568 I0.001 J-0.0016
G1 X4.9673 Y1.1027
G1 X4.9779 Y1.0962
G2 X4.9785 Y1.0936 I-0.001 J-0.0016
G1 X4.9725 Y1.084
G1 Y1.0839
G2 X4.956 Y1.0734 I-0.0197 J0.0127
G2 X4.9556 I-0.0003 J0.0019
G2 X4.939 Y1.084 I0.0024 J0.022
G1 X4.9331 Y1.0936
G2 X4.9329 Y1.0951 I0.0016 J0.001
G0 Z0.125
G0 X4.922 Y1.138
G0 Z0.0745
G1 F20.0 Z-0.003
G2 F40.0 X4.9559 Y1.1449 I0.0928 J-0.3671
G1 X4.956
G1 X4.9922 Y1.1513
G3 X4.9937 Y1.1528 I-0.0003 J0.0018
G1 X4.9974 Y1.1721
G1 X5.0011 Y1.1914
G3 X5.0006 Y1.1931 I-0.0018 J0.0004
G1 X4.9892 Y1.2044
G1 X4.9779 Y1.2158
G3 X4.9747 Y1.2145 I-0.0013 J-0.0013
G1 Y1.1905
G1 Y1.1718
G1 X4.9589 Y1.1912
G1 X4.9398 Y1.2148
G3 X4.9374 Y1.2152 I-0.0015 J-0.0012
G1 X4.926 Y1.2082
G1 X4.9146 Y1.2012
G3 X4.9137 Y1.1995 I0.001 J-0.0016
G1 X4.9146 Y1.1685
G1 X4.9165 Y1.1389
G3 X4.9189 Y1.1372 I0.0019 J0.0001
G2 X4.922 Y1.138 I0.0959 J-0.3663
G0 Z0.125
G0 X4.9396 Y1.1686
G0 Z0.0745
G1 F20.0 Z-0.003
G2 F40.0 X4.9331 Y1.1798 I0.0064 J0.0112
G1 Y1.1908
G2 X4.936 Y1.1924 I0.0019 J0.0
G1 X4.9463 Y1.186
G2 X4.9575 Y1.1741 I-0.0113 J-0.0218
G2 X4.9573 Y1.1723 I-0.0017 J-0.0008
G2 X4.9452 Y1.1669 I-0.0104 J0.007
G2 X4.9396 Y1.1686 I0.0009 J0.0129
G0 Z0.125
G0 X4.9271 Y1.2192
G0 Z0.0745
G1 F20.0 Z-0.003
G3 F40.0 X4.9369 Y1.231 I-0.0031 J0.0126
G3 Y1.2311 I-0.0019 J0.0001
G1 Y1.2396
G1 X4.9558
G1 X4.9747
G1 Y1.2312
G3 X4.9841 Y1.2193 I0.0108 J-0.0012
G3 X4.985 Y1.2194 I0.0002 J0.0019
G3 X5.0061 Y1.2346 I-0.0175 J0.0465
G1 X5.0186 Y1.2488
G3 X5.0184 Y1.2515 I-0.0014 J0.0012
G1 X5.0058 Y1.262
G1 X4.9931 Y1.2725
G3 X4.9916 Y1.2729 I-0.0012 J-0.0014
G1 X4.9554 Y1.2655
G1 X4.9192 Y1.2581
G3 X4.9177 Y1.2566 I0.0004 J-0.0018
G1 X4.9143 Y1.2388
G1 X4.9109 Y1.2211
G3 X4.9127 Y1.2188 I0.0018 J-0.0004
G1 X4.9238
G3 X4.9271 Y1.2192 I0.0001 J0.0129
G0 Z0.125
G0 Y1.2812
G0 Z0.0745
G1 F20.0 Z-0.003
G1 F40.0 X4.9714
G1 X5.0285
G3 X5.0304 Y1.2831 I0.0 J0.0019
G1 Y1.2934
G1 Y1.3038
G3 X5.0285 Y1.3057 I-0.0019 J0.0
G1 X4.9714
G1 X4.9142
G3 X4.9123 Y1.3038 I0.0 J-0.0019
G1 Y1.2934
G1 Y1.2831
G3 X4.9142 Y1.2812 I0.0019 J0.0
G1 X4.9271
G0 Z0.125
G0 X4.9371 Y1.3228
G0 Z0.0745
G1 F20.0 Z-0.003
G3 F40.0 X4.9375 Y1.3227 I0.0004 J0.0018
G1 X4.9558
G1 X4.974
G3 X4.9754 Y1.3234 I0.0 J0.0019
G1 X4.9891 Y1.3399
G1 X5.0028 Y1.3563
G3 X5.0029 Y1.3585 I-0.0014 J0.0012
G1 X4.992 Y1.3758
G1 X4.9811 Y1.3931
G3 X4.9795 Y1.394 I-0.0016 J-0.001
G1 X4.9558
G1 X4.9321
G3 X4.9305 Y1.3931 I0.0 J-0.0019
G1 X4.9196 Y1.3758
G1 X4.9086 Y1.3585
G3 X4.9088 Y1.3563 I0.0016 J-0.001
G1 X4.9224 Y1.3399
G1 X4.9361 Y1.3234
G3 X4.9371 Y1.3228 I0.0014 J0.0012
G0 Z0.125
G0 X4.9483 Y1.3456
G0 Z0.0745
G1 F20.0 Z-0.003
G2 F40.0 X4.939 Y1.3541 I0.0097 J0.0199
G1 X4.9331 Y1.3637
G2 X4.9337 Y1.3663 I0.0016 J0.001
G1 X4.9442 Y1.3728
G1 X4.9548 Y1.3794
G2 X4.9568 I0.001 J-0.0016
G1 X4.9673 Y1.3728
G1 X4.9779 Y1.3663
G2 X4.9785 Y1.3637 I-0.001 J-0.0016
G1 X4.9725 Y1.3541
G1 Y1.354
G2 X4.956 Y1.3435 I-0.0197 J0.0127
G2 X4.9556 I-0.0003 J0.0019
G2 X4.9483 Y1.3456 I0.0024 J0.022
G0 Z0.125
G0 X4.9713 Y1.4234
G0 Z0.0745
G1 F20.0 Z-0.003
G2 F40.0 X5.0133 Y1.4093 I-0.1817 J-0.6133
G1 X5.0278 Y1.4037
G3 X5.0304 Y1.4055 I0.0007 J0.0017
G1 Y1.4166
G1 Y1.4277
G3 X5.029 Y1.4295 I-0.0019 J0.0
G1 X4.986 Y1.4424
G1 X4.9486 Y1.4536
G1 X4.986 Y1.466
G1 X5.0291 Y1.4804
G3 X5.0304 Y1.4822 I-0.0006 J0.0018
G1 Y1.4928
G1 Y1.5034
G3 X5.0278 Y1.5052 I-0.0019 J0.0
G1 X5.0134 Y1.4996
G1 X4.9563 Y1.4813
G1 X4.9137 Y1.4686
G3 X4.9123 Y1.4668 I0.0005 J-0.0018
G1 Y1.4545
G1 Y1.4422
G3 X4.9137 Y1.4404 I0.0019 J0.0
G1 X4.9563 Y1.4276
G1 X4.9564
G2 X4.9713 Y1.4234 I-0.1668 J-0.6176
G0 Z0.125
G0 X4.8432 Y1.3757
G0 Z0.0745
G1 F20.0 Z-0.003
G3 F40.0 X4.8428 Y1.3764 I-0.0018 J-0.0007
G1 X4.8265 Y1.3927
G1 X4.8102 Y1.409
G3 X4.8088 Y1.4096 I-0.0013 J-0.0013
G1 X4.7844
G1 X4.7599
G3 X4.7585 Y1.409 I0.0 J-0.0019
G1 X4.7422 Y1.3927
G1 X4.7259 Y1.3764
G3 X4.7253 Y1.3751 I0.0013 J-0.0013
G1 Y1.3558
G1 Y1.3365
G3 X4.7259 Y1.3352 I0.0019 J0.0
G1 X4.7422 Y1.3188
G1 X4.7585 Y1.3025
G3 X4.7599 Y1.302 I0.0013 J0.0013
G1 X4.7844
G1 X4.8088
G3 X4.8102 Y1.3025 I0.0 J0.0019
G1 X4.8265 Y1.3188
G1 X4.8428 Y1.3352
G3 X4.8434 Y1.3365 I-0.0013 J0.0013
G1 Y1.3558
G1 Y1.3751
G3 X4.8432 Y1.3757 I-0.0019 J0.0
G0 Z0.125
G0 X4.8206 Y1.367
G0 Z0.0745
G1 F20.0 Z-0.003
G1 F40.0 X4.8247 Y1.3564
G2 Y1.3551 I-0.0017 J-0.0007
G1 X4.8184 Y1.3388
G1 X4.8122 Y1.3225
G2 X4.8102 Y1.3214 I-0.0017 J0.0007
G1 X4.7816 Y1.3247
G1 X4.753 Y1.3279
G2 X4.7513 Y1.3298 I0.0002 J0.0019
G1 Y1.3558
G1 Y1.3817
G2 X4.753 Y1.3836 I0.0019 J0.0
G1 X4.7816 Y1.3869
G1 X4.8102 Y1.3902
G2 X4.8122 Y1.389 I0.0002 J-0.0019
G1 X4.8184 Y1.3727
G1 X4.8206 Y1.367
G0 Z0.125
G0 X4.801 Y1.2849
G0 Z0.0745
G1 F20.0 Z-0.003
G3 F40.0 X4.8006 I-0.0004 J-0.0018
G1 X4.7837
G1 X4.7668
G3 X4.765 Y1.2835 I0.0 J-0.0019
G1 X4.7588 Y1.2602
G1 X4.7544 Y1.2435
G1 X4.7492 Y1.2628
G1 X4.7423 Y1.2887
G3 X4.7387 Y1.289 I-0.0018 J-0.0005
G1 X4.731 Y1.2708
G1 X4.7233 Y1.2526
G3 X4.7232 Y1.2512 I0.0017 J-0.0007
G1 X4.7292 Y1.2356
G1 X4.7352 Y1.22
G3 X4.737 Y1.2188 I0.0017 J0.0007
G1 X4.7538
G1 X4.7707
G3 X4.7725 Y1.2202 I0.0 J0.0019
G1 X4.7788 Y1.2436
G1 X4.7832 Y1.2602
G1 X4.7883 Y1.241
G1 X4.7953 Y1.215
G3 X4.7988 Y1.2148 I0.0018 J0.0005
G1 X4.8065 Y1.233
G1 X4.8143 Y1.2512
G3 Y1.2526 I-0.0017 J0.0007
G1 X4.8083 Y1.2681
G1 X4.8023 Y1.2837
G3 X4.801 Y1.2849 I-0.0017 J-0.0007
G0 Z0.125
G0 X4.6875
G0 Z0.0745
G1 F20.0 Z-0.003
G1 F40.0 Y2.185
G1 X4.7259
G1 X4.7653
G1 X4.7777 Y2.1701
G1 X4.7907 Y2.1545
G3 X4.7921 Y2.1538 I0.0014 J0.0012
G1 X4.8147
G1 X4.8373
G3 X4.8387 Y2.1544 I0.0 J0.0019
G1 X4.8511 Y2.1669
G1 X4.8636 Y2.1793
G3 X4.8641 Y2.1807 I-0.0013 J0.0013
G1 Y2.2025
G1 Y2.2243
G3 X4.8636 Y2.2256 I-0.0019 J0.0
G1 X4.8511 Y2.2381
G1 X4.8387 Y2.2505
G3 X4.8373 Y2.2511 I-0.0013 J-0.0013
G1 X4.8147
G1 X4.7921
G3 X4.7907 Y2.2504 I0.0 J-0.0019
G1 X4.7777 Y2.2348
G1 X4.7653 Y2.2199
G1 X4.7259
G1 X4.6875
G1 Y2.5141
G1 Y2.8102
G3 X4.6857 Y2.8121 I-0.0019 J0.0
G1 X3.2543
G1 X1.8238
G1 X1.7469 Y2.8895
G1 X1.6695 Y2.9674
G3 X1.6682 Y2.9679 I-0.0013 J-0.0013
G1 X1.1615
G1 X0.6548
G3 X0.6529 Y2.9661 I0.0 J-0.0019
G1 Y2.6076
G1 Y2.2492
G3 X0.6548 Y2.2473 I0.0019 J0.0
G1 X0.7067
G1 X0.7568
G1 Y2.2181
G1 Y2.1869
G3 X0.7587 Y2.185 I0.0019 J0.0
G1 X0.8094
G1 X0.8587
G1 X0.8639 Y2.1649
G1 X0.8696 Y2.1433
G3 X0.8716 Y2.1419 I0.0018 J0.0005
G1 X0.9009 Y2.1453
G1 X0.9303 Y2.1487
G3 X0.9319 Y2.1505 I-0.0002 J0.0019
G1 Y2.2025
G1 Y2.2544
G3 X0.9303 Y2.2563 I-0.0019 J0.0
G1 X0.9009 Y2.2596
G1 X0.8716 Y2.263
G3 X0.8696 Y2.2616 I-0.0002 J-0.0019
G1 X0.8639 Y2.2401
G1 X0.8587 Y2.2199
G1 X0.825
G1 X0.7917
G1 Y2.2492
G1 Y2.2804
G3 X0.7898 Y2.2823 I-0.0019 J0.0
G1 X0.7379
G1 X0.6878
G1 Y2.5972
G1 Y2.9122
G1 X1.1511
G1 X1.6156
G1 X1.6797 Y2.8475
G1 X1.7431 Y2.7835
G1 X1.6976 Y2.7389
G1 X1.6508 Y2.6929
G3 X1.6502 Y2.6916 I0.0013 J-0.0013
G1 Y2.5964
G1 Y2.502
G1 X1.6353 Y2.4896
G1 X1.6197 Y2.4767
G3 X1.6191 Y2.4752 I0.0012 J-0.0014
G1 Y2.4526
G1 Y2.43
G3 X1.6196 Y2.4287 I0.0019 J0.0
G1 X1.6321 Y2.4162
G1 X1.6445 Y2.4037
G3 X1.6459 Y2.4032 I0.0013 J0.0013
G1 X1.6677
G1 X1.6895
G3 X1.6908 Y2.4037 I0.0 J0.0019
G1 X1.7033 Y2.4162
G1 X1.7158 Y2.4287
G3 X1.7163 Y2.43 I-0.0013 J0.0013
G1 Y2.4526
G1 Y2.4752
G3 X1.7156 Y2.4767 I-0.0019 J0.0
G1 X1.7 Y2.4896
G1 X1.6851 Y2.502
G1 Y2.5807
G1 Y2.6596
G1 X1.7343 Y2.708
G1 X1.7834 Y2.7564
G1 X2.3096
G1 X2.8346
G1 Y2.7032
G1 Y2.6489
G1 X2.8241 Y2.6384
G1 X2.813 Y2.6274
G3 X2.8125 Y2.6259 I0.0013 J-0.0013
G1 X2.8157 Y2.5803
G1 X2.819 Y2.5348
G3 X2.8209 Y2.533 I0.0019 J0.0001
G1 X2.852
G1 X2.8832
G3 X2.8851 Y2.5348 I0.0 J0.0019
G1 X2.8883 Y2.5803
G1 X2.8916 Y2.6259
G3 X2.891 Y2.6274 I-0.0019 J0.0001
G1 X2.88 Y2.6384
G1 X2.8695 Y2.6489
G1 Y2.7032
G1 Y2.7564
G1 X3.7507
G1 X4.6318
G1 Y2.6336
G1 Y2.5108
G1 X4.5571
G1 X4.4813
G1 X4.4689 Y2.5257
G1 X4.456 Y2.5413
G3 X4.4546 Y2.542 I-0.0014 J-0.0012
G1 X4.4315
G1 X4.4084
G3 X4.407 Y2.5414 I0.0 J-0.0019
G1 X4.3898 Y2.5224
G1 X4.3726 Y2.5034
G3 X4.3721 Y2.5021 I0.0014 J-0.0013
G1 Y2.4812
G1 Y2.4602
G3 X4.3727 Y2.4588 I0.0019 J0.0
G1 X4.3917 Y2.4416
G1 X4.4107 Y2.4244
G3 X4.412 Y2.424 I0.0013 J0.0014
G1 X4.4333
G1 X4.4546
G3 X4.456 Y2.4246 I0.0 J0.0019
G1 X4.4689 Y2.4402
G1 X4.4813 Y2.4551
G1 X4.5571
G1 X4.6318
G1 Y2.057
G1 Y1.6589
G1 X4.085
G1 X3.5372
G1 X3.5098 Y1.6875
G1 X3.4824 Y1.7161
G1 Y1.7776
G1 Y1.8391
G1 X3.4929 Y1.8496
G1 X3.504 Y1.8607
G3 X3.5045 Y1.8621 I-0.0013 J0.0013
G1 X3.5013 Y1.9077
G1 X3.498 Y1.9533
G3 X3.4961 Y1.955 I-0.0019 J-0.0001
G1 X3.4702
G1 X3.4442
G3 X3.4423 Y1.9531 I0.0 J-0.0019
G1 X3.4451 Y1.8674
G1 X3.4478 Y1.7836
G1 X3.3723
G1 X3.2958
G1 X3.2899 Y1.7931
G1 X3.2835 Y1.8035
G3 X3.2819 Y1.8044 I-0.0016 J-0.001
G1 X3.2587
G1 X3.2354
G3 X3.234 Y1.8038 I0.0 J-0.0019
G1 X3.2216 Y1.7914
G1 X3.2091 Y1.7789
G3 X3.2086 Y1.7776 I0.0013 J-0.0013
G1 Y1.7543
G1 Y1.731
G3 X3.2095 Y1.7294 I0.0019 J0.0
G1 X3.2198 Y1.723
G1 X3.2293 Y1.7171
G1 Y1.6253
G1 Y1.5343
G1 X3.1591
G1 X3.088
G1 X3.0822 Y1.5438
G1 X3.0757 Y1.5541
G3 X3.0742 Y1.555 I-0.0016 J-0.001
G1 X3.0494
G1 X3.0247
G3 X3.0231 Y1.5541 I0.0 J-0.0019
G1 X3.0167 Y1.5438
G1 X3.0108 Y1.5343
G1 X2.9767
G1 X2.9426
G1 X2.9367 Y1.5438
G1 X2.9303 Y1.5541
G3 X2.9287 Y1.555 I-0.0016 J-0.001
G1 X2.904
G1 X2.8792
G3 X2.8776 Y1.5541 I0.0 J-0.0019
G1 X2.8712 Y1.5438
G1 X2.8653 Y1.5343
G1 X2.4345
G1 X2.0045
G1 X2.0084 Y1.7427
G1 X2.0124 Y1.9531
G3 X2.0105 Y1.955 I-0.0019 J0.0
G1 X1.9845
G1 X1.9586
G3 X1.9567 Y1.9533 I0.0 J-0.0019
G1 X1.9534 Y1.9077
G1 X1.9502 Y1.8621
G3 X1.9507 Y1.8607 I0.0019 J-0.0001
G1 X1.9618 Y1.8496
G1 X1.9723 Y1.8391
G1 Y1.6861
G1 Y1.5343
G1 X1.2008
G1 X0.4285
G1 X0.4226 Y1.5438
G1 X0.4162 Y1.5541
G3 X0.4146 Y1.555 I-0.0016 J-0.001
G1 X0.3913
G1 X0.368
G3 X0.3667 Y1.5545 I0.0 J-0.0019
G1 X0.3542 Y1.542
G1 X0.3418 Y1.5296
G3 X0.3412 Y1.5282 I0.0013 J-0.0013
G1 Y1.5064
G1 Y1.4846
G3 X0.3418 Y1.4833 I0.0019 J0.0
G1 X0.3542 Y1.4708
G1 X0.3667 Y1.4583
G3 X0.368 Y1.4578 I0.0013 J0.0013
G1 X0.3913
G1 X0.4146
G3 X0.4162 Y1.4587 I0.0 J0.0019
G1 X0.4226 Y1.4691
G1 X0.4285 Y1.4786
G1 X1.6469
G1 X2.8653
G1 X2.8712 Y1.4691
G1 X2.8776 Y1.4587
G3 X2.8792 Y1.4578 I0.0016 J0.001
G1 X2.904
G1 X2.9287
G3 X2.9303 Y1.4587 I0.0 J0.0019
G1 X2.9367 Y1.4691
G1 X2.9426 Y1.4786
G1 X2.9767
G1 X3.0108
G1 X3.0167 Y1.4691
G1 X3.0231 Y1.4587
G3 X3.0247 Y1.4578 I0.0016 J0.001
G1 X3.0494
G1 X3.0742
G3 X3.0757 Y1.4587 I0.0 J0.0019
G1 X3.0822 Y1.4691
G1 X3.088 Y1.4786
G1 X3.1847
G1 X3.2825
G3 X3.2844 Y1.4804 I0.0 J0.0019
G1 X3.2873 Y1.6025
G1 X3.2902 Y1.7228
G1 X3.3689 Y1.7257
G1 X3.4475 Y1.7287
G1 Y1.7011
G1 Y1.6715
G3 X3.4481 Y1.6702 I0.0019 J0.0
G1 X3.4823 Y1.637
G1 X3.5166 Y1.6038
G3 X3.5179 Y1.6032 I0.0013 J0.0013
G1 X4.0758
G1 X4.6318
G1 Y0.9091
G1 Y0.2149
G1 X3.7669
G1 X2.901
G1 X2.8952 Y0.2244
G1 X2.8887 Y0.2348
G3 X2.8872 Y0.2356 I-0.0016 J-0.001
G1 X2.8624
G1 X2.8377
G3 X2.8361 Y0.2348 I0.0 J-0.0019
G1 X2.8297 Y0.2244
G1 X2.8238 Y0.2149
G1 X2.5449
G1 X2.265
G3 X2.2632 Y0.213 I0.0 J-0.0019
G1 Y0.1662
G1 Y0.1214
G1 X1.6431
G1 X1.023
G1 X1.0214 Y0.4831
G1 X1.0197 Y0.8448
G1 X1.0585
G1 X1.0976
G1 X1.1029 Y0.8247
G1 X1.1085 Y0.8032
G3 X1.1105 Y0.8018 I0.0018 J0.0005
G1 X1.1399 Y0.8051
G1 X1.1692 Y0.8085
G3 X1.1709 Y0.8104 I-0.0002 J0.0019
G1 Y0.8623
G1 Y0.9142
G3 X1.1692 Y0.9161 I-0.0019 J0.0
G1 X1.1406 Y0.9194
G1 X1.112 Y0.9227
G3 X1.11 Y0.9215 I-0.0002 J-0.0019
G1 X1.1038 Y0.9052
G1 X1.098 Y0.8901
G1 X1.0017
G1 X0.906
G1 Y0.9797
G1 Y1.0711
G3 X0.9054 Y1.0724 I-0.0019 J0.0
G1 X0.893 Y1.0849
G1 X0.8805 Y1.0974
G3 X0.8792 Y1.0979 I-0.0013 J-0.0013
G1 X0.8559
G1 X0.8326
G3 X0.831 Y1.0971 I0.0 J-0.0019
G1 X0.8149 Y1.074
G1 X0.8002 Y1.0531
G1 X0.7856 Y1.074
G1 X0.7694 Y1.0971
G3 X0.7679 Y1.0979 I-0.0015 J-0.0011
G1 X0.7446
G1 X0.7213
G3 X0.7199 Y1.0974 I0.0 J-0.0019
G1 X0.7075 Y1.0849
G1 X0.695 Y1.0724
G3 X0.6945 Y1.0711 I0.0013 J-0.0013
G1 Y1.0493
G1 Y1.0282
G1 X0.6589 Y0.9937
G1 X0.624 Y0.9599
G1 X0.6061 Y0.9761
G1 X0.5869 Y0.9935
G3 X0.5856 Y0.994 I-0.0013 J-0.0014
G1 X0.5643
G1 X0.543
G3 X0.5416 Y0.9934 I0.0 J-0.0019
G1 X0.5287 Y0.9778
G1 X0.5286 Y0.9777
G2 X0.5041 Y0.9629 I-0.0318 J0.0249
G2 X0.4796 Y0.9778 I0.0084 J0.0415
G1 X0.4667 Y0.9934
G3 X0.4652 Y0.994 I-0.0014 J-0.0012
G1 X0.4426
G1 X0.42
G3 X0.4187 Y0.9935 I0.0 J-0.0019
G1 X0.4062 Y0.981
G1 X0.3937 Y0.9686
G3 X0.3932 Y0.9672 I0.0013 J-0.0013
G1 Y0.9454
G1 Y0.9236
G3 X0.3937 Y0.9223 I0.0019 J0.0
G1 X0.4062 Y0.9098
G1 X0.4187 Y0.8973
G3 X0.42 Y0.8968 I0.0013 J0.0013
G1 X0.4426
G1 X0.4652
G3 X0.4667 Y0.8975 I0.0 J0.0019
G1 X0.4796 Y0.9131
G2 X0.5041 Y0.9279 I0.0318 J-0.0249
G2 X0.5287 Y0.9131 I-0.0084 J-0.0415
G1 X0.5416 Y0.8975
G3 X0.543 Y0.8968 I0.0014 J0.0012
G1 X0.5665
G1 X0.5899
G3 X0.5913 Y0.8975 I0.0 J0.0019
G1 X0.6043 Y0.9131
G1 X0.6166 Y0.928
G1 X0.6384
G1 X0.6611
G3 X0.6624 Y0.9285 I0.0 J0.0019
G1 X0.6977 Y0.9649
G1 X0.7324 Y1.0007
G1 X0.7555
G1 X0.7776
G1 Y0.9091
G1 Y0.8156
G3 X0.7794 Y0.8137 I0.0019 J0.0
G1 X0.8636
G1 X0.9458
G1 X0.9436 Y0.5429
G3 X0.9425 Y0.3532 I4.9373 J-0.1238
G3 X0.9426 Y0.1636 I3.616 J-0.0933
G1 X0.9438 Y0.0571
G3 X0.9457 Y0.0553 I0.0019 J0.0
G1 X1.6365
G1 X2.3274
G3 X2.3293 Y0.0572 I0.0 J0.0019
G1 Y0.1091
G1 Y0.1592
G1 X2.3689
G1 X2.4086
G1 Y0.1415
G1 Y0.1229
G1 X2.3937 Y0.1105
G1 X2.3781 Y0.0976
G3 X2.3775 Y0.0962 I0.0012 J-0.0014
G1 Y0.0736
G1 Y0.0509
G3 X2.378 Y0.0496 I0.0019 J0.0
G1 X2.3905 Y0.0371
G1 X2.4029 Y0.0247
G3 X2.4043 Y0.0241 I0.0013 J0.0013
G1 X2.4261
G1 X2.4479
G3 X2.4492 Y0.0247 I0.0 J0.0019
G1 X2.4617 Y0.0371
G1 X2.4741 Y0.0496
G3 X2.4747 Y0.0509 I-0.0013 J0.0013
G1 Y0.0736
G1 Y0.0962
G3 X2.474 Y0.0976 I-0.0019 J0.0
G1 X2.4584 Y0.1105
G1 X2.4435 Y0.1229
G1 Y0.1415
G1 Y0.1592
G1 X2.4936
G1 X2.5437
G1 Y0.1415
G1 Y0.1229
G1 X2.5288 Y0.1105
G1 X2.5132 Y0.0976
G3 X2.5125 Y0.0962 I0.0012 J-0.0014
G1 Y0.0736
G1 Y0.0509
G3 X2.5131 Y0.0496 I0.0019 J0.0
G1 X2.5255 Y0.0371
G1 X2.538 Y0.0247
G3 X2.5393 Y0.0241 I0.0013 J0.0013
G1 X2.5611
G1 X2.5829
G3 X2.5843 Y0.0247 I0.0 J0.0019
G1 X2.5967 Y0.0371
G1 X2.6092 Y0.0496
G3 X2.6098 Y0.0509 I-0.0013 J0.0013
G1 Y0.0736
G1 Y0.0962
G3 X2.6091 Y0.0976 I-0.0019 J0.0
G1 X2.5935 Y0.1105
G1 X2.5786 Y0.1229
G1 Y0.1415
G1 Y0.1592
G1 X2.7008
G1 X2.8238
G1 X2.8297 Y0.1497
G1 X2.8361 Y0.1393
G3 X2.8377 Y0.1384 I0.0016 J0.001
G1 X2.8624
G1 X2.8872
G3 X2.8887 Y0.1393 I0.0 J0.0019
G1 X2.8952 Y0.1497
G1 X2.901 Y0.1592
G1 X3.7928
G1 X4.6857
G3 X4.6875 Y0.1611 I0.0 J0.0019
G1 Y1.174
G1 Y1.2849
G0 Z0.125
G0 X4.5525
G0 Z0.0745
G1 F20.0 Z-0.003
G1 F40.0 Y1.3973
G3 X4.5506 Y1.3992 I-0.0019 J0.0
G1 X2.7299
G1 X0.9101
G1 X0.8977 Y1.4191
G1 X0.8847 Y1.4399
G3 X0.8831 Y1.4408 I-0.0016 J-0.001
G1 X0.8579
G1 X0.8326
G3 X0.831 Y1.44 I0.0 J-0.0019
G1 X0.8149 Y1.4169
G1 X0.8002 Y1.396
G1 X0.7856 Y1.4169
G1 X0.7694 Y1.44
G3 X0.7679 Y1.4408 I-0.0015 J-0.0011
G1 X0.7426
G1 X0.7173
G3 X0.7157 Y1.4399 I0.0 J-0.0019
G1 X0.7027 Y1.4191
G1 X0.6903 Y1.3992
G1 X0.4809
G1 X0.2723
G1 Y1.6986
G1 Y1.998
G1 X0.3919
G1 X0.509
G1 X0.4997 Y1.9887
G1 X0.4872 Y1.9763
G3 X0.4867 Y1.975 I0.0013 J-0.0013
G1 Y1.9531
G1 Y1.9313
G3 X0.4872 Y1.93 I0.0019 J0.0
G1 X0.4997 Y1.9175
G1 X0.5122 Y1.9051
G3 X0.5135 Y1.9045 I0.0013 J0.0013
G1 X0.5353
G1 X0.5571
G3 X0.5584 Y1.9051 I0.0 J0.0019
G1 X0.5709 Y1.9175
G1 X0.5834 Y1.93
G3 X0.5839 Y1.9313 I-0.0013 J0.0013
G1 Y1.9531
G1 Y1.975
G3 X0.5834 Y1.9763 I-0.0019 J0.0
G1 X0.5709 Y1.9887
G1 X0.5616 Y1.998
G1 X0.7202
G1 X0.8815
G1 Y1.9812
G2 X0.8709 Y1.9527 I-0.0456 J0.0007
G1 X0.8599 Y1.9417
G3 X0.8594 Y1.9402 I0.0013 J-0.0013
G1 X0.8626 Y1.8947
G1 X0.8659 Y1.8491
G3 X0.8677 Y1.8474 I0.0019 J0.0001
G1 X0.8989
G1 X0.9301
G3 X0.9319 Y1.8491 I0.0 J0.0019
G1 X0.9352 Y1.8947
G1 X0.9385 Y1.9402
G3 X0.9379 Y1.9417 I-0.0019 J0.0001
G1 X0.9269 Y1.9527
G2 X0.9164 Y1.9812 I0.0367 J0.0298
G1 Y1.998
G1 X1.3924
G1 X1.8684
G1 Y1.9812
G2 X1.8578 Y1.9527 I-0.0456 J0.0007
G1 X1.8468 Y1.9417
G3 X1.8463 Y1.9402 I0.0013 J-0.0013
G1 X1.8496 Y1.8947
G1 X1.8528 Y1.8491
G3 X1.8547 Y1.8474 I0.0019 J0.0001
G1 X1.8859
G1 X1.917
G3 X1.9189 Y1.8491 I0.0 J0.0019
G1 X1.9221 Y1.8947
G1 X1.9254 Y1.9402
G3 X1.9249 Y1.9417 I-0.0019 J0.0001
G1 X1.9139 Y1.9527
G2 X1.9033 Y1.9812 I0.0367 J0.0298
G1 Y1.998
G1 X2.6287
G1 X3.354
G1 Y1.9812
G2 X3.3434 Y1.9527 I-0.0456 J0.0007
G1 X3.3324 Y1.9417
G3 X3.3319 Y1.9402 I0.0013 J-0.0013
G1 X3.3352 Y1.8947
G1 X3.3384 Y1.8491
G3 X3.3403 Y1.8474 I0.0019 J0.0001
G1 X3.3715
G1 X3.4026
G3 X3.4045 Y1.8491 I0.0 J0.0019
G1 X3.4078 Y1.8947
G1 X3.411 Y1.9402
G3 X3.4105 Y1.9417 I-0.0019 J0.0001
G1 X3.3995 Y1.9527
G2 X3.3889 Y1.9812 I0.0367 J0.0298
G1 Y1.998
G1 X3.5896
G1 X3.7922
G3 X3.7941 Y1.9999 I0.0 J0.0019
G1 Y2.1557
G1 Y2.3097
G1 X4.014
G1 X4.2349
G1 X4.2531 Y2.2895
G1 X4.2719 Y2.2687
G3 X4.2733 Y2.2681 I0.0014 J0.0013
G1 X4.2944
G1 X4.3155
G3 X4.3168 Y2.2686 I0.0 J0.0019
G1 X4.3408 Y2.2912
G1 X4.3636 Y2.3126
G1 X4.3864 Y2.2912
G1 X4.4104 Y2.2686
G3 X4.4117 Y2.2681 I0.0013 J0.0014
G1 X4.4337
G3 X4.4626 Y2.2776 I0.0026 J0.0411
G3 X4.463 Y2.278 I-0.0012 J0.0014
G1 X4.4679 Y2.2859
G1 X4.4929 Y2.2811
G1 X4.5192 Y2.2761
G3 X4.5208 Y2.2765 I0.0004 J0.0018
G1 X4.5363 Y2.2894
G1 X4.5518 Y2.3023
G3 X4.5525 Y2.3037 I-0.0012 J0.0014
G1 Y2.3271
G1 Y2.3506
G3 X4.5518 Y2.352 I-0.0019 J0.0
G1 X4.5363 Y2.3649
G1 X4.5208 Y2.3778
G3 X4.5192 Y2.3782 I-0.0012 J-0.0014
G1 X4.4929 Y2.3731
G1 X4.4679 Y2.3684
G1 X4.463 Y2.3763
G3 X4.4626 Y2.3767 I-0.0016 J-0.001
G3 X4.4337 Y2.3861 I-0.0267 J-0.0329
G1 X4.4117
G3 X4.4104 Y2.3856 I0.0 J-0.0019
G1 X4.3864 Y2.363
G1 X4.3636 Y2.3417
G1 X4.3408 Y2.363
G1 X4.3168 Y2.3856
G3 X4.3155 Y2.3861 I-0.0013 J-0.0014
G1 X4.2944
G1 X4.2733
G3 X4.2719 Y2.3855 I0.0 J-0.0019
G1 X4.2531 Y2.3647
G1 X4.2349 Y2.3446
G1 X3.9984
G1 X3.761
G3 X3.7592 Y2.3427 I0.0 J-0.0019
G1 Y2.1869
G1 Y2.0329
G1 X2.0001
G1 X0.2392
G3 X0.2373 Y2.0311 I0.0 J-0.0019
G1 Y1.6986
G1 Y1.3662
G3 X0.2392 Y1.3643 I0.0019 J0.0
G1 X0.4724
G1 X0.7044
G1 X0.7103 Y1.3548
G1 X0.7167 Y1.3444
G3 X0.7183 Y1.3435 I0.0016 J0.001
G1 X0.7386
G3 X0.7388 I0.0 J0.0019
G3 X0.7805 Y1.3566 I-0.0119 J0.1105
G3 X0.7806 Y1.3567 I-0.0009 J0.0016
G1 X0.8002 Y1.369
G1 X0.8199 Y1.3567
G3 X0.8617 Y1.3435 I0.0454 J0.071
G1 X0.8618
G1 X0.8821
G3 X0.8837 Y1.3444 I0.0 J0.0019
G1 X0.8901 Y1.3548
G1 X0.896 Y1.3643
G1 X2.7072
G1 X4.5176
G1 Y1.0285
G1 Y0.6928
G1 X2.8209
G1 X1.1223
G3 X1.1204 Y0.6909 I0.0 J-0.0019
G1 Y0.6566
G1 Y0.6231
G1 X1.1099 Y0.6126
G1 X1.0988 Y0.6015
G3 X1.0983 Y0.6001 I0.0013 J-0.0013
G1 X1.1016 Y0.5545
G1 X1.1048 Y0.5089
G3 X1.1067 Y0.5072 I0.0019 J0.0001
G1 X1.1379
G1 X1.169
G3 X1.1709 Y0.5089 I0.0 J0.0019
G1 X1.1741 Y0.5545
G1 X1.1774 Y0.6001
G3 X1.1769 Y0.6015 I-0.0019 J0.0001
G1 X1.1659 Y0.6125
G2 X1.1553 Y0.641 I0.0367 J0.0298
G1 Y0.6578
G1 X1.7352
G1 X2.3151
G1 Y0.641
G2 X2.3046 Y0.6125 I-0.0456 J0.0007
G1 X2.2936 Y0.6015
G3 X2.293 Y0.6001 I0.0013 J-0.0013
G1 X2.2963 Y0.5545
G1 X2.2995 Y0.5089
G3 X2.3014 Y0.5072 I0.0019 J0.0001
G1 X2.3326
G1 X2.3637
G3 X2.3656 Y0.5089 I0.0 J0.0019
G1 X2.3689 Y0.5545
G1 X2.3721 Y0.6001
G3 X2.3716 Y0.6015 I-0.0019 J0.0001
G1 X2.3606 Y0.6125
G2 X2.35 Y0.641 I0.0367 J0.0298
G1 Y0.6578
G1 X2.852
G1 X3.354
G1 Y0.641
G2 X3.3434 Y0.6125 I-0.0456 J0.0007
G1 X3.3324 Y0.6015
G3 X3.3319 Y0.6001 I0.0013 J-0.0013
G1 X3.3352 Y0.5545
G1 X3.3384 Y0.5089
G3 X3.3401 Y0.5072 I0.0019 J0.0001
G1 X3.3664 Y0.5041
G1 X3.3928 Y0.5011
G3 X3.3943 Y0.5016 I0.0002 J0.0019
G1 X3.4017 Y0.509
G3 X3.4022 Y0.5097 I-0.0013 J0.0013
G3 X3.4097 Y0.5622 I-0.1286 J0.0452
G1 Y0.6065
G3 X3.4088 Y0.6081 I-0.0019 J0.0
G1 X3.3984 Y0.6146
G1 X3.3889 Y0.6204
G1 Y0.6396
G1 Y0.6578
G1 X3.9688
G1 X4.5506
G3 X4.5525 Y0.6597 I0.0 J0.0019
G1 Y1.0285
G1 Y1.2849
G0 Z0.125
G0 X4.4382
G0 Z0.0745
G1 F20.0 Z-0.003
G1 F40.0 Y1.3142
G3 X4.4363 Y1.3161 I-0.0019 J0.0
G1 X2.5202
G1 X0.6051
G1 X0.5992 Y1.3256
G1 X0.5928 Y1.336
G3 X0.5912 Y1.3369 I-0.0016 J-0.001
G1 X0.5665
G1 X0.5417
G3 X0.5401 Y1.336 I0.0 J-0.0019
G1 X0.5337 Y1.3256
G1 X0.5278 Y1.3161
G1 X0.5041
G1 X0.4804
G1 X0.4746 Y1.3256
G1 X0.4681 Y1.336
G3 X0.4665 Y1.3369 I-0.0016 J-0.001
G1 X0.4418
G1 X0.4171
G3 X0.4155 Y1.336 I0.0 J-0.0019
G1 X0.409 Y1.3256
G1 X0.4032 Y1.3161
G1 X0.2905
G1 X0.1788
G1 Y1.6986
G1 Y2.0811
G1 X1.6411
G1 X3.1043
G1 X3.1102 Y2.0716
G1 X3.1166 Y2.0612
G3 X3.1182 Y2.0603 I0.0016 J0.001
G1 X3.1429
G1 X3.1677
G3 X3.1692 Y2.0612 I0.0 J0.0019
G1 X3.1757 Y2.0716
G1 X3.1815 Y2.0811
G1 X3.4344
G1 X3.6883
G3 X3.6902 Y2.083 I0.0 J0.0019
G1 Y2.1135
G1 Y2.1431
G1 X3.6997 Y2.1489
G1 X3.7101 Y2.1554
G3 X3.711 Y2.1569 I-0.001 J0.0016
G1 Y2.2025
G1 Y2.248
G3 X3.7101 Y2.2496 I-0.0019 J0.0
G1 X3.6997 Y2.256
G1 X3.6902 Y2.2619
G1 Y2.4524
G1 Y2.6421
G1 X4.0295
G1 X4.3699
G1 X4.3882 Y2.622
G1 X4.407 Y2.6012
G3 X4.4084 Y2.6006 I0.0014 J0.0013
G1 X4.4307
G3 X4.4653 Y2.6122 I-0.0008 J0.0597
G3 X4.4655 Y2.6124 I-0.0011 J0.0015
G1 X4.4753 Y2.6221
G1 X4.5024 Y2.5866
G1 X4.5308 Y2.5494
G3 X4.5323 Y2.5486 I0.0015 J0.0011
G1 X4.555
G1 X4.5776
G3 X4.5789 Y2.5492 I0.0 J0.0019
G1 X4.5914 Y2.5616
G1 X4.6039 Y2.5741
G3 X4.6044 Y2.5754 I-0.0013 J0.0013
G1 Y2.5981
G1 Y2.6207
G3 X4.6037 Y2.6221 I-0.0019 J0.0
G1 X4.5882 Y2.635
G1 X4.5727 Y2.6479
G3 X4.5711 Y2.6483 I-0.0012 J-0.0014
G1 X4.5449 Y2.6433
G1 X4.5197 Y2.6384
G1 X4.4886 Y2.6777
G1 X4.4568 Y2.7179
G3 X4.4554 Y2.7186 I-0.0015 J-0.0012
G1 X4.4319
G1 X4.4084
G3 X4.407 Y2.718 I0.0 J-0.0019
G1 X4.3882 Y2.6972
G1 X4.3699 Y2.677
G1 X4.014
G1 X3.6572
G3 X3.6553 Y2.6752 I0.0 J-0.0019
G1 Y2.468
G1 Y2.2619
G1 X3.6458 Y2.256
G1 X3.6354 Y2.2496
G3 X3.6345 Y2.248 I0.001 J-0.0016
G1 Y2.2025
G1 Y2.1569
G3 X3.6354 Y2.1554 I0.0019 J0.0
G1 X3.6457 Y2.149
G2 X3.6553 Y2.1291 I-0.018 J-0.021
G1 Y2.116
G1 X3.4259
G1 X3.1957
G1 X3.1833 Y2.1359
G1 X3.1703 Y2.1567
G3 X3.1687 Y2.1576 I-0.0016 J-0.001
G1 X3.1429
G1 X3.1171
G3 X3.1155 Y2.1567 I0.0 J-0.0019
G1 X3.1026 Y2.1359
G1 X3.0901 Y2.116
G1 X2.6469
G1 X2.2046
G1 Y2.1276
G2 X2.2151 Y2.1509 I0.0406 J-0.0042
G1 X2.2261 Y2.162
G3 X2.2267 Y2.1634 I-0.0013 J0.0013
G1 X2.2234 Y2.209
G1 X2.2202 Y2.2545
G3 X2.2183 Y2.2563 I-0.0019 J-0.0001
G1 X2.1871
G1 X2.156
G3 X2.1541 Y2.2545 I0.0 J-0.0019
G1 X2.1508 Y2.209
G1 X2.1476 Y2.1634
G3 X2.1481 Y2.162 I0.0019 J-0.0001
G1 X2.1592 Y2.1509
G2 X2.1697 Y2.1276 I-0.0267 J-0.0261
G1 Y2.116
G1 X1.9274
G1 X1.6851
G1 Y2.196
G1 Y2.277
G1 X1.7 Y2.2893
G1 X1.7156 Y2.3023
G3 X1.7163 Y2.3037 I-0.0012 J0.0014
G1 Y2.3263
G1 Y2.349
G3 X1.7158 Y2.3503 I-0.0019 J0.0
G1 X1.7033 Y2.3627
G1 X1.6908 Y2.3752
G3 X1.6895 Y2.3758 I-0.0013 J-0.0013
G1 X1.6677
G1 X1.6459
G3 X1.6445 Y2.3752 I0.0 J-0.0019
G1 X1.6321 Y2.3627
G1 X1.6196 Y2.3503
G3 X1.6191 Y2.349 I0.0013 J-0.0013
G1 Y2.3263
G1 Y2.3037
G3 X1.6197 Y2.3023 I0.0019 J0.0
G1 X1.6353 Y2.2893
G1 X1.6502 Y2.277
G1 Y2.196
G1 Y2.116
G1 X1.4339
G1 X1.2176
G1 Y2.1276
G2 X1.2282 Y2.1509 I0.0406 J-0.0042
G1 X1.2392 Y2.162
G3 X1.2397 Y2.1634 I-0.0013 J0.0013
G1 X1.2365 Y2.209
G1 X1.2332 Y2.2545
G3 X1.2314 Y2.2563 I-0.0019 J-0.0001
G1 X1.2002
G1 X1.169
G3 X1.1672 Y2.2545 I0.0 J-0.0019
G1 X1.1639 Y2.209
G1 X1.1606 Y2.1634
G3 X1.1612 Y2.162 I0.0019 J-0.0001
G1 X1.1722 Y2.1509
G2 X1.1827 Y2.1276 I-0.0268 J-0.0261
G1 Y2.116
G1 X0.9384
G1 X0.6967
G1 X0.706 Y2.1253
G1 X0.7184 Y2.1378
G3 X0.719 Y2.1391 I-0.0013 J0.0013
G1 Y2.1609
G1 Y2.1827
G3 X0.7184 Y2.1841 I-0.0019 J0.0
G1 X0.706 Y2.1965
G1 X0.6935 Y2.209
G3 X0.6922 Y2.2095 I-0.0013 J-0.0013
G1 X0.6704
G1 X0.6485
G3 X0.6472 Y2.209 I0.0 J-0.0019
G1 X0.6347 Y2.1965
G1 X0.6223 Y2.1841
G3 X0.6217 Y2.1827 I0.0013 J-0.0013
G1 Y2.1609
G1 Y2.1391
G3 X0.6223 Y2.1378 I0.0019 J0.0
G1 X0.6347 Y2.1253
G1 X0.644 Y2.116
G1 X0.3971
G1 X0.1457
G3 X0.1438 Y2.1142 I0.0 J-0.0019
G1 Y1.6986
G1 Y1.2831
G3 X0.1457 Y1.2812 I0.0019 J0.0
G1 X0.2679
G1 X0.389
G1 X0.4014 Y1.2613
G1 X0.4144 Y1.2405
G3 X0.416 Y1.2396 I0.0016 J0.001
G1 X0.4418
G1 X0.4676
G3 X0.4692 Y1.2405 I0.0 J0.0019
G1 X0.4822 Y1.2613
G3 Y1.2614 I-0.0016 J0.001
G2 X0.5041 Y1.281 I0.0362 J-0.0184
G2 X0.5261 Y1.2613 I-0.0191 J-0.0435
G1 X0.5391 Y1.2405
G3 X0.5407 Y1.2396 I0.0016 J0.001
G1 X0.5665
G1 X0.5923
G3 X0.5938 Y1.2405 I0.0 J0.0019
G1 X0.6068 Y1.2613
G1 X0.6192 Y1.2812
G1 X2.5117
G1 X4.4033
G1 Y1.0285
G1 Y0.7759
G1 X4.0467
G1 X3.6902
G1 Y0.7874
G2 X3.7007 Y0.8108 I0.0405 J-0.0042
G1 X3.7118 Y0.8218
G3 X3.7123 Y0.8232 I-0.0013 J0.0013
G1 X3.709 Y0.8688
G1 X3.7058 Y0.9144
G3 X3.7039 Y0.9161 I-0.0019 J-0.0001
G1 X3.6727
G1 X3.6416
G3 X3.6397 Y0.9144 I0.0 J-0.0019
G1 X3.6364 Y0.8688
G1 X3.6332 Y0.8232
G3 X3.6337 Y0.8218 I0.0019 J-0.0001
G1 X3.6448 Y0.8107
G2 X3.6553 Y0.7874 I-0.0268 J-0.0261
G1 Y0.7759
G1 X3.4109
G1 X3.1692
G1 X3.1785 Y0.7851
G1 X3.191 Y0.7976
G3 X3.1915 Y0.7989 I-0.0013 J0.0013
G1 Y0.8207
G1 Y0.8426
G3 X3.191 Y0.8439 I-0.0019 J0.0
G1 X3.1785 Y0.8564
G1 X3.166 Y0.8688
G3 X3.1647 Y0.8694 I-0.0013 J-0.0013
G1 X3.1429
G1 X3.1211
G3 X3.1198 Y0.8688 I0.0 J-0.0019
G1 X3.1073 Y0.8564
G1 X3.0948 Y0.8439
G3 X3.0943 Y0.8426 I0.0013 J-0.0013
G1 Y0.8207
G1 Y0.7989
G3 X3.0948 Y0.7976 I0.0019 J0.0
G1 X3.1073 Y0.7851
G1 X3.1166 Y0.7759
G1 X2.8333
G1 X2.5474
G1 Y0.7874
G2 X2.558 Y0.8108 I0.0405 J-0.0042
G1 X2.569 Y0.8218
G3 X2.5695 Y0.8232 I-0.0013 J0.0013
G1 X2.5663 Y0.8688
G1 X2.563 Y0.9144
G3 X2.5611 Y0.9161 I-0.0019 J-0.0001
G1 X2.53
G1 X2.4988
G3 X2.4969 Y0.9144 I0.0 J-0.0019
G1 X2.4937 Y0.8688
G1 X2.4904 Y0.8232
G3 X2.4909 Y0.8218 I0.0019 J-0.0001
G1 X2.502 Y0.8107
G2 X2.5125 Y0.7874 I-0.0268 J-0.0261
G1 Y0.7759
G1 X2.2079
G1 X1.9033
G1 Y0.7935
G1 Y0.8121
G1 X1.9182 Y0.8245
G1 X1.9338 Y0.8374
G3 X1.9345 Y0.8389 I-0.0012 J0.0014
G1 Y0.8615
G1 Y0.8841
G3 X1.9339 Y0.8854 I-0.0019 J0.0
G1 X1.9215 Y0.8979
G1 X1.909 Y0.9104
G3 X1.9077 Y0.9109 I-0.0013 J-0.0013
G1 X1.8859
G1 X1.864
G3 X1.8627 Y0.9104 I0.0 J-0.0019
G1 X1.8502 Y0.8979
G1 X1.8378 Y0.8854
G3 X1.8372 Y0.8841 I0.0013 J-0.0013
G1 Y0.8615
G1 Y0.8389
G3 X1.8379 Y0.8374 I0.0019 J0.0
G1 X1.8535 Y0.8245
G1 X1.8684 Y0.8121
G1 Y0.7935
G1 Y0.7759
G1 X1.6625
G1 X1.4566
G1 Y0.7874
G2 X1.4671 Y0.8108 I0.0405 J-0.0042
G1 X1.4781 Y0.8218
G3 X1.4787 Y0.8232 I-0.0013 J0.0013
G1 X1.4754 Y0.8688
G1 X1.4722 Y0.9144
G3 X1.4703 Y0.9161 I-0.0019 J-0.0001
G1 X1.4391
G1 X1.408
G3 X1.4061 Y0.9144 I0.0 J-0.0019
G1 X1.4028 Y0.8688
G1 X1.3996 Y0.8232
G3 X1.4001 Y0.8218 I0.0019 J-0.0001
G1 X1.4112 Y0.8107
G1 X1.4217 Y0.8002
G1 Y0.7719
G1 Y0.7428
G3 X1.4235 Y0.741 I0.0019 J0.0
G1 X2.9299
G1 X4.4363
G3 X4.4382 Y0.7428 I0.0 J0.0019
G1 Y1.0285
G1 Y1.2849
G0 Z0.125
G0 X4.3237 Y1.2319
G0 Z0.0745
G1 F20.0 Z-0.003
G3 F40.0 X4.322 Y1.233 I-0.0017 J-0.0008
G1 X2.5248
G1 X0.7275
G3 X0.7256 Y1.2311 I0.0 J-0.0019
G1 Y1.2051
G1 Y1.181
G1 X0.4106
G1 X0.0956
G1 Y1.6882
G1 Y2.1954
G1 X0.2895
G1 X0.4853
G3 X0.4867 Y2.196 I0.0 J0.0019
G1 X0.5065 Y2.218
G2 X0.5492 Y2.2485 I0.0939 J-0.0862
G1 X0.5727 Y2.2575
G3 X0.5738 Y2.2586 I-0.0007 J0.0017
G1 X0.5829 Y2.2825
G2 X0.6082 Y2.3197 I0.1063 J-0.0452
G1 X0.6248 Y2.3334
G3 X0.6255 Y2.3349 I-0.0012 J0.0014
G1 Y2.5587
G1 Y2.7826
G3 X0.625 Y2.7839 I-0.0019 J0.0
G1 X0.6077 Y2.8029
G1 Y2.803
G2 X0.5792 Y2.8448 I0.1108 J0.106
G1 Y2.8449
G1 X0.5676 Y2.8682
G3 X0.5662 Y2.8692 I-0.0017 J-0.0008
G1 X0.5425 Y2.8726
G1 X0.5188 Y2.876
G3 X0.5174 Y2.8756 I-0.0003 J-0.0019
G1 X0.5024 Y2.8631
G1 X0.4874 Y2.8507
G3 X0.4867 Y2.8492 I0.0012 J-0.0014
G1 Y2.8266
G1 Y2.804
G3 X0.4872 Y2.8027 I0.0019 J0.0
G1 X0.4997 Y2.7902
G1 X0.5122 Y2.7777
G3 X0.5135 Y2.7772 I0.0013 J0.0013
G1 X0.5405
G1 X0.5667
G1 X0.5786 Y2.7653
G1 X0.5906 Y2.7533
G1 Y2.5609
G1 Y2.3684
G1 X0.5786 Y2.3565
G1 X0.5667 Y2.3446
G1 X0.5405
G1 X0.5135
G3 X0.5122 Y2.344 I0.0 J-0.0019
G1 X0.4997 Y2.3316
G1 X0.4872 Y2.3191
G3 X0.4867 Y2.3178 I0.0013 J-0.0013
G1 Y2.2903
G1 Y2.2637
G1 X0.4683 Y2.247
G1 X0.4498 Y2.2303
G1 X0.2566
G1 X0.0626
G3 X0.0607 Y2.2284 I0.0 J-0.0019
G1 Y1.6882
G1 Y1.148
G3 X0.0626 Y1.1461 I0.0019 J0.0
G1 X0.4106
G1 X0.7587
G3 X0.7605 Y1.148 I0.0 J0.0019
G1 Y1.174
G1 Y1.1981
G1 X2.5248
G1 X4.289
G1 Y1.061
G1 Y0.9229
G1 X4.2741 Y0.9105
G1 X4.2585 Y0.8976
G3 X4.2578 Y0.8961 I0.0012 J-0.0014
G1 Y0.8735
G1 Y0.8509
G3 X4.2584 Y0.8496 I0.0019 J0.0
G1 X4.2709 Y0.8371
G1 X4.2833 Y0.8246
G3 X4.2846 Y0.8241 I0.0013 J0.0013
G1 X4.3065
G1 X4.3283
G3 X4.3296 Y0.8246 I0.0 J0.0019
G1 X4.3421 Y0.8371
G1 X4.3545 Y0.8496
G3 X4.3551 Y0.8509 I-0.0013 J0.0013
G1 Y0.8735
G1 Y0.8961
G3 X4.3544 Y0.8976 I-0.0019 J0.0
G1 X4.3388 Y0.9105
G1 X4.3239 Y0.9229
G1 Y1.0765
G1 Y1.2311
G3 X4.3237 Y1.2319 I-0.0019 J0.0
G0 Z0.125
G0 X4.2093 Y1.1491
G0 Z0.0745
G1 F20.0 Z-0.003
G3 F40.0 X4.2078 Y1.1499 I-0.0015 J-0.0011
G1 X2.9715
G1 X1.7352
G3 X1.7333 Y1.148 I0.0 J-0.0019
G1 Y1.0298
G1 Y0.9125
G1 X1.7184 Y0.9001
G1 X1.7029 Y0.8872
G3 X1.7022 Y0.8857 I0.0012 J-0.0014
G1 Y0.8631
G1 Y0.8405
G3 X1.7027 Y0.8392 I0.0019 J0.0
G1 X1.7152 Y0.8267
G1 X1.7277 Y0.8142
G3 X1.729 Y0.8137 I0.0013 J0.0013
G1 X1.7508
G1 X1.7726
G3 X1.7739 Y0.8142 I0.0 J0.0019
G1 X1.7864 Y0.8267
G1 X1.7989 Y0.8392
G3 X1.7994 Y0.8405 I-0.0013 J0.0013
G1 Y0.8631
G1 Y0.8857
G3 X1.7987 Y0.8872 I-0.0019 J0.0
G1 X1.7832 Y0.9001
G1 X1.7683 Y0.9125
G1 Y1.0142
G1 Y1.115
G1 X2.9715
G1 X4.1747
G1 Y1.0026
G1 Y0.8901
G1 X4.1052
G1 X4.0346
G1 X4.0222 Y0.9051
G1 X4.0093 Y0.9206
G3 X4.0078 Y0.9213 I-0.0014 J-0.0012
G1 X3.9852
G1 X3.9626
G3 X3.9613 Y0.9208 I0.0 J-0.0019
G1 X3.9488 Y0.9083
G1 X3.9363 Y0.8958
G3 X3.9358 Y0.8945 I0.0013 J-0.0013
G1 Y0.8727
G1 Y0.8509
G3 X3.9363 Y0.8496 I0.0019 J0.0
G1 X3.9488 Y0.8371
G1 X3.9613 Y0.8246
G3 X3.9626 Y0.8241 I0.0013 J0.0013
G1 X3.9852
G1 X4.0078
G3 X4.0093 Y0.8247 I0.0 J0.0019
G1 X4.0222 Y0.8403
G1 X4.0346 Y0.8552
G1 X4.1207
G1 X4.2078
G3 X4.2096 Y0.8571 I0.0 J0.0019
G1 Y1.0026
G1 Y1.148
G3 X4.2093 Y1.1491 I-0.0019 J0.0
G0 Z0.125
G0 X4.1129 Y1.0426
G0 Z0.0745
G1 F20.0 Z-0.003
G1 F40.0 X4.0983 Y1.0559
G3 X4.0971 Y1.0564 I-0.0013 J-0.0014
G1 X4.0766
G1 X4.0765
G3 X4.0423 Y1.0434 I0.0013 J-0.055
G3 X4.0422 Y1.0433 I0.0012 J-0.0014
G1 X4.0312 Y1.0323
G1 X4.0164 Y1.0534
G1 X4.0003 Y1.0763
G3 X3.9988 Y1.0771 I-0.0015 J-0.0011
G1 X3.9755
G1 X3.9522
G3 X3.9509 Y1.0766 I0.0 J-0.0019
G1 X3.9384 Y1.0641
G1 X3.9259 Y1.0517
G3 X3.9254 Y1.0503 I0.0013 J-0.0013
G1 Y1.0277
G1 Y1.0051
G3 X3.9261 Y1.0037 I0.0019 J0.0
G1 X3.9416 Y0.9908
G1 X3.9571 Y0.9779
G3 X3.9587 Y0.9775 I0.0012 J0.0014
G1 X3.9866 Y0.9828
G1 X4.0135 Y0.988
G1 X4.0324 Y0.964
G1 X4.052 Y0.9391
G3 X4.0534 Y0.9383 I0.0015 J0.0012
G1 X4.0771
G1 X4.1007
G3 X4.102 Y0.939 I0.0 J0.0019
G1 X4.1192 Y0.958
G1 X4.1364 Y0.977
G3 X4.1369 Y0.9782 I-0.0014 J0.0013
G1 Y0.9992
G1 Y1.0201
G3 X4.1363 Y1.0215 I-0.0019 J0.0
G1 X4.1173 Y1.0387
G1 X4.1129 Y1.0426
G0 Z0.125
G0 X3.711
G0 Z0.0745
G1 F20.0 Z-0.003
G1 F40.0 Y1.0503
G3 X3.7104 Y1.0517 I-0.0019 J0.0
G1 X3.698 Y1.0641
G1 X3.6855 Y1.0766
G3 X3.6842 Y1.0771 I-0.0013 J-0.0013
G1 X3.6624
G1 X3.6405
G3 X3.6392 Y1.0766 I0.0 J-0.0019
G1 X3.6267 Y1.0641
G1 X3.6156 Y1.053
G1 X3.6045 Y1.0641
G1 X3.592 Y1.0766
G3 X3.5907 Y1.0771 I-0.0013 J-0.0013
G1 X3.5689
G1 X3.547
G3 X3.5457 Y1.0766 I0.0 J-0.0019
G1 X3.5332 Y1.0641
G1 X3.5208 Y1.0517
G3 X3.5202 Y1.0503 I0.0013 J-0.0013
G1 Y1.0277
G1 Y1.0051
G3 X3.5209 Y1.0037 I0.0019 J0.0
G1 X3.5365 Y0.9907
G1 X3.5514 Y0.9784
G1 Y0.9514
G1 Y0.9244
G1 X3.5409 Y0.9139
G1 X3.5298 Y0.9028
G3 X3.5293 Y0.9014 I0.0013 J-0.0013
G1 X3.5326 Y0.8558
G1 X3.5358 Y0.8102
G3 X3.5375 Y0.8085 I0.0019 J0.0001
G1 X3.5638 Y0.8054
G1 X3.5902 Y0.8024
G3 X3.5917 Y0.8029 I0.0002 J0.0019
G1 X3.5991 Y0.8103
G3 X3.5996 Y0.811 I-0.0013 J0.0013
G3 X3.6071 Y0.8635 I-0.1289 J0.0452
G1 Y0.9078
G3 X3.6062 Y0.9094 I-0.0019 J0.0
G1 X3.5958 Y0.9158
G1 X3.5863 Y0.9217
G1 Y0.9499
G1 Y0.9784
G1 X3.6017 Y0.9911
G1 X3.6164 Y1.0033
G1 X3.6272 Y0.9925
G1 X3.6392 Y0.9805
G3 X3.6405 Y0.9799 I0.0013 J0.0013
G1 X3.6624
G1 X3.6842
G3 X3.6855 Y0.9805 I0.0 J0.0019
G1 X3.698 Y0.9929
G1 X3.7104 Y1.0054
G3 X3.711 Y1.0067 I-0.0013 J0.0013
G1 Y1.0285
G1 Y1.0426
G0 Z0.125
G0 X3.4902 Y1.0183
G0 Z0.0745
G1 F20.0 Z-0.003
G3 F40.0 X3.4898 Y1.0193 I-0.0019 J-0.0002
G1 X3.4794 Y1.0323
G1 X3.4691 Y1.0453
G3 X3.4676 Y1.046 I-0.0015 J-0.0012
G1 X3.387
G1 X3.3074
G1 X3.295 Y1.0609
G1 X3.2821 Y1.0765
G3 X3.2806 Y1.0771 I-0.0014 J-0.0012
G1 X3.2572
G1 X3.2338
G3 X3.2323 Y1.0765 I0.0 J-0.0019
G1 X3.2194 Y1.0609
G1 X3.207 Y1.046
G1 X3.0027
G1 X2.7983
G1 X2.7859 Y1.0609
G1 X2.773 Y1.0765
G3 X2.7716 Y1.0771 I-0.0014 J-0.0012
G1 X2.7489
G1 X2.7263
G3 X2.725 Y1.0766 I0.0 J-0.0019
G1 X2.7125 Y1.0641
G1 X2.7001 Y1.0517
G3 X2.6995 Y1.0503 I0.0013 J-0.0013
G1 Y1.0285
G1 Y1.0067
G3 X2.7001 Y1.0054 I0.0019 J0.0
G1 X2.7125 Y0.9929
G1 X2.725 Y0.9805
G3 X2.7263 Y0.9799 I0.0013 J0.0013
G1 X2.7489
G1 X2.7716
G3 X2.773 Y0.9806 I0.0 J0.0019
G1 X2.7859 Y0.9962
G1 X2.7983 Y1.0111
G1 X3.0027
G1 X3.207
G1 X3.2194 Y0.9962
G1 X3.2323 Y0.9806
G3 X3.2338 Y0.9799 I0.0014 J0.0012
G1 X3.2572
G1 X3.2806
G3 X3.2821 Y0.9806 I0.0 J0.0019
G1 X3.2953 Y0.9966
G1 X3.308 Y1.0119
G1 X3.3808 Y1.0089
G1 X3.4529 Y1.0059
G1 X3.4561 Y0.972
G1 X3.4594 Y0.937
G1 X3.4478 Y0.9152
G1 X3.4359 Y0.8929
G3 X3.4356 Y0.8919 I0.0016 J-0.0009
G1 X3.439 Y0.8511
G1 X3.4423 Y0.8102
G3 X3.4439 Y0.8085 I0.0019 J0.0002
G1 X3.4663 Y0.8053
G1 X3.4887 Y0.8021
G3 X3.4906 Y0.803 I0.0003 J0.0019
G1 X3.4975 Y0.8142
G1 X3.5044 Y0.8254
G3 X3.5047 Y0.8266 I-0.0016 J0.001
G1 X3.4975 Y0.9224
G1 X3.4902 Y1.0183
G0 Z0.125
G0 X3.4038 Y0.9157
G0 Z0.0745
G1 F20.0 Z-0.003
G3 F40.0 X3.4028 Y0.9161 I-0.0012 J-0.0014
G1 X3.3735 Y0.9195
G1 X3.3442 Y0.9228
G3 X3.3421 Y0.9214 I-0.0002 J-0.0019
G1 X3.3365 Y0.8999
G1 X3.3312 Y0.8798
G1 X3.3027
G1 X3.2746
G1 Y0.9091
G1 Y0.9402
G3 X3.2728 Y0.9421 I-0.0019 J0.0
G1 X3.113
G1 X2.9541
G1 X2.9418 Y0.957
G1 X2.9288 Y0.9726
G3 X2.9274 Y0.9733 I-0.0014 J-0.0012
G1 X2.9048
G1 X2.8821
G3 X2.8808 Y0.9727 I0.0 J-0.0019
G1 X2.8684 Y0.9602
G1 X2.8559 Y0.9478
G3 X2.8553 Y0.9465 I0.0013 J-0.0013
G1 Y0.9246
G1 Y0.9028
G3 X2.8559 Y0.9015 I0.0019 J0.0
G1 X2.8684 Y0.889
G1 X2.8808 Y0.8766
G3 X2.8821 Y0.876 I0.0013 J0.0013
G1 X2.9048
G1 X2.9274
G3 X2.9288 Y0.8767 I0.0 J0.0019
G1 X2.9418 Y0.8923
G1 X2.9541 Y0.9072
G1 X3.0974
G1 X3.2397
G1 Y0.8779
G1 Y0.8467
G3 X3.2416 Y0.8448 I0.0019 J0.0
G1 X3.2871
G1 X3.3312
G1 X3.3363 Y0.8255
G1 X3.3417 Y0.8047
G3 X3.3435 Y0.8033 I0.0018 J0.0005
G1 X3.3708
G1 X3.3981
G3 X3.3998 Y0.8045 I0.0 J0.0019
G1 X3.4054 Y0.819
G3 X3.4055 Y0.8193 I-0.0017 J0.0007
G3 X3.4078 Y0.8744 I-0.2007 J0.0359
G1 X3.4045 Y0.9144
G3 X3.4038 Y0.9157 I-0.0019 J-0.0002
G0 Z0.125
G0 X3.4439 Y0.6148
G0 Z0.0745
G1 F20.0 Z-0.003
G3 F40.0 X3.4423 Y0.6129 I0.0002 J-0.0019
G1 X3.4463 Y0.4597
G1 X3.4502 Y0.3084
G1 X3.2338
G1 X3.0165
G1 X3.0041 Y0.3233
G1 X2.9912 Y0.3389
G3 X2.9897 Y0.3395 I-0.0014 J-0.0012
G1 X2.9671
G1 X2.9445
G3 X2.9432 Y0.339 I0.0 J-0.0019
G1 X2.9307 Y0.3265
G1 X2.9182 Y0.3141
G3 X2.9177 Y0.3127 I0.0013 J-0.0013
G1 Y0.2909
G1 Y0.2691
G3 X2.9182 Y0.2678 I0.0019 J0.0
G1 X2.9307 Y0.2553
G1 X2.9432 Y0.2428
G3 X2.9445 Y0.2423 I0.0013 J0.0013
G1 X2.9671
G1 X2.9897
G3 X2.9912 Y0.243 I0.0 J0.0019
G1 X3.0041 Y0.2586
G1 X3.0165 Y0.2735
G1 X3.2481
G1 X3.4805
G3 X3.4824 Y0.2753 I0.0 J0.0019
G1 Y0.3875
G1 Y0.499
G1 X3.4929 Y0.5095
G1 X3.504 Y0.5205
G3 X3.5045 Y0.522 I-0.0013 J0.0013
G1 X3.5013 Y0.5675
G1 X3.498 Y0.6131
G3 X3.4961 Y0.6148 I-0.0019 J-0.0001
G1 X3.4702
G1 X3.4442
G3 X3.4439 I0.0 J-0.0019
G0 Z0.125
G0 X3.5355 Y0.6083
G0 Z0.0745
G1 F20.0 Z-0.003
G1 F40.0 X3.5326 Y0.5675
G1 X3.5293 Y0.522
G3 X3.5298 Y0.5205 I0.0019 J-0.0001
G1 X3.5409 Y0.5095
G1 X3.5514 Y0.499
G1 Y0.3771
G1 Y0.2546
G3 X3.5533 Y0.2527 I0.0019 J0.0
G1 X3.9062
G1 X4.259
G3 X4.2609 Y0.2545 I0.0 J0.0019
G1 X4.2638 Y0.3713
G1 X4.2668 Y0.487
G1 X4.3073 Y0.508
G1 X4.3489 Y0.5295
G3 X4.3499 Y0.5309 I-0.0009 J0.0017
G1 X4.3533 Y0.5542
G1 X4.3567 Y0.5775
G3 X4.3562 Y0.5789 I-0.0019 J0.0003
G1 X4.3438 Y0.594
G1 X4.3313 Y0.609
G3 X4.3299 Y0.6096 I-0.0014 J-0.0012
G1 X4.3073
G1 X4.2846
G3 X4.2833 Y0.6091 I0.0 J-0.0019
G1 X4.2709 Y0.5966
G1 X4.2584 Y0.5842
G3 X4.2578 Y0.5828 I0.0013 J-0.0013
G1 Y0.5554
G1 Y0.5287
G1 X4.2395 Y0.5121
G1 X4.2394
G2 X4.2056 Y0.4954 I-0.0443 J0.0472
G2 X4.1781 Y0.5103 I0.0041 J0.0405
G1 X4.178
G1 X4.1651 Y0.5259
G3 X4.1637 Y0.5265 I-0.0014 J-0.0012
G1 X4.141
G1 X4.1184
G3 X4.1171 Y0.526 I0.0 J-0.0019
G1 X4.1046 Y0.5135
G1 X4.0922 Y0.5011
G3 X4.0916 Y0.4997 I0.0013 J-0.0013
G1 Y0.4771
G1 Y0.4545
G3 X4.0923 Y0.453 I0.0019 J0.0
G1 X4.1079 Y0.4401
G1 X4.1228 Y0.4277
G1 Y0.4091
G1 Y0.3915
G1 X4.1105
G2 X4.0845 Y0.4064 I0.0068 J0.0419
G1 X4.0716 Y0.422
G3 X4.0702 Y0.4226 I-0.0014 J-0.0012
G1 X4.0475
G1 X4.0249
G3 X4.0236 Y0.4221 I0.0 J-0.0019
G1 X4.0111 Y0.4096
G1 X3.9987 Y0.3972
G3 X3.9981 Y0.3958 I0.0013 J-0.0013
G1 Y0.374
G1 Y0.3522
G3 X3.9987 Y0.3509 I0.0019 J0.0
G1 X4.0111 Y0.3384
G1 X4.0236 Y0.326
G3 X4.0249 Y0.3254 I0.0013 J0.0013
G1 X4.0475
G1 X4.0702
G3 X4.0716 Y0.3261 I0.0 J0.0019
G1 X4.0845 Y0.3417
G1 X4.0969 Y0.3566
G1 X4.1259
G1 X4.1558
G3 X4.1577 Y0.3584 I0.0 J0.0019
G1 Y0.3932
G1 Y0.4271
G1 X4.1761 Y0.4437
G1 Y0.4438
G2 X4.2113 Y0.4605 I0.0438 J-0.0468
G1 X4.2267
G1 Y0.374
G1 Y0.2876
G1 X3.9065
G1 X3.5863
G1 Y0.3927
G1 Y0.499
G1 X3.5968 Y0.5095
G1 X3.6079 Y0.5205
G3 X3.6084 Y0.522 I-0.0013 J0.0013
G1 X3.6051 Y0.5675
G1 X3.6019 Y0.6131
G3 X3.6 Y0.6148 I-0.0019 J-0.0001
G1 X3.5689
G1 X3.5377
G3 X3.5358 Y0.6131 I0.0 J-0.0019
G1 X3.5355 Y0.6083
G0 Z0.125
G0 X3.6345
G0 Z0.0745
G1 F20.0 Z-0.003
G1 F40.0 Y0.561
G1 Y0.5039
G3 X3.6364 Y0.502 I0.0019 J0.0
G1 X3.6468
G1 X3.6553
G1 Y0.4831
G1 Y0.4623
G3 X3.6572 Y0.4605 I0.0019 J0.0
G1 X3.7179
G1 X3.7778
G1 X3.7944 Y0.4421
G1 X3.8111 Y0.4236
G1 Y0.4054
G1 Y0.3906
G1 X3.7952 Y0.405
G1 X3.7762 Y0.4222
G3 X3.775 Y0.4226 I-0.0013 J-0.0014
G1 X3.7545
G3 X3.7203 Y0.4097 I0.0001 J-0.052
G3 X3.7202 Y0.4096 I0.0012 J-0.0014
G1 X3.7091 Y0.3985
G1 X3.698 Y0.4096
G1 X3.6855 Y0.4221
G3 X3.6842 Y0.4226 I-0.0013 J-0.0013
G1 X3.6624
G1 X3.6405
G3 X3.6392 Y0.4221 I0.0 J-0.0019
G1 X3.6267 Y0.4096
G1 X3.6143 Y0.3972
G3 X3.6137 Y0.3958 I0.0013 J-0.0013
G1 Y0.374
G1 Y0.3522
G3 X3.6143 Y0.3509 I0.0019 J0.0
G1 X3.6267 Y0.3384
G1 X3.6392 Y0.3259
G3 X3.6405 Y0.3254 I0.0013 J0.0013
G1 X3.6624
G1 X3.6842
G3 X3.6855 Y0.3259 I0.0 J0.0019
G1 X3.698 Y0.3384
G1 X3.7091 Y0.3496
G1 X3.7202 Y0.3384
G1 X3.7327 Y0.3259
G3 X3.734 Y0.3254 I0.0013 J0.0013
G1 X3.7567
G1 X3.7793
G3 X3.7807 Y0.3261 I0.0 J0.0019
G1 X3.7937 Y0.3417
G1 X3.806 Y0.3566
G1 X3.8338
G1 X3.8615
G1 X3.8739 Y0.3417
G1 X3.8868 Y0.3261
G3 X3.8883 Y0.3254 I0.0014 J0.0012
G1 X3.9109
G1 X3.9335
G3 X3.9348 Y0.326 I0.0 J0.0019
G1 X3.9473 Y0.3384
G1 X3.9598 Y0.3509
G3 X3.9603 Y0.3522 I-0.0013 J0.0013
G1 Y0.374
G1 Y0.3958
G3 X3.9598 Y0.3972 I-0.0019 J0.0
G1 X3.9473 Y0.4096
G1 X3.9348 Y0.4221
G3 X3.9335 Y0.4226 I-0.0013 J-0.0013
G1 X3.9109
G1 X3.8883
G3 X3.8868 Y0.422 I0.0 J-0.0019
G1 X3.8739 Y0.4064
G3 X3.8738 Y0.4063 I0.0014 J-0.0012
G2 X3.853 Y0.3915 I-0.0319 J0.0229
G1 X3.846
G1 Y0.4088
G1 Y0.4271
G1 X3.8644 Y0.4437
G1 X3.8829 Y0.4605
G1 X3.9411
G1 X4.0
G3 X4.0019 Y0.4623 I0.0 J0.0019
G1 Y0.487
G1 Y0.5109
G1 X4.0168 Y0.5232
G1 X4.0324 Y0.5362
G3 X4.033 Y0.5376 I-0.0012 J0.0014
G1 Y0.5602
G1 Y0.5828
G3 X4.0325 Y0.5842 I-0.0019 J0.0
G1 X4.02 Y0.5966
G1 X4.0075 Y0.6091
G3 X4.0062 Y0.6096 I-0.0013 J-0.0013
G1 X3.9844
G1 X3.9626
G3 X3.9613 Y0.6091 I0.0 J-0.0019
G1 X3.9488 Y0.5966
G1 X3.9363 Y0.5842
G3 X3.9358 Y0.5828 I0.0013 J-0.0013
G1 Y0.5602
G1 Y0.5376
G3 X3.9365 Y0.5362 I0.0019 J0.0
G1 X3.952 Y0.5232
G3 X3.9522 Y0.5231 I0.0012 J0.0014
G2 X3.967 Y0.5023 I-0.0229 J-0.0319
G1 Y0.4954
G1 X3.9233
G1 X3.8787
G1 X3.8664 Y0.5103
G1 X3.8534 Y0.5259
G3 X3.852 Y0.5265 I-0.0014 J-0.0012
G1 X3.8286
G1 X3.8051
G3 X3.8037 Y0.5259 I0.0 J-0.0019
G1 X3.7908 Y0.5103
G1 X3.7784 Y0.4954
G1 X3.7312 Y0.4962
G1 X3.6924 Y0.4968
G1 X3.6968 Y0.4986
G1 X3.7098 Y0.5039
G3 X3.711 Y0.5056 I-0.0007 J0.0017
G1 Y0.5619
G1 Y0.6182
G3 X3.7091 Y0.62 I-0.0019 J0.0
G1 X3.6727
G1 X3.6364
G3 X3.6345 Y0.6182 I0.0 J-0.0019
G1 Y0.6083
G0 Z0.125
G0 X3.3988 Y0.3971
G0 Z0.0745
G1 F20.0 Z-0.003
G3 F40.0 Y0.3972 I-0.0014 J-0.0012
G1 X3.3863 Y0.4096
G1 X3.3738 Y0.4221
G3 X3.3725 Y0.4226 I-0.0013 J-0.0013
G1 X3.3499
G1 X3.3273
G3 X3.3258 Y0.422 I0.0 J-0.0019
G1 X3.3129 Y0.4064
G2 X3.2869 Y0.3915 I-0.0321 J0.0259
G1 X3.2746
G1 Y0.5039
G1 Y0.6182
G3 X3.2728 Y0.62 I-0.0019 J0.0
G1 X3.1273
G1 X2.9819
G3 X2.98 Y0.6182 I0.0 J-0.0019
G1 Y0.5662
G1 Y0.5161
G1 X2.8624
G1 X2.7429
G3 X2.7411 Y0.5143 I0.0 J-0.0019
G1 Y0.3948
G1 Y0.2772
G1 X2.5455
G1 X2.35
G1 Y0.3221
G1 Y0.367
G1 X2.3623
G2 X2.3883 Y0.3521 I-0.0068 J-0.042
G1 X2.4012 Y0.3365
G3 X2.4026 Y0.3358 I0.0014 J0.0012
G1 X2.4253
G1 X2.4479
G3 X2.4492 Y0.3363 I0.0 J0.0019
G1 X2.4617 Y0.3488
G1 X2.4741 Y0.3613
G3 X2.4747 Y0.3626 I-0.0013 J0.0013
G1 Y0.3852
G1 Y0.4078
G3 X2.474 Y0.4093 I-0.0019 J0.0
G1 X2.4584 Y0.4222
G1 X2.4435 Y0.4346
G1 Y0.4667
G1 Y0.499
G1 X2.454 Y0.5095
G1 X2.4651 Y0.5205
G3 X2.4656 Y0.522 I-0.0013 J0.0013
G1 X2.4624 Y0.5675
G1 X2.4591 Y0.6131
G3 X2.4572 Y0.6148 I-0.0019 J-0.0001
G1 X2.4313
G1 X2.4053
G3 X2.4034 Y0.6129 I0.0 J-0.0019
G1 X2.4063 Y0.5257
G1 X2.4091 Y0.4393
G1 X2.3922 Y0.4206
G1 X2.3753 Y0.4019
G1 X2.3465
G1 X2.317
G3 X2.3151 Y0.4 I0.0 J-0.0019
G1 Y0.3221
G1 Y0.2442
G3 X2.317 Y0.2423 I0.0019 J0.0
G1 X2.5455
G1 X2.7741
G3 X2.776 Y0.2442 I0.0 J0.0019
G1 Y0.3636
G1 Y0.4812
G1 X2.8936
G1 X3.013
G3 X3.0149 Y0.4831 I0.0 J0.0019
G1 Y0.5351
G1 Y0.5851
G1 X3.1273
G1 X3.2397
G1 Y0.4727
G1 Y0.3584
G3 X3.2416 Y0.3566 I0.0019 J0.0
G1 X3.2715
G1 X3.3005
G1 X3.3129 Y0.3417
G1 X3.3258 Y0.3261
G3 X3.3273 Y0.3254 I0.0014 J0.0012
G1 X3.3499
G1 X3.3725
G3 X3.3738 Y0.326 I0.0 J0.0019
G1 X3.3863 Y0.3384
G1 X3.3988 Y0.3509
G3 X3.3993 Y0.3522 I-0.0013 J0.0013
G1 Y0.374
G1 Y0.3958
G3 X3.3988 Y0.3971 I-0.0019 J0.0
G0 Z0.125
G0 X3.1914 Y0.4849
G0 Z0.0745
G1 F20.0 Z-0.003
G3 F40.0 X3.1915 Y0.4857 I-0.0017 J0.0007
G1 Y0.5083
G1 Y0.5309
G3 X3.191 Y0.5322 I-0.0019 J0.0
G1 X3.1785 Y0.5447
G1 X3.166 Y0.5572
G3 X3.1647 Y0.5577 I-0.0013 J-0.0013
G1 X3.1429
G1 X3.1211
G3 X3.1198 Y0.5572 I0.0 J-0.0019
G1 X3.1073 Y0.5447
G1 X3.0948 Y0.5322
G3 X3.0943 Y0.5309 I0.0013 J-0.0013
G1 Y0.5083
G1 Y0.4857
G3 X3.095 Y0.4842 I0.0019 J0.0
G1 X3.1105 Y0.4713
G1 X3.1255 Y0.4589
G1 Y0.4351
G1 Y0.4123
G1 X3.0195
G1 X2.9126
G1 X2.9002 Y0.4272
G1 X2.8873 Y0.4427
G3 X2.8858 Y0.4434 I-0.0014 J-0.0012
G1 X2.8632
G1 X2.8406
G3 X2.8393 Y0.4429 I0.0 J-0.0019
G1 X2.8268 Y0.4304
G1 X2.8143 Y0.4179
G3 X2.8138 Y0.4166 I0.0013 J-0.0013
G1 Y0.3948
G1 Y0.373
G3 X2.8143 Y0.3717 I0.0019 J0.0
G1 X2.8268 Y0.3592
G1 X2.8393 Y0.3467
G3 X2.8406 Y0.3462 I0.0013 J0.0013
G1 X2.8632
G1 X2.8858
G3 X2.8873 Y0.3469 I0.0 J0.0019
G1 X2.9002 Y0.3624
G1 X2.9126 Y0.3773
G1 X3.0351
G1 X3.1585
G3 X3.1604 Y0.3792 I0.0 J0.0019
G1 Y0.4195
G1 Y0.4589
G1 X3.1753 Y0.4713
G1 X3.1909 Y0.4842
G3 X3.1914 Y0.4849 I-0.0012 J0.0014
G0 Z0.125
G0 X2.6721 Y0.5038
G0 Z0.0745
G1 F20.0 Z-0.003
G1 F40.0 Y0.5039
G1 Y0.561
G1 Y0.6182
G3 X2.6702 Y0.62 I-0.0019 J0.0
G1 X2.6339
G1 X2.5975
G3 X2.5956 Y0.6182 I0.0 J-0.0019
G1 Y0.561
G1 Y0.5039
G3 X2.5975 Y0.502 I0.0019 J0.0
G1 X2.6339
G1 X2.6702
G3 X2.6721 Y0.5038 I0.0 J0.0019
G0 Z0.125
G0 X2.5695 Y0.5215
G0 Z0.0745
G1 F20.0 Z-0.003
G3 F40.0 Y0.522 I-0.0018 J0.0003
G1 X2.5663 Y0.5675
G1 X2.563 Y0.6131
G3 X2.5611 Y0.6148 I-0.0019 J-0.0001
G1 X2.53
G1 X2.4988
G3 X2.4969 Y0.6131 I0.0 J-0.0019
G1 X2.4937 Y0.5675
G1 X2.4904 Y0.522
G3 X2.4909 Y0.5205 I0.0019 J-0.0001
G1 X2.502 Y0.5095
G1 X2.5125 Y0.499
G1 Y0.4312
G1 Y0.3626
G3 X2.5131 Y0.3613 I0.0019 J0.0
G1 X2.5255 Y0.3488
G1 X2.538 Y0.3363
G3 X2.5393 Y0.3358 I0.0013 J0.0013
G1 X2.5611
G1 X2.5829
G3 X2.5843 Y0.3363 I0.0 J0.0019
G1 X2.5967 Y0.3488
G1 X2.6092 Y0.3613
G3 X2.6098 Y0.3626 I-0.0013 J0.0013
G1 Y0.3844
G1 Y0.4062
G3 X2.6092 Y0.4076 I-0.0019 J0.0
G1 X2.5967 Y0.42
G1 Y0.4201
G3 X2.5643 Y0.433 I-0.033 J-0.0355
G1 X2.5642
G1 X2.5474
G1 Y0.4654
G1 Y0.499
G1 X2.5579 Y0.5095
G1 X2.569 Y0.5205
G3 X2.5695 Y0.5215 I-0.0013 J0.0013
G0 Z0.125
G0 X2.6025 Y0.8085
G0 Z0.0745
G1 F20.0 Z-0.003
G1 F40.0 X2.6311 Y0.8052
G1 X2.6597 Y0.8019
G3 X2.6617 Y0.8031 I0.0002 J0.0019
G1 X2.6675 Y0.8183
G3 X2.6676 Y0.8186 I-0.0017 J0.0007
G3 X2.6702 Y0.8744 I-0.1633 J0.0355
G1 X2.6669 Y0.9144
G3 X2.665 Y0.9161 I-0.0019 J-0.0002
G1 X2.6339
G1 X2.6027
G3 X2.6008 Y0.9142 I0.0 J-0.0019
G1 Y0.8623
G1 Y0.8104
G3 X2.6025 Y0.8085 I0.0019 J0.0
G0 Z0.125
G0 X2.4666 Y0.8274
G0 Z0.0745
G1 F20.0 Z-0.003
G3 F40.0 Y0.8278 I-0.0019 J0.0003
G1 X2.4595 Y0.903
G1 X2.4526 Y0.9772
G1 X2.4681 Y0.9901
G1 X2.4844 Y1.0037
G3 X2.4851 Y1.0051 I-0.0012 J0.0014
G1 Y1.0277
G1 Y1.0503
G3 X2.4845 Y1.0517 I-0.0019 J0.0
G1 X2.4721 Y1.0641
G1 X2.4596 Y1.0766
G3 X2.4583 Y1.0771 I-0.0013 J-0.0013
G1 X2.4365
G1 X2.4146
G3 X2.4133 Y1.0766 I0.0 J-0.0019
G1 X2.4009 Y1.0641
G1 X2.3884 Y1.0517
G3 X2.3878 Y1.0503 I0.0013 J-0.0013
G1 Y1.0277
G1 Y1.0051
G3 X2.3885 Y1.0037 I0.0019 J0.0
G1 X2.4041 Y0.9907
G1 X2.419 Y0.9784
G1 Y0.9514
G1 Y0.9244
G1 X2.4085 Y0.9139
G1 X2.3974 Y0.9028
G3 X2.3969 Y0.9014 I0.0013 J-0.0013
G1 X2.4002 Y0.8558
G1 X2.4034 Y0.8102
G3 X2.405 Y0.8085 I0.0019 J0.0001
G1 X2.4274 Y0.8053
G1 X2.4498 Y0.8021
G3 X2.4517 Y0.803 I0.0003 J0.0019
G1 X2.459 Y0.8148
G1 X2.4663 Y0.8267
G3 X2.4666 Y0.8274 I-0.0016 J0.001
G0 Z0.125
G0 X2.3689 Y0.8364
G0 Z0.0745
G1 F20.0 Z-0.003
G3 F40.0 Y0.8744 I-0.203 J0.0188
G1 X2.3656 Y0.9144
G3 X2.364 Y0.9161 I-0.0019 J-0.0002
G1 X2.3346 Y0.9195
G1 X2.3053 Y0.9228
G3 X2.3032 Y0.9214 I-0.0002 J-0.0019
G1 X2.2976 Y0.8999
G1 X2.2923 Y0.8798
G1 X2.2703
G1 X2.2477
G1 X2.2353 Y0.8947
G1 X2.2224 Y0.9102
G3 X2.2209 Y0.9109 I-0.0014 J-0.0012
G1 X2.1983
G1 X2.1757
G3 X2.1744 Y0.9104 I0.0 J-0.0019
G1 X2.1619 Y0.8979
G1 X2.1494 Y0.8854
G3 X2.1489 Y0.8841 I0.0013 J-0.0013
G1 Y0.8623
G1 Y0.8405
G3 X2.1494 Y0.8392 I0.0019 J0.0
G1 X2.1619 Y0.8267
G1 X2.1744 Y0.8142
G3 X2.1757 Y0.8137 I0.0013 J0.0013
G1 X2.1983
G1 X2.2209
G3 X2.2224 Y0.8144 I0.0 J0.0019
G1 X2.2353 Y0.8299
G1 X2.2477 Y0.8448
G1 X2.2703
G1 X2.2923
G1 X2.2974 Y0.8255
G1 X2.3028 Y0.8047
G3 X2.3047 Y0.8033 I0.0018 J0.0005
G1 X2.3319
G1 X2.3592
G3 X2.3609 Y0.8045 I0.0 J0.0019
G1 X2.3665 Y0.819
G3 X2.3666 Y0.8193 I-0.0017 J0.0007
G3 X2.3689 Y0.8364 I-0.2007 J0.0359
G0 Z0.125
G0 X2.0797 Y0.9877
G0 Z0.0745
G1 F20.0 Z-0.003
G3 F40.0 X2.0799 Y0.9886 I-0.0017 J0.0009
G1 Y1.0096
G1 Y1.0305
G3 X2.0793 Y1.0319 I-0.0019 J0.0
G1 X2.0603 Y1.0491
G1 X2.0413 Y1.0663
G3 X2.0401 Y1.0668 I-0.0013 J-0.0014
G1 X2.0191
G1 X1.9982
G3 X1.9968 Y1.0661 I0.0 J-0.0019
G1 X1.978 Y1.0454
G1 Y1.0453
G2 X1.9478 Y1.0253 I-0.0526 J0.0464
G2 X1.9237 Y1.0401 I0.0102 J0.0436
G1 X1.9107 Y1.0557
G3 X1.9093 Y1.0564 I-0.0014 J-0.0012
G1 X1.8867
G1 X1.864
G3 X1.8627 Y1.0558 I0.0 J-0.0019
G1 X1.8502 Y1.0434
G1 X1.8378 Y1.0309
G3 X1.8372 Y1.0296 I0.0013 J-0.0013
G1 Y1.0077
G1 Y0.9859
G3 X1.8378 Y0.9846 I0.0019 J0.0
G1 X1.8502 Y0.9721
G1 X1.8627 Y0.9597
G3 X1.864 Y0.9591 I0.0013 J0.0013
G1 X1.8867
G1 X1.9093
G3 X1.9107 Y0.9598 I0.0 J0.0019
G1 X1.9237 Y0.9754
G1 Y0.9755
G2 X1.9478 Y0.9902 I0.0308 J-0.0231
G2 X1.9779 Y0.9702 I-0.0152 J-0.0556
G3 X1.978 Y0.9701 I0.0015 J0.0012
G1 X1.9968 Y0.9494
G3 X1.9982 Y0.9487 I0.0014 J0.0013
G1 X2.0209
G1 X2.0437
G3 X2.045 Y0.9494 I0.0 J0.0019
G1 X2.0622 Y0.9683
G1 X2.0794 Y0.9873
G3 X2.0797 Y0.9877 I-0.0014 J0.0013
G0 Z0.125
G0 X1.6643 Y0.8862
G0 Z0.0745
G1 F20.0 Z-0.003
G3 F40.0 X1.6637 Y0.8872 I-0.0018 J-0.0004
G1 X1.6481 Y0.9001
G1 X1.6332 Y0.9125
G1 Y1.0298
G1 Y1.148
G3 X1.6313 Y1.1499 I-0.0019 J0.0
G1 X1.33
G1 X1.0288
G3 X1.0269 Y1.148 I0.0 J-0.0019
G1 Y1.1025
G1 Y1.0579
G1 X1.012 Y1.0455
G1 X0.9964 Y1.0326
G3 X0.9957 Y1.0312 I0.0012 J-0.0014
G1 Y1.0086
G1 Y0.9859
G3 X0.9963 Y0.9846 I0.0019 J0.0
G1 X1.0087 Y0.9721
G1 X1.0212 Y0.9597
G3 X1.0225 Y0.9591 I0.0013 J0.0013
G1 X1.0444
G1 X1.0662
G3 X1.0675 Y0.9597 I0.0 J0.0019
G1 X1.08 Y0.9721
G1 X1.0924 Y0.9846
G3 X1.093 Y0.9859 I-0.0013 J0.0013
G1 Y1.0086
G1 Y1.0312
G3 X1.0923 Y1.0326 I-0.0019 J0.0
G1 X1.0767 Y1.0455
G1 X1.0618 Y1.0579
G1 Y1.0869
G1 Y1.115
G1 X1.143
G1 X1.2243
G1 Y1.0202
G1 Y0.9244
G1 X1.2138 Y0.9139
G1 X1.2027 Y0.9028
G3 X1.2022 Y0.9014 I0.0013 J-0.0013
G1 X1.2054 Y0.8558
G1 X1.2087 Y0.8102
G3 X1.2103 Y0.8085 I0.0019 J0.0001
G1 X1.2315 Y0.8055
G3 X1.2608 Y0.8096 I0.0088 J0.0438
G3 X1.2613 Y0.81 I-0.0009 J0.0017
G1 X1.2683 Y0.817
G3 X1.2689 Y0.8184 I-0.0013 J0.0013
G1 X1.2624 Y0.9676
G1 X1.256 Y1.115
G1 X1.4271
G1 X1.5983
G1 Y1.0142
G1 Y0.9125
G1 X1.5834 Y0.9001
G1 X1.5678 Y0.8872
G3 X1.5671 Y0.8857 I0.0012 J-0.0014
G1 Y0.8631
G1 Y0.8405
G3 X1.5677 Y0.8392 I0.0019 J0.0
G1 X1.5801 Y0.8267
G1 X1.5926 Y0.8142
G3 X1.5939 Y0.8137 I0.0013 J0.0013
G1 X1.6157
G1 X1.6376
G3 X1.6389 Y0.8142 I0.0 J0.0019
G1 X1.6513 Y0.8267
G1 X1.6638 Y0.8392
G3 X1.6644 Y0.8405 I-0.0013 J0.0013
G1 Y0.8631
G1 Y0.8857
G3 X1.6643 Y0.8862 I-0.0019 J0.0
G0 Z0.125
G0 X1.5393 Y0.9848
G0 Z0.0745
G1 F20.0 Z-0.003
G3 F40.0 X1.5397 Y0.9859 I-0.0015 J0.0012
G1 Y1.0077
G1 Y1.0296
G3 X1.5391 Y1.0309 I-0.0019 J0.0
G1 X1.5267 Y1.0434
G1 X1.5142 Y1.0558
G3 X1.5129 Y1.0564 I-0.0013 J-0.0013
G1 X1.4911
G1 X1.4693
G3 X1.4679 Y1.0558 I0.0 J-0.0019
G1 X1.4555 Y1.0434
G1 X1.4443 Y1.0322
G1 X1.4332 Y1.0434
G1 X1.4207 Y1.0558
G3 X1.4194 Y1.0564 I-0.0013 J-0.0013
G1 X1.3968
G1 X1.3741
G3 X1.3727 Y1.0557 I0.0 J-0.0019
G1 X1.3598 Y1.0401
G2 X1.3338 Y1.0252 I-0.0321 J0.0259
G1 X1.3197
G3 X1.3178 Y1.0233 I0.0 J-0.0019
G1 Y0.9735
G1 Y0.9244
G1 X1.3073 Y0.9139
G1 X1.2962 Y0.9028
G3 X1.2957 Y0.9014 I0.0013 J-0.0013
G1 X1.2989 Y0.8558
G1 X1.3022 Y0.8102
G3 X1.3039 Y0.8085 I0.0019 J0.0001
G1 X1.3302 Y0.8054
G1 X1.3566 Y0.8024
G3 X1.3581 Y0.8029 I0.0002 J0.0019
G1 X1.3655 Y0.8103
G3 X1.366 Y0.811 I-0.0013 J0.0013
G3 X1.3735 Y0.8635 I-0.1289 J0.0452
G1 Y0.9078
G3 X1.3726 Y0.9094 I-0.0019 J0.0
G1 X1.3622 Y0.9158
G1 X1.3527 Y0.9217
G1 Y0.9533
G1 Y0.9814
G1 X1.362 Y0.9721
G1 X1.3744 Y0.9597
G3 X1.3758 Y0.9591 I0.0013 J0.0013
G1 X1.3976
G1 X1.4194
G3 X1.4207 Y0.9597 I0.0 J0.0019
G1 X1.4332 Y0.9721
G1 X1.4443 Y0.9833
G1 X1.4555 Y0.9721
G1 X1.4679 Y0.9597
G3 X1.4693 Y0.9591 I0.0013 J0.0013
G1 X1.4911
G1 X1.5129
G3 X1.5142 Y0.9597 I0.0 J0.0019
G1 X1.5267 Y0.9721
G1 X1.5391 Y0.9846
G3 X1.5393 Y0.9848 I-0.0013 J0.0013
G0 Z0.125
G0 X1.4758 Y0.62
G0 Z0.0745
G1 F20.0 Z-0.003
G3 F40.0 X1.4755 I-0.0003 J-0.0018
G1 X1.4391
G1 X1.4028
G3 X1.4009 Y0.6182 I0.0 J-0.0019
G1 Y0.561
G1 Y0.5039
G3 X1.4028 Y0.502 I0.0019 J0.0
G1 X1.4132
G1 X1.4217
G1 Y0.4844
G1 Y0.4658
G1 X1.4068 Y0.4534
G1 X1.3912 Y0.4404
G3 X1.3905 Y0.439 I0.0012 J-0.0014
G1 Y0.4164
G1 Y0.3938
G3 X1.3911 Y0.3924 I0.0019 J0.0
G1 X1.4035 Y0.38
G1 X1.416 Y0.3675
G3 X1.4173 Y0.367 I0.0013 J0.0013
G1 X1.4399
G1 X1.4626
G3 X1.464 Y0.3676 I0.0 J0.0019
G1 X1.4773 Y0.3837
G1 X1.4893 Y0.3981
G1 X1.4987 Y0.3887
G3 X1.4988 Y0.3886 I0.0013 J0.0013
G3 X1.5326 Y0.3773 I0.0328 J0.0423
G1 X1.5544
G3 X1.5558 Y0.3779 I0.0 J0.0019
G1 X1.5682 Y0.3904
G1 X1.5807 Y0.4028
G3 X1.5813 Y0.4042 I-0.0013 J0.0013
G1 Y0.426
G1 Y0.4478
G3 X1.5807 Y0.4491 I-0.0019 J0.0
G1 X1.5682 Y0.4616
G1 X1.5558 Y0.474
G3 X1.5544 Y0.4746 I-0.0013 J-0.0013
G1 X1.5318
G1 X1.5092
G3 X1.5078 Y0.4739 I0.0 J-0.0019
G1 X1.4947 Y0.4582
G1 X1.4829 Y0.4439
G1 X1.4701 Y0.4545
G1 X1.4566 Y0.4658
G1 Y0.4844
G1 Y0.502
G1 X1.4651
G1 X1.4755
G3 X1.4774 Y0.5039 I0.0 J0.0019
G1 Y0.5195
G1 Y0.5332
G1 X1.521
G1 X1.5656
G1 X1.5779 Y0.5183
G1 X1.5909 Y0.5027
G3 X1.5923 Y0.502 I0.0014 J0.0012
G1 X1.6149
G1 X1.6376
G3 X1.6389 Y0.5026 I0.0 J0.0019
G1 X1.6513 Y0.515
G1 X1.6638 Y0.5275
G3 X1.6644 Y0.5288 I-0.0013 J0.0013
G1 Y0.5506
G1 Y0.5725
G3 X1.6638 Y0.5738 I-0.0019 J0.0
G1 X1.6513 Y0.5862
G1 X1.6389 Y0.5987
G3 X1.6376 Y0.5993 I-0.0013 J-0.0013
G1 X1.6149
G1 X1.5923
G3 X1.5909 Y0.5986 I0.0 J-0.0019
G1 X1.5779 Y0.583
G1 X1.5656 Y0.5681
G1 X1.521
G1 X1.4774
G1 Y0.5922
G1 Y0.6182
G3 X1.4758 Y0.62 I-0.0019 J0.0
G0 Z0.125
G0 X1.3683 Y0.6123
G0 Z0.0745
G1 F20.0 Z-0.003
G1 F40.0 Y0.6131
G3 X1.3664 Y0.6148 I-0.0019 J-0.0001
G1 X1.3352
G1 X1.3041
G3 X1.3022 Y0.6131 I0.0 J-0.0019
G1 X1.2989 Y0.5675
G1 X1.2957 Y0.522
G3 X1.2962 Y0.5205 I0.0019 J-0.0001
G1 X1.3073 Y0.5095
G1 X1.3178 Y0.499
G1 Y0.4252
G1 Y0.3515
G1 X1.3029 Y0.3391
G1 X1.2873 Y0.3262
G3 X1.2866 Y0.3247 I0.0012 J-0.0014
G1 Y0.3021
G1 Y0.2795
G3 X1.2872 Y0.2782 I0.0019 J0.0
G1 X1.2996 Y0.2657
G1 X1.3121 Y0.2532
G3 X1.3134 Y0.2527 I0.0013 J0.0013
G1 X1.336
G1 X1.3587
G3 X1.3601 Y0.2534 I0.0 J0.0019
G1 X1.373 Y0.2689
G1 X1.3854 Y0.2838
G1 X1.4755
G1 X1.5656
G1 X1.5779 Y0.2689
G1 X1.5909 Y0.2534
G3 X1.5923 Y0.2527 I0.0014 J0.0012
G1 X1.6149
G1 X1.6376
G3 X1.6389 Y0.2532 I0.0 J0.0019
G1 X1.6513 Y0.2657
G1 X1.6638 Y0.2782
G3 X1.6644 Y0.2795 I-0.0013 J0.0013
G1 Y0.3013
G1 Y0.3231
G3 X1.6638 Y0.3244 I-0.0019 J0.0
G1 X1.6513 Y0.3369
G1 X1.6389 Y0.3494
G3 X1.6376 Y0.3499 I-0.0013 J-0.0013
G1 X1.6149
G1 X1.5923
G3 X1.5909 Y0.3492 I0.0 J-0.0019
G1 X1.5779 Y0.3337
G1 X1.5656 Y0.3188
G1 X1.4758
G1 X1.386
G1 X1.3694 Y0.3371
G1 X1.3527 Y0.3556
G1 Y0.4273
G1 Y0.499
G1 X1.3632 Y0.5095
G1 X1.3743 Y0.5205
G3 X1.3748 Y0.522 I-0.0013 J0.0013
G1 X1.3715 Y0.5675
G1 X1.3683 Y0.6123
G0 Z0.125
G0 X1.265 Y0.6049
G0 Z0.0745
G1 F20.0 Z-0.003
G1 F40.0 X1.2644 Y0.6131
G3 X1.2625 Y0.6148 I-0.0019 J-0.0001
G1 X1.2365
G1 X1.2106
G3 X1.2087 Y0.613 I0.0 J-0.0019
G1 Y0.5383
G1 Y0.4644
G1 X1.1963 Y0.4518
G1 X1.1833 Y0.4387
G3 X1.1827 Y0.4374 I0.0013 J-0.0013
G1 Y0.4148
G1 Y0.3922
G3 X1.1834 Y0.3907 I0.0019 J0.0
G1 X1.199 Y0.3778
G1 X1.2139 Y0.3654
G1 Y0.2689
G1 Y0.1714
G3 X1.2158 Y0.1696 I0.0019 J0.0
G1 X1.4911
G1 X1.7664
G3 X1.7683 Y0.1714 I0.0 J0.0019
G1 Y0.3361
G1 Y0.4998
G1 X1.7866 Y0.5165
G1 X1.8051 Y0.5332
G1 X1.8373
G1 X1.8684
G1 Y0.5052
G1 Y0.4761
G1 X1.8535 Y0.4638
G1 X1.8379 Y0.4508
G3 X1.8372 Y0.4494 I0.0012 J-0.0014
G1 Y0.4268
G1 Y0.4042
G3 X1.8378 Y0.4028 I0.0019 J0.0
G1 X1.8502 Y0.3904
G1 X1.8627 Y0.3779
G3 X1.864 Y0.3773 I0.0013 J0.0013
G1 X1.8859
G1 X1.9077
G3 X1.909 Y0.3779 I0.0 J0.0019
G1 X1.9215 Y0.3904
G1 X1.9339 Y0.4028
G3 X1.9345 Y0.4042 I-0.0013 J0.0013
G1 Y0.4268
G1 Y0.4494
G3 X1.9338 Y0.4508 I-0.0019 J0.0
G1 X1.9182 Y0.4638
G1 X1.9033 Y0.4761
G1 Y0.5207
G1 Y0.5662
G3 X1.9014 Y0.5681 I-0.0019 J0.0
G1 X1.8508
G1 X1.801
G1 X1.7886 Y0.583
G1 X1.7757 Y0.5986
G3 X1.7742 Y0.5993 I-0.0014 J-0.0012
G1 X1.7516
G1 X1.729
G3 X1.7277 Y0.5987 I0.0 J-0.0019
G1 X1.7152 Y0.5862
G1 X1.7027 Y0.5738
G3 X1.7022 Y0.5725 I0.0013 J-0.0013
G1 Y0.5498
G1 Y0.5272
G3 X1.7029 Y0.5258 I0.0019 J0.0
G1 X1.7184 Y0.5128
G1 X1.7333 Y0.5005
G1 Y0.352
G1 Y0.2045
G1 X1.4911
G1 X1.2488
G1 Y0.2844
G1 Y0.3654
G1 X1.2637 Y0.3778
G1 X1.2793 Y0.3907
G3 X1.28 Y0.3922 I-0.0012 J0.0014
G1 Y0.4156
G1 Y0.439
G3 X1.2793 Y0.4404 I-0.0019 J0.0
G1 X1.2637 Y0.4534
G1 X1.2488 Y0.4658
G1 Y0.4823
G2 X1.2594 Y0.5095 I0.0433 J-0.0011
G1 X1.2704 Y0.5205
G3 X1.2709 Y0.522 I-0.0013 J0.0013
G1 X1.2676 Y0.5675
G1 X1.265 Y0.6049
G0 Z0.125
G0 X0.8694 Y0.6456
G0 Z0.0745
G1 F20.0 Z-0.003
G3 F40.0 X0.8689 Y0.6471 I-0.0019 J0.0002
G1 X0.8518 Y0.6642
G1 X0.8348 Y0.6812
G3 X0.832 Y0.6811 I-0.0013 J-0.0013
G1 X0.8214 Y0.6683
G1 X0.8108 Y0.6555
G3 X0.8104 Y0.6539 I0.0014 J-0.0012
G1 X0.8178 Y0.6178
G1 X0.8252 Y0.5816
G3 X0.8267 Y0.5801 I0.0018 J0.0004
G1 X0.8444 Y0.5767
G1 X0.8622 Y0.5732
G3 X0.8644 Y0.5751 I0.0004 J0.0018
G1 Y0.5862
G3 X0.8523 Y0.5993 I-0.0129 J0.0001
G3 X0.8522 I-0.0001 J-0.0019
G1 X0.8436
G1 Y0.6173
G1 Y0.6359
G1 X0.8553 Y0.6397
G1 X0.8681 Y0.644
G3 X0.8694 Y0.6456 I-0.0006 J0.0018
G0 Z0.125
G0 X0.8021
G0 Z0.0745
G1 F20.0 Z-0.003
G1 F40.0 Y0.6597
G3 X0.8002 Y0.6616 I-0.0019 J0.0
G1 X0.7905
G1 X0.7808
G3 X0.779 Y0.6599 I0.0 J-0.0019
G1 X0.7757 Y0.6322
G1 X0.7725 Y0.6056
G1 X0.7607 Y0.6017
G1 X0.7501 Y0.5982
G1 Y0.6277
G1 Y0.6597
G3 X0.7483 Y0.6616 I-0.0019 J0.0
G1 X0.7373
G1 X0.7262
G3 X0.7244 Y0.6596 I0.0 J-0.0019
G1 X0.7276 Y0.6206
G1 X0.7308 Y0.5816
G3 X0.7326 Y0.5799 I0.0019 J0.0002
G1 X0.7664 Y0.5782
G1 X0.8001 Y0.5765
G3 X0.8021 Y0.5784 I0.0001 J0.0019
G1 Y0.6191
G1 Y0.6456
G0 Z0.125
G0 X0.7068 Y0.6247
G0 Z0.0745
G1 F20.0 Z-0.003
G1 F40.0 Y0.6248
G3 X0.6852 Y0.6544 I-0.0493 J-0.0134
G1 X0.6679 Y0.6653
G3 X0.6657 Y0.6651 I-0.001 J-0.0016
G1 X0.6493 Y0.6515
G1 X0.6328 Y0.6378
G3 X0.6321 Y0.6364 I0.0012 J-0.0014
G1 Y0.619
G3 Y0.6188 I0.0019 J0.0
G3 X0.645 Y0.5879 I0.0556 J0.005
G3 X0.6451 Y0.5878 I0.0014 J0.0012
G3 X0.6709 Y0.5748 I0.0313 J0.03
G3 X0.6715 I0.0002 J0.0019
G3 X0.6974 Y0.5905 I-0.0079 J0.042
G1 X0.7099 Y0.6056
G3 X0.7103 Y0.6071 I-0.0014 J0.0012
G1 X0.7068 Y0.6247
G0 Z0.125
G0 X0.6889 Y0.6188
G0 Z0.0745
G1 F20.0 Z-0.003
G2 F40.0 X0.6888 Y0.6172 I-0.0018 J-0.0006
G1 X0.6818 Y0.6059
G1 X0.6748 Y0.5946
G2 X0.6719 Y0.5943 I-0.0016 J0.001
G1 X0.6606 Y0.6055
G1 X0.6493 Y0.6168
G2 Y0.6195 I0.0013 J0.0013
G1 X0.6606 Y0.6308
G1 X0.6719 Y0.6421
G2 X0.6748 Y0.6417 I0.0013 J-0.0013
G1 X0.6818 Y0.6304
G1 X0.6888 Y0.6191
G2 X0.6889 Y0.6188 I-0.0016 J-0.001
G0 Z0.125
G0 X0.6213 Y0.6388
G0 Z0.0745
G1 F20.0 Z-0.003
G1 F40.0 X0.6253 Y0.6523
G3 X0.6249 Y0.6542 I-0.0018 J0.0005
G1 X0.6191 Y0.6599
G1 X0.6134 Y0.6656
G3 X0.6105 Y0.6653 I-0.0013 J-0.0013
G1 X0.6008 Y0.65
G3 Y0.6499 I0.0016 J-0.001
G3 X0.5898 Y0.6132 I0.089 J-0.0466
G1 Y0.6131
G1 X0.5893 Y0.6034
G1 X0.5826 Y0.6265
G1 X0.5729 Y0.6602
G3 X0.5711 Y0.6616 I-0.0018 J-0.0005
G1 X0.5608
G1 X0.5505
G3 X0.5487 Y0.6592 I0.0 J-0.0019
G1 X0.5564 Y0.6307
G2 X0.5643 Y0.5739 I-0.5593 J-0.1072
G1 X0.5646 Y0.5454
G3 X0.5665 Y0.5436 I0.0019 J0.0
G1 X0.579
G1 X0.5916
G3 X0.5934 Y0.5449 I0.0 J0.0019
G1 X0.6094 Y0.5986
G1 X0.6213 Y0.6388
G0 Z0.125
G0 X0.5213 Y0.6125
G0 Z0.0745
G1 F20.0 Z-0.003
G2 F40.0 X0.5216 Y0.6076 I-0.0121 J-0.0032
G2 X0.5087 Y0.5955 I-0.0129 J0.0009
G1 X0.4977
G2 X0.4961 Y0.5984 I0.0 J0.0019
G1 X0.5025 Y0.6087
G2 X0.5144 Y0.6199 I0.0218 J-0.0113
G2 X0.5162 Y0.6197 I0.0008 J-0.0017
G2 X0.5213 Y0.6125 I-0.007 J-0.0104
G0 Z0.125
G0 X0.5075 Y0.6296
G0 Z0.0745
G1 F20.0 Z-0.003
G1 F40.0 X0.5167 Y0.6371
G1 X0.498
G1 X0.474
G2 X0.4727 Y0.6403 I0.0 J0.0019
G1 X0.484 Y0.6516
G1 X0.4954 Y0.663
G2 X0.4971 Y0.6635 I0.0013 J-0.0013
G1 X0.5162 Y0.6598
G1 X0.5353 Y0.6561
G2 X0.5368 Y0.6546 I-0.0004 J-0.0018
G1 X0.5429 Y0.6173
G1 X0.549 Y0.58
G2 X0.5472 Y0.5778 I-0.0018 J-0.0003
G1 X0.5181 Y0.577
G1 X0.518
G1 X0.5181
G1 X0.518
G1 X0.489 Y0.5761
G2 X0.4873 Y0.577 I-0.0001 J0.0019
G1 X0.4803 Y0.5884
G1 X0.4733 Y0.5998
G2 X0.4737 Y0.6022 I0.0016 J0.001
G1 X0.4973 Y0.6213
G1 X0.5075 Y0.6296
G0 Z0.125
G0 X0.459 Y0.5984
G0 Z0.0745
G1 F20.0 Z-0.003
G3 F40.0 X0.4574 Y0.5993 I-0.0016 J-0.001
G1 X0.4314
G1 X0.4073
G1 Y0.6441
G1 Y0.6909
G3 X0.4054 Y0.6928 I-0.0019 J0.0
G1 X0.395
G1 X0.3847
G3 X0.3828 Y0.6909 I0.0 J-0.0019
G1 Y0.6337
G1 Y0.5766
G3 X0.3847 Y0.5747 I0.0019 J0.0
G1 X0.421
G1 X0.4574
G3 X0.4593 Y0.5766 I0.0 J0.0019
G1 Y0.587
G1 Y0.5974
G3 X0.459 Y0.5984 I-0.0019 J0.0
G0 Z0.125
G0 Y0.5058
G0 Z0.0745
G1 F20.0 Z-0.003
G1 F40.0 X0.4586
G3 X0.4568 Y0.5043 I0.0 J-0.0019
G1 X0.4469 Y0.4601
G1 X0.4401 Y0.4299
G1 X0.4394 Y0.4468
G3 X0.4283 Y0.494 I-0.1101 J-0.001
G3 X0.4282 Y0.4942 I-0.0017 J-0.0008
G1 X0.4185 Y0.5095
G3 X0.4156 Y0.5098 I-0.0016 J-0.001
G1 X0.4097 Y0.5038
G1 X0.4037 Y0.4978
G3 X0.4032 Y0.4961 I0.0013 J-0.0013
G1 X0.4146 Y0.4427
G1 X0.4261 Y0.3892
G3 X0.4279 Y0.3877 I0.0018 J0.0004
G1 X0.4417
G1 X0.4556
G3 X0.4574 Y0.3893 I0.0 J0.0019
G1 X0.4654 Y0.4334
G1 X0.4719 Y0.4685
G1 X0.4798 Y0.4333
G1 X0.4897 Y0.3892
G3 X0.4915 Y0.3877 I0.0018 J0.0004
G1 X0.5047
G1 X0.518
G3 X0.5198 Y0.3892 I0.0 J0.0019
G1 X0.5313 Y0.4427
G1 X0.5428 Y0.4961
G3 X0.5422 Y0.4978 I-0.0018 J0.0004
G1 X0.5363 Y0.5038
G1 X0.5303 Y0.5098
G3 X0.5274 Y0.5095 I-0.0013 J-0.0013
G1 X0.5177 Y0.4942
G3 X0.5176 Y0.4939 I0.0016 J-0.001
G3 X0.5065 Y0.4468 I0.1256 J-0.0544
G1 X0.5058 Y0.4299
G1 X0.499 Y0.4601
G1 X0.4891 Y0.5043
G3 X0.4873 Y0.5058 I-0.0018 J-0.0004
G1 X0.473
G1 X0.459
G0 Z0.125
G0 X0.5491 Y0.4949
G0 Z0.0745
G1 F20.0 Z-0.003
G3 F40.0 X0.549 Y0.4935 I0.0122 J-0.0015
G3 X0.5613 Y0.4812 I0.0123 J0.0
G3 X0.5735 Y0.4935 I0.0 J0.0123
G3 X0.5613 Y0.5058 I-0.0123 J0.0
G3 X0.5491 Y0.4949 I0.0 J-0.0123
G0 Z0.125
G0 X0.5507 Y0.4746
G0 Z0.0745
G1 F20.0 Z-0.003
G3 F40.0 X0.549 Y0.4727 I0.0001 J-0.0019
G1 Y0.4312
G1 Y0.3896
G3 X0.5509 Y0.3877 I0.0019 J0.0
G1 X0.5613
G1 X0.5717
G3 X0.5735 Y0.3896 I0.0 J0.0019
G1 Y0.4312
G1 Y0.4727
G3 X0.5717 Y0.4746 I-0.0019 J0.0
G1 X0.5613
G1 X0.5509
G3 X0.5507 I0.0 J-0.0019
G0 Z0.125
G0 X0.5906
G0 Z0.0745
G1 F20.0 Z-0.003
G1 F40.0 Y0.4467
G1 Y0.3896
G3 X0.5924 Y0.3877 I0.0019 J0.0
G1 X0.6028
G1 X0.6132
G3 X0.6151 Y0.3896 I0.0 J0.0019
G1 Y0.4467
G1 Y0.5039
G3 X0.6132 Y0.5058 I-0.0019 J0.0
G1 X0.6028
G1 X0.5924
G3 X0.5906 Y0.5039 I0.0 J-0.0019
G1 Y0.4746
G0 Z0.125
G0 X0.6322 Y0.4635
G0 Z0.0745
G1 F20.0 Z-0.003
G3 F40.0 X0.6321 Y0.463 I0.0018 J-0.0005
G1 Y0.4467
G1 Y0.4305
G3 X0.6333 Y0.4288 I0.0019 J0.0
G1 X0.6567 Y0.4194
G1 X0.6717 Y0.4133
G1 X0.6567 Y0.4129
G1 X0.6327 Y0.4123
G3 X0.6312 Y0.4094 I0.0001 J-0.0019
G1 X0.6376 Y0.399
G1 X0.644 Y0.3886
G3 X0.6456 Y0.3877 I0.0016 J0.001
G1 X0.6661
G1 X0.6866
G3 X0.6883 Y0.3889 I0.0 J0.0019
G1 X0.6941 Y0.404
G1 X0.6999 Y0.4191
G3 X0.6998 Y0.4208 I-0.0017 J0.0007
G1 X0.693 Y0.4316
G3 X0.6929 Y0.4318 I-0.0016 J-0.001
G3 X0.6672 Y0.4445 I-0.0264 J-0.0213
G1 X0.6601 Y0.4449
G1 X0.6761 Y0.4498
G1 X0.7021 Y0.4577
G3 X0.7023 Y0.4612 I-0.0005 J0.0018
G1 X0.6841 Y0.4689
G1 X0.6659 Y0.4767
G3 X0.6645 I-0.0007 J-0.0017
G1 X0.6489 Y0.4707
G1 X0.6333 Y0.4647
G3 X0.6322 Y0.4635 I0.0007 J-0.0017
G0 Z0.125
G0 X0.7153 Y0.4497
G0 Z0.0745
G1 F20.0 Z-0.003
G3 F40.0 X0.7152 Y0.4494 I0.0018 J-0.0003
G1 Y0.432
G3 Y0.4318 I0.0019 J0.0
G3 X0.7281 Y0.4009 I0.0556 J0.005
G3 X0.7282 Y0.4008 I0.0014 J0.0012
G3 X0.754 Y0.3878 I0.0313 J0.03
G3 X0.7546 I0.0002 J0.0019
G3 X0.7805 Y0.4035 I-0.0079 J0.0421
G1 X0.793 Y0.4186
G3 X0.7934 Y0.4201 I-0.0014 J0.0012
G1 X0.7899 Y0.4377
G3 Y0.4378 I-0.0018 J-0.0004
G3 X0.7683 Y0.4674 I-0.0493 J-0.0134
G1 X0.751 Y0.4783
G3 X0.7488 Y0.4781 I-0.001 J-0.0016
G1 X0.7324 Y0.4645
G1 X0.7159 Y0.4508
G3 X0.7153 Y0.4497 I0.0012 J-0.0014
G0 Z0.125
G0 X0.7324 Y0.4325
G0 Z0.0745
G1 F20.0 Z-0.003
G1 F40.0 X0.7437 Y0.4438
G1 X0.755 Y0.4551
G2 X0.7579 Y0.4547 I0.0013 J-0.0013
G1 X0.7649 Y0.4434
G1 X0.7719 Y0.4321
G2 Y0.4302 I-0.0016 J-0.001
G1 X0.7649 Y0.4189
G1 X0.7579 Y0.4076
G2 X0.755 Y0.4073 I-0.0016 J0.001
G1 X0.7437 Y0.4185
G1 X0.7324 Y0.4298
G2 Y0.4325 I0.0013 J0.0013
G0 Z0.125
G0 X0.8087
G0 Z0.0745
G1 F20.0 Z-0.003
G1 F40.0 Y0.4303
G1 Y0.3896
G3 X0.8106 Y0.3877 I0.0019 J0.0
G1 X0.8203
G1 X0.83
G3 X0.8319 Y0.3894 I0.0 J0.0019
G1 X0.8351 Y0.4172
G1 X0.8383 Y0.4437
G1 X0.8501 Y0.4476
G1 X0.8607 Y0.4511
G1 Y0.4216
G1 Y0.3896
G3 X0.8625 Y0.3877 I0.0019 J0.0
G1 X0.8736
G1 X0.8846
G3 X0.8864 Y0.3898 I0.0 J0.0019
G1 X0.8832 Y0.4287
G1 X0.88 Y0.4677
G3 X0.8782 Y0.4694 I-0.0019 J-0.0002
G1 X0.8445 Y0.4711
G1 X0.8107 Y0.4728
G3 X0.8087 Y0.4709 I-0.0001 J-0.0019
G1 Y0.4325
G0 Z0.125
G0 X0.7307 Y0.3178
G0 Z0.0745
G1 F20.0 Z-0.003
G3 F40.0 X0.7297 Y0.3185 I-0.0278 J-0.0409
G3 X0.7287 Y0.3188 I-0.001 J-0.0016
G1 X0.7189
G3 X0.7172 Y0.3162 I0.0 J-0.0019
G1 X0.7288 Y0.2853
G1 X0.7403 Y0.2549
G1 X0.7293 Y0.2137
G1 X0.7182 Y0.1719
G3 X0.72 Y0.1696 I0.0018 J-0.0005
G1 X0.7292
G3 X0.7302 Y0.1699 I0.0 J0.0019
G3 X0.7503 Y0.1975 I-0.0265 J0.0404
G3 X0.7605 Y0.244 I-0.1686 J0.0614
G3 Y0.2443 I-0.0019 J0.0002
G3 X0.7503 Y0.2908 I-0.1538 J-0.0094
G3 X0.7307 Y0.3178 I-0.0475 J-0.0139
G0 Z0.125
G0 X0.708 Y0.2949
G0 Z0.0745
G1 F20.0 Z-0.003
G3 F40.0 X0.7079 Y0.295 I-0.0013 J-0.0013
G1 X0.6915 Y0.3087
G1 X0.675 Y0.3223
G3 X0.6728 Y0.3225 I-0.0012 J-0.0014
G1 X0.6555 Y0.3116
G1 X0.6382 Y0.3008
G3 X0.6373 Y0.2994 I0.001 J-0.0016
G1 X0.634 Y0.266
G1 X0.6307 Y0.2326
G3 X0.6311 Y0.2312 I0.0019 J-0.0002
G1 X0.6435 Y0.2163
G3 X0.6692 Y0.2008 I0.0332 J0.0258
G3 X0.6698 I0.0003 J0.0018
G3 X0.6956 Y0.2137 I-0.0076 J0.0471
G1 Y0.2138
G1 X0.708 Y0.2262
G3 X0.7086 Y0.2275 I-0.0013 J0.0013
G1 Y0.2606
G1 Y0.2936
G3 X0.708 Y0.2949 I-0.0019 J0.0
G0 Z0.125
G0 X0.6825 Y0.29
G0 Z0.0745
G1 F20.0 Z-0.003
G1 F40.0 X0.6859 Y0.2725
G2 Y0.2723 I-0.0018 J-0.0004
G2 X0.6831 Y0.2361 I-0.0931 J-0.0109
G2 X0.683 Y0.236 I-0.0018 J0.0005
G1 X0.6766 Y0.2192
G2 X0.6735 Y0.2186 I-0.0017 J0.0007
G1 X0.6626 Y0.2295
G1 X0.6517 Y0.2404
G2 X0.6512 Y0.242 I0.0013 J0.0013
G1 X0.6546 Y0.2666
G1 X0.6581 Y0.2912
G2 X0.66 Y0.2928 I0.0019 J-0.0003
G1 X0.6702
G1 X0.6805
G2 X0.6823 Y0.2913 I0.0 J-0.0019
G1 X0.6825 Y0.29
G0 Z0.125
G0 X0.6255
G0 Z0.0745
G1 F20.0 Z-0.003
G1 F40.0 Y0.2936
G3 X0.6248 Y0.295 I-0.0019 J0.0
G1 X0.6083 Y0.3087
G1 X0.5919 Y0.3223
G3 X0.5897 Y0.3225 I-0.0012 J-0.0014
G1 X0.5724 Y0.3116
G1 X0.5551 Y0.3008
G3 X0.5542 Y0.2994 I0.001 J-0.0016
G1 X0.5509 Y0.266
G1 X0.5476 Y0.2326
G3 X0.548 Y0.2312 I0.0019 J-0.0002
G1 X0.5604 Y0.2163
G3 X0.5861 Y0.2008 I0.0332 J0.0258
G3 X0.5867 I0.0003 J0.0018
G3 X0.6124 Y0.2137 I-0.0076 J0.0471
G1 X0.6125 Y0.2138
G1 X0.6249 Y0.2262
G3 X0.6255 Y0.2275 I-0.0013 J0.0013
G1 Y0.2606
G1 Y0.29
G0 Z0.125
G0 X0.6004 Y0.2851
G0 Z0.0745
G1 F20.0 Z-0.003
G1 F40.0 X0.6028 Y0.2725
G2 Y0.2723 I-0.0018 J-0.0004
G2 X0.6 Y0.2361 I-0.0931 J-0.0109
G2 X0.5999 Y0.236 I-0.0018 J0.0005
G1 X0.5935 Y0.2192
G2 X0.5904 Y0.2186 I-0.0017 J0.0007
G1 X0.5795 Y0.2295
G1 X0.5686 Y0.2404
G2 X0.568 Y0.242 I0.0013 J0.0013
G1 X0.5715 Y0.2666
G1 X0.575 Y0.2912
G2 X0.5769 Y0.2928 I0.0019 J-0.0003
G1 X0.5871
G1 X0.5973
G2 X0.5992 Y0.2913 I0.0 J-0.0019
G1 X0.6004 Y0.2851
G0 Z0.125
G0 X0.5424
G0 Z0.0745
G1 F20.0 Z-0.003
G1 F40.0 Y0.2936
G3 X0.5417 Y0.295 I-0.0019 J0.0
G1 X0.5252 Y0.3087
G1 X0.5088 Y0.3223
G3 X0.5066 Y0.3225 I-0.0012 J-0.0014
G1 X0.4893 Y0.3116
G1 X0.472 Y0.3008
G3 X0.4711 Y0.2994 I0.001 J-0.0016
G1 X0.4678 Y0.266
G1 X0.4645 Y0.2326
G3 X0.4649 Y0.2312 I0.0019 J-0.0002
G1 X0.4773 Y0.2163
G3 X0.503 Y0.2008 I0.0332 J0.0258
G3 X0.5036 I0.0003 J0.0018
G3 X0.5293 Y0.2137 I-0.0076 J0.0471
G1 Y0.2138
G1 X0.5418 Y0.2262
G3 X0.5424 Y0.2275 I-0.0013 J0.0013
G1 Y0.2606
G1 Y0.2851
G0 Z0.125
G0 X0.5181 Y0.2805
G0 Z0.0745
G1 F20.0 Z-0.003
G1 F40.0 X0.5197 Y0.2725
G2 Y0.2723 I-0.0018 J-0.0004
G2 X0.5169 Y0.2361 I-0.0931 J-0.0109
G2 X0.5168 Y0.236 I-0.0018 J0.0005
G1 X0.5104 Y0.2192
G2 X0.5073 Y0.2186 I-0.0017 J0.0007
G1 X0.4964 Y0.2295
G1 X0.4855 Y0.2404
G2 X0.4849 Y0.242 I0.0013 J0.0013
G1 X0.4884 Y0.2666
G1 X0.4919 Y0.2912
G2 X0.4937 Y0.2928 I0.0019 J-0.0003
G1 X0.504
G1 X0.5142
G2 X0.5161 Y0.2913 I0.0 J-0.0019
G1 X0.5181 Y0.2805
G0 Z0.125
G0 X0.4611 Y0.2737
G0 Z0.0745
G1 F20.0 Z-0.003
G3 F40.0 Y0.2738 I-0.0019 J-0.0002
G1 X0.4575 Y0.2929
G1 X0.4538 Y0.312
G3 X0.4522 Y0.3135 I-0.0018 J-0.0004
G1 X0.4307 Y0.3166
G1 X0.4091 Y0.3197
G3 X0.4074 Y0.3191 I-0.0003 J-0.0019
G1 X0.3938 Y0.3027
G1 X0.3803 Y0.2864
G3 X0.3804 Y0.2838 I0.0014 J-0.0012
G1 X0.3885 Y0.2763
G1 X0.3966 Y0.2688
G3 X0.3997 Y0.2695 I0.0013 J0.0014
G1 X0.4043 Y0.2825
G1 X0.4085 Y0.2942
G1 X0.4219
G1 X0.4347
G1 Y0.2826
G2 X0.4095 Y0.2456 I-0.0754 J0.0244
G3 X0.383 Y0.212 I0.0607 J-0.075
G3 X0.3828 Y0.2112 I0.0017 J-0.0008
G1 Y0.2026
G3 X0.3847 Y0.2007 I0.0019 J0.0
G1 X0.421
G1 X0.4574
G3 X0.4593 Y0.2026 I0.0 J0.0019
G1 Y0.213
G1 Y0.2234
G3 X0.4574 Y0.2253 I-0.0019 J0.0
G1 X0.4348
G1 X0.4165
G1 X0.4371 Y0.2471
G1 X0.4606 Y0.2722
G3 X0.4611 Y0.2737 I-0.0014 J0.0013
G0 Z0.125
G0 X0.3865 Y0.255
G0 Z0.0745
G1 F20.0 Z-0.003
G3 F40.0 X0.3847 Y0.2564 I-0.0018 J-0.0005
G1 X0.3639
G1 X0.3431
G3 X0.3412 Y0.2546 I0.0 J-0.0019
G1 Y0.2442
G1 Y0.2338
G3 X0.3431 Y0.2319 I0.0019 J0.0
G1 X0.3639
G1 X0.3847
G3 X0.3865 Y0.2338 I0.0 J0.0019
G1 Y0.2442
G1 Y0.2546
G3 Y0.255 I-0.0019 J0.0
G0 Z0.125
G0 X0.3242
G0 Z0.0745
G1 F20.0 Z-0.003
G1 F40.0 Y0.2606
G1 Y0.2936
G3 X0.3235 Y0.295 I-0.0019 J0.0
G1 X0.3071 Y0.3087
G1 X0.2906 Y0.3223
G3 X0.2884 Y0.3225 I-0.0012 J-0.0014
G1 X0.2711 Y0.3115
G1 X0.2538 Y0.3006
G3 X0.2529 Y0.299 I0.001 J-0.0016
G1 Y0.2747
G1 Y0.2503
G3 X0.2544 Y0.2485 I0.0019 J0.0
G1 X0.2802 Y0.2424
G1 X0.3017 Y0.2373
G1 X0.2936 Y0.2323
G1 X0.2824 Y0.2254
G1 X0.2654 Y0.2319
G1 X0.2474 Y0.2388
G3 X0.245 Y0.2365 I-0.0007 J-0.0017
G1 X0.2498 Y0.2219
G1 X0.2546 Y0.2072
G3 X0.2561 Y0.206 I0.0018 J0.0006
G1 X0.2762 Y0.203
G1 X0.2963 Y0.2
G3 X0.2979 Y0.2005 I0.0003 J0.0018
G1 X0.3108 Y0.2134
G1 X0.3236 Y0.2262
G3 X0.3242 Y0.2275 I-0.0013 J0.0013
G1 Y0.255
G0 Z0.125
G0 X0.3033 Y0.2642
G0 Z0.0745
G1 F20.0 Z-0.003
G2 F40.0 X0.3015 Y0.2631 I-0.0017 J0.0008
G1 X0.286
G1 X0.2704
G2 X0.2685 Y0.2649 I0.0 J0.0019
G1 Y0.2805
G1 Y0.2961
G2 X0.2704 Y0.298 I0.0019 J0.0
G1 X0.286
G1 X0.3015
G2 X0.3034 Y0.2961 I0.0 J-0.0019
G1 Y0.2805
G1 Y0.2649
G2 X0.3033 Y0.2642 I-0.0019 J0.0
G0 Z0.125
G0 X0.2395 Y0.2838
G0 Z0.0745
G1 F20.0 Z-0.003
G1 F40.0 X0.2498 Y0.3175
G3 X0.2474 Y0.3199 I-0.0018 J0.0005
G1 X0.2352 Y0.3158
G3 X0.2347 Y0.3155 I0.0006 J-0.0018
G3 X0.2122 Y0.2831 I0.036 J-0.0491
G1 X0.2025 Y0.2558
G3 X0.2024 Y0.2547 I0.0018 J-0.0006
G1 X0.2121 Y0.2162
G1 X0.2218 Y0.1778
G3 X0.2231 Y0.1764 I0.0018 J0.0005
G1 X0.2352 Y0.1724
G1 X0.2474 Y0.1685
G3 X0.2498 Y0.1708 I0.0006 J0.0018
G1 X0.2385 Y0.2077
G1 X0.2273 Y0.2442
G1 X0.2385 Y0.2806
G1 X0.2395 Y0.2838
G0 Z0.125
G0 X0.2206 Y0.3879
G0 Z0.0745
G1 F20.0 Z-0.003
G3 F40.0 X0.2307 Y0.4 I-0.0022 J0.0121
G3 X0.2184 Y0.4123 I-0.0123 J0.0
G3 X0.2062 Y0.4 I0.0 J-0.0123
G3 X0.2184 Y0.3877 I0.0123 J0.0
G3 X0.2206 Y0.3879 I0.0 J0.0123
G0 Z0.125
G0 X0.2019 Y0.3895
G0 Z0.0745
G1 F20.0 Z-0.003
G3 F40.0 X0.2016 Y0.3906 I-0.0019 J0.0002
G1 X0.1863 Y0.414
G1 X0.1716 Y0.4364
G1 X0.1816 Y0.4521
G1 X0.1922 Y0.4689
G3 X0.1923 Y0.4706 I-0.0016 J0.001
G1 X0.1858 Y0.4876
G1 X0.1793 Y0.5046
G3 X0.1775 Y0.5058 I-0.0017 J-0.0007
G1 X0.1357
G1 X0.0938
G3 X0.0919 Y0.5039 I0.0 J-0.0019
G1 Y0.4467
G1 Y0.3896
G3 X0.0938 Y0.3877 I0.0019 J0.0
G1 X0.1042
G1 X0.1145
G3 X0.1164 Y0.3896 I0.0 J0.0019
G1 Y0.4104
G1 Y0.4293
G1 X0.13
G1 X0.1445
G1 X0.1569 Y0.4094
G1 X0.1699 Y0.3886
G3 X0.1715 Y0.3877 I0.0016 J0.001
G1 X0.1858
G1 X0.2
G3 X0.2019 Y0.3895 I0.0 J0.0019
G0 Z0.125
G0 X0.2364 Y0.4181
G0 Z0.0745
G1 F20.0 Z-0.003
G1 F40.0 X0.248 Y0.4042
G3 X0.2743 Y0.3878 I0.0383 J0.0321
G3 X0.2751 I0.0004 J0.0018
G3 X0.3008 Y0.4007 I-0.0076 J0.0471
G1 Y0.4008
G1 X0.3133 Y0.4132
G3 X0.3138 Y0.4145 I-0.0013 J0.0013
G1 Y0.4592
G1 Y0.5039
G3 X0.3119 Y0.5058 I-0.0019 J0.0
G1 X0.3015
G1 X0.2912
G3 X0.2893 Y0.5039 I0.0 J-0.0019
G1 Y0.4571
G1 Y0.4123
G1 X0.2831
G2 X0.2636 Y0.424 I0.0134 J0.0444
G1 X0.2513 Y0.4363
G3 X0.2486 I-0.0013 J-0.0013
G1 X0.2418 Y0.4294
G1 X0.2349 Y0.4226
G3 X0.2348 Y0.4201 I0.0013 J-0.0013
G1 X0.2364 Y0.4181
G0 Z0.125
G0 X0.1682 Y0.4511
G0 Z0.0745
G1 F20.0 Z-0.003
G2 F40.0 X0.1665 Y0.4501 I-0.0017 J0.0008
G1 X0.1405
G1 X0.1145
G2 X0.1127 Y0.4519 I0.0 J0.0019
G1 Y0.4675
G1 Y0.4831
G2 X0.1145 Y0.485 I0.0019 J0.0
G1 X0.1405
G1 X0.1665
G2 X0.1684 Y0.4831 I0.0 J-0.0019
G1 Y0.4675
G1 Y0.4519
G2 X0.1682 Y0.4511 I-0.0019 J0.0
G0 Z0.125
G0 X0.146 Y0.5748
G0 Z0.0745
G1 F20.0 Z-0.003
G3 F40.0 X0.1476 Y0.5766 I-0.0003 J0.0018
G1 Y0.5967
G1 Y0.6151
G1 X0.1683 Y0.6182
G1 X0.1906 Y0.6215
G3 X0.1919 Y0.6224 I-0.0003 J0.0018
G1 X0.2024 Y0.6391
G1 X0.2129 Y0.6559
G3 X0.2131 Y0.6576 I-0.0016 J0.001
G1 X0.2066 Y0.6746
G1 X0.2001 Y0.6916
G3 X0.1983 Y0.6928 I-0.0017 J-0.0007
G1 X0.1616
G1 X0.1249
G3 X0.1231 Y0.6909 I0.0 J-0.0019
G1 Y0.6337
G1 Y0.5766
G3 X0.1249 Y0.5747 I0.0019 J0.0
G1 X0.1353
G1 X0.1457
G3 X0.146 Y0.5748 I0.0 J0.0019
G0 Z0.125
G0 Y0.6371
G0 Z0.0745
G1 F20.0 Z-0.003
G1 F40.0 X0.1457
G2 X0.1438 Y0.6389 I0.0 J0.0019
G1 Y0.6545
G1 Y0.6701
G2 X0.1457 Y0.672 I0.0019 J0.0
G1 X0.1665
G1 X0.1873
G2 X0.1891 Y0.6701 I0.0 J-0.0019
G1 Y0.6545
G1 Y0.6389
G2 X0.1873 Y0.6371 I-0.0019 J0.0
G1 X0.1665
G1 X0.146
G0 Z0.125
G0 X0.227
G0 Z0.0745
G1 F20.0 Z-0.003
G1 F40.0 Y0.6337
G1 Y0.6093
G3 X0.2275 Y0.6079 I0.0019 J0.0
G1 X0.2438 Y0.5916
G1 X0.2602 Y0.5753
G3 X0.2615 Y0.5747 I0.0013 J0.0013
G1 X0.2802
G1 X0.299
G3 X0.3004 Y0.5754 I0.0 J0.0019
G1 X0.312 Y0.5894
G1 X0.3236 Y0.6033
G3 X0.3235 Y0.6058 I-0.0014 J0.0012
G1 X0.3167 Y0.6126
G1 X0.31 Y0.6193
G3 X0.3075 Y0.6194 I-0.0013 J-0.0013
G1 X0.2937 Y0.608
G1 X0.2807 Y0.5972
G1 X0.266 Y0.6028
G1 X0.2515 Y0.6084
G1 Y0.6337
G1 Y0.6591
G1 X0.266 Y0.6647
G1 X0.2807 Y0.6703
G1 X0.2937 Y0.6595
G1 X0.3075 Y0.6481
G3 X0.31 Y0.6482 I0.0012 J0.0014
G1 X0.3167 Y0.6549
G1 X0.3235 Y0.6617
G3 X0.3236 Y0.6642 I-0.0013 J0.0013
G1 X0.312 Y0.6781
G1 X0.3004 Y0.6921
G3 X0.299 Y0.6928 I-0.0014 J-0.0012
G1 X0.2802
G1 X0.2615
G3 X0.2602 Y0.6922 I0.0 J-0.0019
G1 X0.2438 Y0.6759
G1 X0.2275 Y0.6596
G3 X0.227 Y0.6582 I0.0013 J-0.0013
G1 Y0.6371
G0 Z0.125
G0 X0.3377 Y0.411
G0 Z0.0745
G1 F20.0 Z-0.003
G3 F40.0 X0.3308 Y0.4 I0.0054 J-0.011
G3 X0.3431 Y0.3877 I0.0123 J0.0
G3 X0.3554 Y0.4 I0.0 J0.0123
G3 X0.3431 Y0.4123 I-0.0123 J0.0
G3 X0.3377 Y0.411 I0.0 J-0.0123
G0 Z0.125
G0 X0.4717 Y1.5617
G0 Z0.0745
G1 F20.0 Z-0.003
G3 F40.0 X0.4719 I0.0002 J0.0019
G1 X0.4945
G1 X0.5172
G3 X0.5186 Y1.5624 I0.0 J0.0019
G1 X0.5315 Y1.5779
G1 X0.5439 Y1.5928
G1 X0.7755
G1 X1.008
G3 X1.0099 Y1.5947 I0.0 J0.0019
G1 Y1.7173
G1 Y1.8391
G1 X1.0204 Y1.8496
G1 X1.0314 Y1.8607
G3 X1.032 Y1.8621 I-0.0013 J0.0013
G1 X1.0287 Y1.9077
G1 X1.0254 Y1.9533
G3 X1.0236 Y1.955 I-0.0019 J-0.0001
G1 X0.9976
G1 X0.9716
G3 X0.9698 Y1.9531 I0.0 J-0.0019
G1 X0.9737 Y1.7895
G1 X0.9777 Y1.6278
G1 X0.7613
G1 X0.5439
G1 X0.5315 Y1.6427
G1 X0.5186 Y1.6582
G3 X0.5172 Y1.6589 I-0.0014 J-0.0012
G1 X0.4945
G1 X0.4719
G3 X0.4706 Y1.6584 I0.0 J-0.0019
G1 X0.4581 Y1.6459
G1 X0.4457 Y1.6334
G3 X0.4451 Y1.6321 I0.0013 J-0.0013
G1 Y1.6103
G1 Y1.5885
G3 X0.4457 Y1.5872 I0.0019 J0.0
G1 X0.4581 Y1.5747
G1 X0.4706 Y1.5622
G3 X0.4717 Y1.5617 I0.0013 J0.0013
G0 Z0.125
G0 X0.4142 Y1.6658
G0 Z0.0745
G1 F20.0 Z-0.003
G3 F40.0 X0.4147 Y1.6662 I-0.0009 J0.0016
G1 X0.4277 Y1.6818
G1 X0.44 Y1.6967
G1 X0.5625
G1 X0.6859
G3 X0.6878 Y1.6986 I0.0 J0.0019
G1 Y1.7493
G1 Y1.7991
G1 X0.7027 Y1.8114
G1 X0.7183 Y1.8244
G3 X0.719 Y1.8258 I-0.0012 J0.0014
G1 Y1.8484
G1 Y1.8711
G3 X0.7184 Y1.8724 I-0.0019 J0.0
G1 X0.706 Y1.8849
G1 X0.6935 Y1.8973
G3 X0.6922 Y1.8979 I-0.0013 J-0.0013
G1 X0.6704
G1 X0.6485
G3 X0.6472 Y1.8973 I0.0 J-0.0019
G1 X0.6347 Y1.8849
G1 X0.6223 Y1.8724
G3 X0.6217 Y1.8711 I0.0013 J-0.0013
G1 Y1.8484
G1 Y1.8258
G3 X0.6224 Y1.8244 I0.0019 J0.0
G1 X0.638 Y1.8114
G1 X0.6529 Y1.7991
G1 Y1.7649
G1 Y1.7316
G1 X0.547
G1 X0.44
G1 X0.4277 Y1.7466
G1 X0.4147 Y1.7621
G3 X0.4133 Y1.7628 I-0.0014 J-0.0012
G1 X0.3907
G1 X0.368
G3 X0.3667 Y1.7623 I0.0 J-0.0019
G1 X0.3542 Y1.7498
G1 X0.3418 Y1.7373
G3 X0.3412 Y1.736 I0.0013 J-0.0013
G1 Y1.7142
G1 Y1.6924
G3 X0.3418 Y1.6911 I0.0019 J0.0
G1 X0.3542 Y1.6786
G1 X0.3667 Y1.6661
G3 X0.368 Y1.6656 I0.0013 J0.0013
G1 X0.3907
G1 X0.4133
G3 X0.4142 Y1.6658 I0.0 J0.0019
G0 Z0.125
G0 X1.0477 Y1.6907
G0 Z0.0745
G1 F20.0 Z-0.003
G3 F40.0 X1.0484 Y1.6893 I0.0019 J0.0001
G1 X1.0639 Y1.6764
G1 X1.0788 Y1.664
G1 Y1.6142
G1 Y1.5636
G3 X1.0807 Y1.5617 I0.0019 J0.0
G1 X1.4755
G1 X1.8703
G3 X1.8721 Y1.5636 I0.0 J0.0019
G1 Y1.6142
G1 Y1.664
G1 X1.887 Y1.6764
G1 X1.9026 Y1.6893
G3 X1.9033 Y1.6908 I-0.0012 J0.0014
G1 Y1.7134
G1 Y1.736
G3 X1.9028 Y1.7373 I-0.0019 J0.0
G1 X1.8903 Y1.7498
G1 X1.8778 Y1.7623
G3 X1.8765 Y1.7628 I-0.0013 J-0.0013
G1 X1.8547
G1 X1.8329
G3 X1.8315 Y1.7623 I0.0 J-0.0019
G1 X1.8191 Y1.7498
G1 X1.8066 Y1.7373
G3 X1.8061 Y1.736 I0.0013 J-0.0013
G1 Y1.7134
G1 Y1.6908
G3 X1.8067 Y1.6893 I0.0019 J0.0
G1 X1.8223 Y1.6764
G1 X1.8372 Y1.664
G1 Y1.6298
G1 Y1.5966
G1 X1.4755
G1 X1.1138
G1 Y1.6298
G1 Y1.664
G1 X1.1287 Y1.6764
G1 X1.1442 Y1.6893
G3 X1.1449 Y1.6908 I-0.0012 J0.0014
G1 Y1.7142
G1 Y1.7376
G3 X1.1442 Y1.7391 I-0.0019 J0.0
G1 X1.1287 Y1.752
G1 X1.1138 Y1.7644
G1 Y1.8017
G1 Y1.8391
G1 X1.1243 Y1.8496
G1 X1.1353 Y1.8607
G3 X1.1359 Y1.8621 I-0.0013 J0.0013
G1 X1.1326 Y1.9077
G1 X1.1293 Y1.9533
G3 X1.1275 Y1.955 I-0.0019 J-0.0001
G1 X1.0963
G1 X1.0651
G3 X1.0633 Y1.9533 I0.0 J-0.0019
G1 X1.06 Y1.9077
G1 X1.0567 Y1.8621
G3 X1.0573 Y1.8607 I0.0019 J-0.0001
G1 X1.0683 Y1.8496
G1 X1.0788 Y1.8391
G1 Y1.8017
G1 Y1.7644
G1 X1.0639 Y1.752
G1 X1.0484 Y1.7391
G3 X1.0477 Y1.7376 I0.0012 J-0.0014
G1 Y1.7142
G1 Y1.6908
G1 Y1.6907
G0 Z0.125
G0 X1.1827 Y1.6985
G0 Z0.0745
G1 F20.0 Z-0.003
G3 F40.0 X1.1846 Y1.6967 I0.0019 J0.0001
G1 X1.2716
G1 X1.3578
G1 X1.3702 Y1.6818
G1 X1.3831 Y1.6662
G3 X1.3845 Y1.6656 I0.0014 J0.0012
G1 X1.4072
G1 X1.4298
G3 X1.4311 Y1.6661 I0.0 J0.0019
G1 X1.4436 Y1.6786
G1 X1.456 Y1.6911
G3 X1.4566 Y1.6924 I-0.0013 J0.0013
G1 Y1.7142
G1 Y1.736
G3 X1.456 Y1.7373 I-0.0019 J0.0
G1 X1.4436 Y1.7498
G1 X1.4311 Y1.7623
G3 X1.4298 Y1.7628 I-0.0013 J-0.0013
G1 X1.4072
G1 X1.3845
G3 X1.3831 Y1.7621 I0.0 J-0.0019
G1 X1.3702 Y1.7466
G1 X1.3578 Y1.7316
G1 X1.2872
G1 X1.2176
G1 Y1.7869
G1 Y1.8422
G1 X1.2262
G1 X1.2365
G3 X1.2384 Y1.8441 I0.0 J0.0019
G1 Y1.8596
G1 Y1.8733
G1 X1.2664
G1 X1.2955
G1 X1.3078 Y1.8584
G1 X1.3208 Y1.8429
G3 X1.3222 Y1.8422 I0.0014 J0.0012
G1 X1.3456
G1 X1.3691
G3 X1.3705 Y1.8429 I0.0 J0.0019
G1 X1.3834 Y1.8584
G1 X1.3958 Y1.8733
G1 X1.4547
G1 X1.5136
G1 X1.526 Y1.8584
G1 X1.5389 Y1.8429
G3 X1.5404 Y1.8422 I0.0014 J0.0012
G1 X1.563
G1 X1.5856
G3 X1.5869 Y1.8427 I0.0 J0.0019
G1 X1.5994 Y1.8552
G1 X1.6119 Y1.8677
G3 X1.6124 Y1.869 I-0.0013 J0.0013
G1 Y1.8908
G1 Y1.9126
G3 X1.6119 Y1.9139 I-0.0019 J0.0
G1 X1.5994 Y1.9264
G1 X1.5869 Y1.9389
G3 X1.5856 Y1.9394 I-0.0013 J-0.0013
G1 X1.563
G1 X1.5404
G3 X1.5389 Y1.9387 I0.0 J-0.0019
G1 X1.526 Y1.9232
G1 X1.5136 Y1.9083
G1 X1.4547
G1 X1.3958
G1 X1.3834 Y1.9232
G1 X1.3705 Y1.9387
G3 X1.3691 Y1.9394 I-0.0014 J-0.0012
G1 X1.3456
G1 X1.3222
G3 X1.3208 Y1.9387 I0.0 J-0.0019
G1 X1.3078 Y1.9232
G1 X1.2955 Y1.9083
G1 X1.2664
G1 X1.2384
G1 Y1.9324
G1 Y1.9583
G3 X1.2365 Y1.9602 I-0.0019 J0.0
G1 X1.2002
G1 X1.1638
G3 X1.162 Y1.9583 I0.0 J-0.0019
G1 Y1.9012
G1 Y1.8441
G3 X1.1638 Y1.8422 I0.0019 J0.0
G1 X1.1742
G1 X1.1827
G1 Y1.7713
G1 Y1.6986
G3 Y1.6985 I0.0019 J0.0
G0 Z0.125
G0 X1.1181 Y2.1425
G0 Z0.0745
G1 F20.0 Z-0.003
G3 F40.0 X1.1192 Y2.1431 I-0.0003 J0.0019
G1 X1.1266 Y2.1505
G3 X1.127 Y2.1512 I-0.0013 J0.0013
G3 X1.1345 Y2.2036 I-0.1288 J0.0452
G1 Y2.248
G3 X1.1336 Y2.2496 I-0.0019 J0.0
G1 X1.1233 Y2.256
G1 X1.1138 Y2.2619
G1 Y2.2846
G1 Y2.3075
G1 X1.1321 Y2.3241
G1 X1.1322 Y2.3242
G2 X1.1608 Y2.3408 I0.0495 J-0.0523
G2 X1.1831 Y2.326 I-0.0117 J-0.0419
G1 X1.1832 Y2.3259
G1 X1.1961 Y2.3104
G3 X1.1975 Y2.3097 I0.0014 J0.0012
G1 X1.2202
G1 X1.2428
G3 X1.2441 Y2.3102 I0.0 J0.0019
G1 X1.2566 Y2.3227
G1 X1.269 Y2.3352
G3 X1.2696 Y2.3365 I-0.0013 J0.0013
G1 Y2.3583
G1 Y2.3801
G3 X1.269 Y2.3814 I-0.0019 J0.0
G1 X1.2566 Y2.3939
G3 X1.2564 Y2.394 I-0.0013 J-0.0013
G3 X1.2224 Y2.4069 I-0.037 J-0.0464
G1 X1.2223
G1 X1.2018
G3 X1.2006 Y2.4064 I0.0 J-0.0019
G1 X1.181 Y2.3887
G1 X1.1625 Y2.372
G1 X1.1462 Y2.3836
G3 X1.1076 Y2.4058 I-0.1031 J-0.1348
G2 X1.0305 Y2.4729 I0.327 J0.4534
G1 Y2.473
G1 X0.9737 Y2.531
G3 X0.9723 Y2.5316 I-0.0013 J-0.0013
G1 X0.9291
G1 X0.8867
G1 X0.8744 Y2.5465
G1 X0.8614 Y2.5621
G3 X0.86 Y2.5628 I-0.0014 J-0.0012
G1 X0.8374
G1 X0.8148
G3 X0.8134 Y2.5622 I0.0 J-0.0019
G1 X0.801 Y2.5497
G1 X0.7885 Y2.5373
G3 X0.788 Y2.536 I0.0013 J-0.0013
G1 Y2.5141
G1 Y2.4923
G3 X0.7885 Y2.491 I0.0019 J0.0
G1 X0.801 Y2.4785
G1 X0.8134 Y2.4661
G3 X0.8148 Y2.4655 I0.0013 J0.0013
G1 X0.8374
G1 X0.86
G3 X0.8614 Y2.4662 I0.0 J0.0019
G1 X0.8744 Y2.4818
G1 X0.8867 Y2.4967
G1 X0.9135
G1 X0.9404
G1 X0.994 Y2.4424
G1 X1.0477 Y2.388
G1 Y2.3618
G1 Y2.3349
G3 X1.0484 Y2.3334 I0.0019 J0.0
G1 X1.0639 Y2.3205
G1 X1.0788 Y2.3081
G1 Y2.2864
G1 Y2.2863
G2 X1.0683 Y2.254 I-0.0498 J-0.0016
G1 X1.0573 Y2.243
G3 X1.0567 Y2.2415 I0.0013 J-0.0013
G1 X1.06 Y2.196
G1 X1.0633 Y2.1504
G3 X1.0649 Y2.1487 I0.0019 J0.0001
G1 X1.0913 Y2.1456
G1 X1.1176 Y2.1425
G3 X1.1181 I0.0002 J0.0019
G0 Z0.125
G0 X1.0324 Y2.1665
G0 Z0.0745
G1 F20.0 Z-0.003
G3 F40.0 Y2.1672 I-0.0018 J0.0005
G1 X1.0251 Y2.2576
G1 X1.0178 Y2.3481
G3 X1.0174 Y2.3491 I-0.0019 J-0.0002
G1 X1.0069 Y2.3621
G1 X0.9965 Y2.3751
G3 X0.9951 Y2.3758 I-0.0015 J-0.0012
G1 X0.9145
G1 X0.8348
G1 X0.8224 Y2.3907
G1 X0.8095 Y2.4062
G3 X0.8081 Y2.4069 I-0.0014 J-0.0012
G1 X0.7907
G2 X0.762 Y2.4189 I0.0048 J0.0518
G1 X0.7501 Y2.4308
G1 Y2.5214
G1 Y2.611
G1 X0.9249
G1 X1.0996
G1 Y2.5469
G1 Y2.481
G3 X1.1002 Y2.4796 I0.0019 J0.0
G1 X1.1192 Y2.4624
G1 X1.1382 Y2.4452
G3 X1.1395 Y2.4447 I0.0013 J0.0014
G1 X1.2348
G1 X1.3282
G1 Y2.3492
G1 Y2.2526
G1 X1.3133 Y2.2403
G1 X1.2977 Y2.2273
G3 X1.297 Y2.2259 I0.0012 J-0.0014
G1 Y2.2033
G1 Y2.1807
G3 X1.2976 Y2.1793 I0.0019 J0.0
G1 X1.31 Y2.1669
G1 X1.3225 Y2.1544
G3 X1.3238 Y2.1538 I0.0013 J0.0013
G1 X1.3456
G1 X1.3674
G3 X1.3688 Y2.1544 I0.0 J0.0019
G1 X1.3812 Y2.1669
G1 X1.3937 Y2.1793
G3 X1.3943 Y2.1807 I-0.0013 J0.0013
G1 Y2.2033
G1 Y2.2259
G3 X1.3936 Y2.2273 I-0.0019 J0.0
G1 X1.378 Y2.2403
G1 X1.3631 Y2.2526
G1 Y2.3648
G1 Y2.4778
G3 X1.3612 Y2.4796 I-0.0019 J0.0
G1 X1.2641
G1 X1.1679
G1 X1.1512 Y2.498
G1 X1.1345 Y2.5165
G1 Y2.5799
G1 Y2.644
G3 X1.1327 Y2.6459 I-0.0019 J0.0
G1 X0.9249
G1 X0.7171
G3 X0.7152 Y2.644 I0.0 J-0.0019
G1 Y2.5199
G1 Y2.3959
G3 X0.7161 Y2.3943 I0.0019 J0.0
G1 X0.7265 Y2.3879
G1 X0.736 Y2.382
G1 Y2.3598
G1 Y2.3365
G3 X0.7366 Y2.3352 I0.0019 J0.0
G1 X0.749 Y2.3227
G1 X0.7615 Y2.3102
G3 X0.7628 Y2.3097 I0.0013 J0.0013
G1 X0.7854
G1 X0.8081
G3 X0.8095 Y2.3104 I0.0 J0.0019
G1 X0.8224 Y2.3259
G1 X0.8348 Y2.3408
G1 X0.8981
G1 X0.9615
G1 X0.9734 Y2.3289
G1 X0.9853 Y2.317
G1 Y2.2908
G1 Y2.2645
G1 X0.9748 Y2.254
G1 X0.9638 Y2.243
G3 X0.9632 Y2.2415 I0.0013 J-0.0013
G1 X0.9665 Y2.196
G1 X0.9698 Y2.1504
G3 X0.9714 Y2.1487 I0.0019 J0.0001
G1 X0.9938 Y2.1455
G1 X1.0162 Y2.1423
G3 X1.018 Y2.1432 I0.0003 J0.0019
G1 X1.0251 Y2.1546
G1 X1.0322 Y2.166
G3 X1.0324 Y2.1665 I-0.0016 J0.001
G0 Z0.125
G0 X1.1984 Y2.528
G0 Z0.0745
G1 F20.0 Z-0.003
G3 F40.0 X1.1991 Y2.5278 I0.0008 J0.0017
G1 X1.2218
G1 X1.2444
G3 X1.2458 Y2.5285 I0.0 J0.0019
G1 X1.2588 Y2.5441
G2 X1.2833 Y2.559 I0.0318 J-0.0249
G2 X1.3078 Y2.5441 I-0.0084 J-0.0415
G1 X1.3208 Y2.5285
G3 X1.3222 Y2.5278 I0.0014 J0.0012
G1 X1.3448
G1 X1.3674
G3 X1.3688 Y2.5284 I0.0 J0.0019
G1 X1.3812 Y2.5409
G1 X1.3937 Y2.5533
G3 X1.3943 Y2.5547 I-0.0013 J0.0013
G1 Y2.5765
G1 Y2.5983
G3 X1.3937 Y2.5996 I-0.0019 J0.0
G1 X1.3812 Y2.6121
G1 X1.3688 Y2.6245
G3 X1.3674 Y2.6251 I-0.0013 J-0.0013
G1 X1.3448
G1 X1.3222
G3 X1.3208 Y2.6244 I0.0 J-0.0019
G1 X1.3078 Y2.6088
G2 X1.2837 Y2.594 I-0.0308 J0.0231
G2 X1.2552 Y2.6122 I0.0126 J0.0511
G3 X1.2551 Y2.6123 I-0.0015 J-0.0012
G1 X1.2384 Y2.6308
G1 Y2.6838
G1 Y2.7375
G3 X1.2365 Y2.7394 I-0.0019 J0.0
G1 X1.1911
G1 X1.1465
G1 X1.1341 Y2.7543
G1 X1.1212 Y2.7699
G3 X1.1197 Y2.7705 I-0.0014 J-0.0012
G1 X1.0966
G1 X1.0744
G1 X1.0577 Y2.7889
G1 X1.041 Y2.8074
G1 Y2.8271
G3 X1.0281 Y2.8613 I-0.052 J-0.0001
G3 X1.028 Y2.8614 I-0.0014 J-0.0012
G1 X1.0155 Y2.8739
G3 X1.0142 Y2.8744 I-0.0013 J-0.0013
G1 X0.9916
G1 X0.969
G3 X0.9675 Y2.8737 I0.0 J-0.0019
G1 X0.9546 Y2.8582
G1 X0.9422 Y2.8433
G1 X0.8937
G1 X0.8452
G1 X0.8328 Y2.8582
G1 X0.8199 Y2.8737
G3 X0.8184 Y2.8744 I-0.0014 J-0.0012
G1 X0.7958
G1 X0.7732
G3 X0.7719 Y2.8739 I0.0 J-0.0019
G1 X0.7594 Y2.8614
G1 X0.7469 Y2.8489
G3 X0.7464 Y2.8476 I0.0013 J-0.0013
G1 Y2.8258
G1 Y2.804
G3 X0.7469 Y2.8027 I0.0019 J0.0
G1 X0.7594 Y2.7902
G1 X0.7719 Y2.7777
G3 X0.7732 Y2.7772 I0.0013 J0.0013
G1 X0.7958
G1 X0.8184
G3 X0.8199 Y2.7779 I0.0 J0.0019
G1 X0.8328 Y2.7934
G1 X0.8452 Y2.8083
G1 X0.8937
G1 X0.9422
G1 X0.9546 Y2.7934
G1 X0.9675 Y2.7779
G3 X0.969 Y2.7772 I0.0014 J0.0012
G1 X0.9867
G1 X1.0036
G1 X1.0256 Y2.7537
G2 X1.0477 Y2.7152 I-0.0578 J-0.0587
G3 X1.0607 Y2.6863 I0.0454 J0.003
G1 X1.0732 Y2.6738
G3 X1.0745 Y2.6733 I0.0013 J0.0013
G1 X1.0971
G1 X1.1197
G3 X1.1212 Y2.674 I0.0 J0.0019
G1 X1.1341 Y2.6896
G1 X1.1465 Y2.7045
G1 X1.1755
G1 X1.2035
G1 Y2.666
G1 Y2.6266
G1 X1.1886 Y2.6143
G1 X1.173 Y2.6013
G3 X1.1723 Y2.5999 I0.0012 J-0.0014
G1 Y2.5773
G1 Y2.5547
G3 X1.1729 Y2.5533 I0.0019 J0.0
G1 X1.1854 Y2.5409
G1 X1.1978 Y2.5284
G3 X1.1984 Y2.528 I0.0013 J0.0013
G0 Z0.125
G0 Y2.7772
G0 Z0.0745
G1 F20.0 Z-0.003
G1 F40.0 X1.201
G1 X1.2236
G3 X1.2251 Y2.7779 I0.0 J0.0019
G1 X1.238 Y2.7934
G1 X1.2504 Y2.8083
G1 X1.2989
G1 X1.3474
G1 X1.3598 Y2.7934
G1 X1.3727 Y2.7779
G3 X1.3741 Y2.7772 I0.0014 J0.0012
G1 X1.3968
G1 X1.4194
G3 X1.4207 Y2.7777 I0.0 J0.0019
G1 X1.4332 Y2.7902
G1 X1.4456 Y2.8027
G3 X1.4462 Y2.804 I-0.0013 J0.0013
G1 Y2.8258
G1 Y2.8476
G3 X1.4456 Y2.8489 I-0.0019 J0.0
G1 X1.4332 Y2.8614
G1 X1.4207 Y2.8739
G3 X1.4194 Y2.8744 I-0.0013 J-0.0013
G1 X1.3968
G1 X1.3741
G3 X1.3727 Y2.8737 I0.0 J-0.0019
G1 X1.3598 Y2.8582
G1 X1.3474 Y2.8433
G1 X1.2989
G1 X1.2504
G1 X1.238 Y2.8582
G1 X1.2251 Y2.8737
G3 X1.2236 Y2.8744 I-0.0014 J-0.0012
G1 X1.201
G1 X1.1784
G3 X1.177 Y2.8739 I0.0 J-0.0019
G1 X1.1646 Y2.8614
G1 X1.1521 Y2.8489
G3 X1.1516 Y2.8476 I0.0013 J-0.0013
G1 Y2.8258
G1 Y2.804
G3 X1.1521 Y2.8027 I0.0019 J0.0
G1 X1.1646 Y2.7902
G1 X1.177 Y2.7777
G3 X1.1784 Y2.7772 I0.0013 J0.0013
G1 X1.1984
G0 Z0.125
G0 X1.5152 Y2.8022
G0 Z0.0745
G1 F20.0 Z-0.003
G3 F40.0 X1.5159 Y2.8009 I0.0019 J0.0001
G1 X1.5314 Y2.788
G1 X1.5463 Y2.7756
G1 Y2.7011
G1 Y2.6266
G1 X1.5314 Y2.6143
G1 X1.5159 Y2.6013
G3 X1.5152 Y2.5999 I0.0012 J-0.0014
G1 Y2.5765
G1 Y2.553
G3 X1.5159 Y2.5516 I0.0019 J0.0
G1 X1.5314 Y2.5387
G1 X1.5463 Y2.5263
G1 Y2.3895
G1 Y2.2526
G1 X1.5314 Y2.2403
G1 X1.5159 Y2.2273
