( Made using CamBam - http://www.cambam.co.uk )
( vcobrd 11/23/2014 10:46:58 PM )
( T1 : 0.04 )
( T2 : 0.031 )
G20 G90 G64 G40
G0 Z0.125
( T1 : 0.04 )
T1 M6
( Drill1 )
G17
M3 S1000
G0 X4.4323 Y2.6587
G98
G81 X4.4323 Y2.6587 Z-0.075 R0.125 F20.0
G81 X4.4305 Y2.4809 Z-0.075
G81 X4.4323 Y2.3267 Z-0.075
G81 X4.9094 Y2.4719 Z-0.075
G81 X4.9075 Y2.6278 Z-0.075
G81 X4.9094 Y2.773 Z-0.075
G81 Y1.9748 Z-0.075
G81 X4.9077 Y1.86 Z-0.075
G81 X4.9099 Y1.7458 Z-0.075
G81 X4.5065 Y1.496 Z-0.075
G81 X4.0776 Y0.9972 Z-0.075
G81 X3.632 Y0.0622 Z-0.075
G81 X2.021 Y0.229 Z-0.075
G81 X2.0203 Y1.0063 Z-0.075
G81 X2.0828 Y2.9008 Z-0.075
G81 X2.3025 Y2.8984 Z-0.075
G81 X0.3686 Y2.5145 Z-0.075
G80
( Drill2 )
G0 Z0.125
( T2 : 0.031 )
T2 M6
M3 S1000
G0 X1.9596 Y0.3036
G98
G81 X1.9596 Y0.3036 Z-0.075 R0.125 F20.0
G81 X1.885 Y0.4265 Z-0.075
G81 X1.7492 Y0.5526 Z-0.075
G81 X1.6156 Y0.5485 Z-0.075
G81 X1.5325 Y0.4245 Z-0.075
G81 X1.4412 Y0.4177 Z-0.075
G81 X1.4385 Y0.5594 Z-0.075
G81 X1.3349 Y0.5607 Z-0.075
G81 X1.2354 Y0.5594 Z-0.075
G81 X1.1373 Z-0.075
G81 X1.2313 Y0.4149 Z-0.075
G81 X1.3335 Y0.3005 Z-0.075
G81 X1.617 Z-0.075
G81 X1.6184 Y0.8606 Z-0.075
G81 X1.7492 Y0.8592 Z-0.075
G81 X1.885 Y0.8655 Z-0.075
G81 X1.8851 Y1.0096 Z-0.075
G81 X2.1988 Y0.8633 Z-0.075
G81 X2.3327 Y0.8611 Z-0.075
G81 X2.4315 Y0.8589 Z-0.075
G81 X2.528 Y0.8611 Z-0.075
G81 X2.6334 Y0.8589 Z-0.075
G81 X2.7475 Y1.0279 Z-0.075
G81 X2.9055 Y0.9248 Z-0.075
G81 X3.1426 Y0.8216 Z-0.075
G81 X3.373 Y0.8611 Z-0.075
G81 X3.4696 Y0.8633 Z-0.075
G81 X3.5662 Y0.8611 Z-0.075
G81 X3.6715 Y0.8633 Z-0.075
G81 X3.6627 Y1.0279 Z-0.075
G81 X3.5684 Z-0.075
G81 X3.2567 Z-0.075
G81 X3.3708 Y0.5604 Z-0.075
G81 X3.4805 Y0.561 Z-0.075
G81 X3.5662 Y0.5604 Z-0.075
G81 X3.6737 Y0.5626 Z-0.075
G81 X3.8274 Y0.4814 Z-0.075
G81 X3.7549 Y0.3761 Z-0.075
G81 X3.6611 Y0.3762 Z-0.075
G81 X3.913 Y0.3761 Z-0.075
G81 X4.0468 Y0.3739 Z-0.075
G81 X4.139 Y0.4792 Z-0.075
G81 X3.9854 Y0.5626 Z-0.075
G81 Y0.8721 Z-0.075
G81 X3.9722 Y1.0279 Z-0.075
G81 X4.308 Y0.8721 Z-0.075
G81 X4.3058 Y0.5604 Z-0.075
G81 X3.7571 Y0.0644 Z-0.075
G81 X3.3511 Y0.3739 Z-0.075
G81 X3.1426 Y0.5077 Z-0.075
G81 X2.967 Y0.2926 Z-0.075
G81 X2.8616 Y0.3914 Z-0.075
G81 Y0.1895 Z-0.075
G81 X2.561 Y0.071 Z-0.075
G81 X2.4249 Y0.0732 Z-0.075
G81 X2.4271 Y0.3848 Z-0.075
G81 X2.5631 Z-0.075
G81 X2.5302 Y0.5626 Z-0.075
G81 X2.4315 Y0.5648 Z-0.075
G81 X2.3327 Z-0.075
G81 X2.6334 Y0.5626 Z-0.075
G81 X2.4358 Y1.0277 Z-0.075
G81 X2.3006 Y1.6741 Z-0.075
G81 X2.3023 Y1.7978 Z-0.075
G81 X2.416 Z-0.075
G81 X2.5203 Y1.7971 Z-0.075
G81 X2.6237 Z-0.075
G81 Y1.9205 Z-0.075
G81 X2.747 Z-0.075
G81 X2.8812 Y1.9223 Z-0.075
G81 X3.0499 Y1.9096 Z-0.075
G81 Y1.8189 Z-0.075
G81 X3.1515 Y1.6302 Z-0.075
G81 X3.0481 Y1.5087 Z-0.075
G81 X2.9048 Y1.5069 Z-0.075
G81 X3.2567 Y1.7572 Z-0.075
G81 X3.3692 Y1.6321 Z-0.075
G81 X3.371 Y1.9023 Z-0.075
G81 X3.4708 Y1.906 Z-0.075
G81 X3.5687 Y1.9005 Z-0.075
G81 X3.6721 Y1.9023 Z-0.075
G81 X3.9333 Y1.8588 Z-0.075
G81 X4.1403 Y1.9767 Z-0.075
G81 X4.2455 Y1.9748 Z-0.075
G81 X4.3489 Z-0.075
G81 X4.5031 Y1.9767 Z-0.075
G81 X4.5012 Y2.0891 Z-0.075
G81 Y2.1998 Z-0.075
G81 X4.5049 Y2.3267 Z-0.075
G81 X4.2963 Y2.3286 Z-0.075
G81 X4.1512 Y2.4084 Z-0.075
G81 X4.1493 Y2.2451 Z-0.075
G81 X4.2654 Y2.5553 Z-0.075
G81 X4.5557 Y2.597 Z-0.075
G81 Y2.9072 Z-0.075
G81 X4.2654 Y2.9108 Z-0.075
G81 X4.1711 Y2.909 Z-0.075
G81 X3.8573 Z-0.075
G81 X3.7031 Z-0.075
G81 X3.5979 Y2.9072 Z-0.075
G81 X3.4963 Y2.909 Z-0.075
G81 X3.3295 Z-0.075
G81 X3.1535 Y2.889 Z-0.075
G81 X3.048 Y2.8863 Z-0.075
G81 X2.9501 Z-0.075
G81 X2.8529 Z-0.075
G81 X2.7491 Y2.8888 Z-0.075
G81 X2.6501 Z-0.075
G81 X2.5511 Y2.8863 Z-0.075
G81 X2.3966 Y2.8984 Z-0.075
G81 X2.1769 Y2.9008 Z-0.075
G81 X2.3942 Y2.6715 Z-0.075
G81 X2.5511 Y2.587 Z-0.075
G81 X2.6501 Z-0.075
G81 X2.7491 Z-0.075
G81 X2.8529 Y2.5846 Z-0.075
G81 X2.9519 Y2.5852 Z-0.075
G81 X2.9428 Y2.6796 Z-0.075
G81 X3.0499 Y2.5834 Z-0.075
G81 X3.1517 Y2.5879 Z-0.075
G81 X3.1426 Y2.441 Z-0.075
G81 X3.0499 Y2.3367 Z-0.075
G81 X3.2569 Y2.3267 Z-0.075
G81 X3.2587 Y2.2034 Z-0.075
G81 X3.3694 Z-0.075
G81 X3.4709 Y2.1998 Z-0.075
G81 X3.5671 Y2.2016 Z-0.075
G81 X3.6723 Y2.2034 Z-0.075
G81 X3.5689 Y2.3267 Z-0.075
G81 X3.5653 Y2.4374 Z-0.075
G81 X3.5907 Y2.5553 Z-0.075
G81 X3.7575 Z-0.075
G81 X3.3911 Y2.4392 Z-0.075
G81 X3.3277 Y2.6278 Z-0.075
G81 X3.1426 Y2.1073 Z-0.075
G81 X2.8819 Y2.1934 Z-0.075
G81 X2.7467 Y2.2538 Z-0.075
G81 X2.6236 Z-0.075
G81 X2.4159 Z-0.075
G81 X2.1868 Y2.2018 Z-0.075
G81 X2.0829 Y2.2034 Z-0.075
G81 X1.9856 Z-0.075
G81 X1.8851 Z-0.075
G81 X1.9789 Y2.3262 Z-0.075
G81 X2.0828 Y2.3914 Z-0.075
G81 X2.1769 Y2.4614 Z-0.075
G81 X2.0828 Y2.5556 Z-0.075
G81 X1.9789 Y2.4518 Z-0.075
G81 X1.6675 Y2.4566 Z-0.075
G81 Y2.3286 Z-0.075
G81 X1.5635 Y2.2001 Z-0.075
G81 X1.3458 Y2.2018 Z-0.075
G81 X1.1991 Y2.2034 Z-0.075
G81 X1.0968 Z-0.075
G81 X0.9963 Z-0.075
G81 X0.9006 Y2.2018 Z-0.075
G81 X0.7839 Y2.36 Z-0.075
G81 X0.837 Y2.5145 Z-0.075
G81 X1.0953 Y2.36 Z-0.075
G81 X1.2209 Y2.3576 Z-0.075
G81 X1.2184 Y2.5773 Z-0.075
G81 X1.3464 Y2.5749 Z-0.075
G81 X1.5637 Y2.5773 Z-0.075
G81 X1.5613 Y2.826 Z-0.075
G81 X1.3971 Z-0.075
G81 X1.1991 Y2.8284 Z-0.075
G81 X1.0953 Y2.7246 Z-0.075
G81 X0.9915 Y2.826 Z-0.075
G81 X0.7935 Z-0.075
G81 X0.5352 Z-0.075
G81 X0.5159 Y2.5145 Z-0.075
G81 X0.5352 Y2.2973 Z-0.075
G81 X0.6698 Y2.1622 Z-0.075
G81 X0.5345 Y1.9528 Z-0.075
G81 X0.6698 Y1.8489 Z-0.075
G81 X0.899 Y1.9017 Z-0.075
G81 X0.9979 Z-0.075
G81 X1.0968 Z-0.075
G81 X1.1991 Z-0.075
G81 X1.3458 Y1.8901 Z-0.075
G81 X1.4088 Y1.7171 Z-0.075
G81 X1.5635 Y1.8901 Z-0.075
G81 X1.8851 Y1.9 Z-0.075
G81 X1.9856 Y1.9017 Z-0.075
G81 X2.0829 Z-0.075
G81 X2.1868 Z-0.075
G81 X2.1769 Y1.7137 Z-0.075
G81 X2.416 Y1.9231 Z-0.075
G81 X1.8554 Y1.7153 Z-0.075
G81 X1.0962 Y1.7171 Z-0.075
G81 X0.8577 Y1.3921 Z-0.075
G81 X0.744 Z-0.075
G81 X0.5659 Y1.2882 Z-0.075
G81 X0.4422 Z-0.075
G81 X0.3894 Y1.5059 Z-0.075
G81 X0.4933 Y1.6098 Z-0.075
G81 X0.3894 Y1.7137 Z-0.075
G81 X0.744 Y1.0508 Z-0.075
G81 X0.8577 Y1.0491 Z-0.075
G81 X1.0441 Y1.0063 Z-0.075
G81 X1.1387 Y0.8619 Z-0.075
G81 X1.2354 Y0.8606 Z-0.075
G81 X1.3335 Y0.8619 Z-0.075
G81 X1.4398 Z-0.075
G81 X1.397 Y1.0079 Z-0.075
G81 X1.491 Z-0.075
G81 X0.9806 Y0.2991 Z-0.075
G81 X0.5692 Y0.9453 Z-0.075
G81 X0.4438 Z-0.075
G81 X4.2453 Y1.8588 Z-0.075
G81 X4.5029 Y1.857 Z-0.075
G81 X4.5065 Y1.7445 Z-0.075
G81 X4.8167 Z-0.075
G81 X4.8148 Y1.8588 Z-0.075
G81 X4.815 Y1.9748 Z-0.075
G81 Y2.0873 Z-0.075
G81 X4.8169 Y2.2016 Z-0.075
G81 Y2.3249 Z-0.075
G80
G0 Z0.125
M5
M30
